<?xml version="1.0" encoding="UTF-8"?>
<map version="1.10" tiledversion="1.11.2" orientation="orthogonal" renderorder="right-down" width="120" height="100" tilewidth="16" tileheight="16" infinite="1" nextlayerid="3" nextobjectid="1">
 <tileset firstgid="1" source="../boceto.tsx"/>
 <tileset firstgid="65" source="../bollo.tsx"/>
 <layer id="1" name="Boceto" width="120" height="100">
  <data encoding="csv">
   <chunk x="-80" y="-64" width="16" height="16">
13,13,13,13,13,13,13,13,13,13,13,13,13,13,13,13,
13,13,13,13,13,13,13,13,13,13,13,13,3,3,3,3,
13,13,13,13,13,13,13,13,13,13,3,3,1,1,1,1,
13,13,13,13,13,13,13,13,3,3,3,1,1,1,1,1,
13,13,13,13,13,13,13,3,3,1,1,1,1,1,1,1,
13,13,13,13,13,13,13,3,1,1,1,1,1,1,1,1,
13,13,13,13,13,13,3,3,1,1,1,1,1,1,1,1,
13,13,13,13,13,3,3,3,1,1,1,1,1,1,1,1,
13,13,13,13,13,3,3,3,1,1,1,1,1,1,1,1,
13,13,13,13,3,3,3,1,1,1,1,1,1,1,1,1,
13,13,13,13,3,3,3,1,1,1,1,1,1,1,1,1,
13,13,13,13,3,3,1,1,1,1,1,1,1,1,1,1,
13,13,13,13,13,3,3,1,1,1,1,1,1,1,1,1,
13,13,13,13,13,3,3,3,1,1,1,1,1,1,1,1,
13,13,13,13,13,3,3,3,1,1,1,1,1,1,1,1,
13,13,13,13,13,3,3,3,1,1,1,1,1,1,1,1
</chunk>
   <chunk x="-64" y="-64" width="16" height="16">
13,13,13,13,13,13,13,13,13,13,13,13,13,13,13,13,
3,3,3,3,3,13,13,13,13,13,13,13,13,13,13,13,
1,1,1,3,3,3,3,3,3,13,13,13,13,13,13,13,
1,1,1,1,1,3,3,3,3,13,13,13,13,13,13,13,
1,1,1,1,1,1,1,3,3,3,13,13,13,13,13,13,
1,1,1,1,1,1,1,3,3,3,3,13,13,13,13,13,
1,1,1,1,1,1,1,3,3,3,3,3,13,13,13,13,
1,1,1,1,1,1,1,3,3,3,3,3,3,13,13,13,
1,1,1,1,1,1,1,1,3,3,3,3,3,3,3,3,
1,1,1,1,1,1,1,1,1,3,3,3,3,3,3,3,
1,1,1,1,1,1,1,1,1,1,3,3,3,3,3,3,
1,1,1,1,1,1,1,1,1,3,3,3,3,3,3,3,
1,1,1,1,1,1,1,1,1,1,1,1,1,1,1,1,
1,1,1,1,1,1,1,1,1,1,1,1,1,1,1,1,
1,1,1,1,1,1,1,1,1,1,1,1,1,1,1,1,
1,1,1,1,1,1,1,1,1,1,1,1,1,1,1,1
</chunk>
   <chunk x="-48" y="-64" width="16" height="16">
13,13,13,13,13,13,13,13,13,13,13,13,13,13,13,13,
13,13,13,13,13,13,13,13,13,13,13,13,13,13,13,13,
13,13,13,13,13,13,13,13,13,13,13,13,13,13,13,13,
13,13,13,13,13,13,13,13,13,13,13,13,13,13,13,13,
13,13,13,13,13,13,13,13,13,13,13,13,13,13,13,13,
13,13,13,13,13,13,13,13,13,13,13,13,13,13,13,13,
13,13,13,13,13,13,13,13,13,13,13,13,13,13,13,13,
13,13,13,13,13,13,13,13,13,13,13,13,13,13,13,13,
13,13,13,13,13,13,13,13,13,13,13,13,13,13,13,13,
13,13,13,13,13,13,13,13,13,13,13,13,13,13,13,13,
3,13,13,13,13,13,13,13,13,13,13,13,13,13,13,13,
3,3,13,13,13,13,13,13,13,13,13,13,13,13,13,13,
1,3,3,3,13,13,13,13,13,13,13,13,13,13,13,13,
1,1,3,3,3,13,13,13,13,13,13,13,13,13,13,13,
1,1,1,3,3,3,13,13,13,13,13,13,13,13,13,13,
1,1,1,3,3,3,13,13,13,13,13,13,13,13,13,13
</chunk>
   <chunk x="-32" y="-64" width="16" height="16">
13,13,13,13,13,13,13,13,13,13,13,13,13,13,13,13,
13,13,13,13,13,13,13,13,13,13,13,13,13,13,13,13,
13,13,13,13,13,13,13,13,13,13,13,13,13,13,13,13,
13,13,13,13,13,13,13,13,13,13,13,13,13,13,13,13,
13,13,13,13,13,13,13,13,13,13,13,13,13,13,13,13,
13,13,13,13,13,13,13,13,13,13,13,13,13,13,13,13,
13,13,13,13,13,13,13,13,13,13,13,13,13,13,13,13,
13,13,13,13,13,13,13,13,13,13,13,13,13,13,13,13,
13,13,13,13,13,13,13,13,13,13,13,13,13,13,13,13,
13,13,13,13,13,13,13,13,13,13,13,13,13,13,13,13,
13,13,13,13,13,13,13,13,13,13,13,13,13,13,13,13,
13,13,13,13,13,13,13,13,13,13,13,13,13,13,13,13,
13,13,13,13,13,13,13,13,13,13,13,13,13,13,13,13,
13,13,13,13,13,13,13,13,13,13,13,13,13,13,3,3,
13,13,13,13,13,13,13,13,13,3,3,3,3,3,3,3,
13,13,13,13,13,13,13,13,3,3,3,3,3,3,3,3
</chunk>
   <chunk x="-16" y="-64" width="16" height="16">
13,13,13,13,13,13,13,13,13,13,13,13,13,13,13,13,
13,13,13,13,13,13,13,13,13,13,13,13,13,13,13,13,
13,13,13,13,13,13,13,13,13,13,13,13,13,13,13,13,
13,13,13,13,13,13,13,13,13,13,13,13,13,13,13,13,
13,13,13,13,13,13,13,13,13,13,13,13,13,13,13,13,
13,13,13,13,13,13,13,13,13,13,13,13,13,13,13,13,
13,13,13,13,13,13,13,13,13,13,13,13,13,13,13,13,
13,13,13,13,13,13,13,13,13,13,13,13,13,13,13,13,
13,13,13,13,13,13,13,13,13,13,13,13,13,13,13,13,
13,13,13,13,13,13,13,13,13,13,13,13,13,13,13,13,
13,13,13,13,13,13,13,13,13,13,13,13,13,13,13,13,
13,13,3,3,3,3,3,3,13,13,13,13,13,13,13,13,
3,3,3,3,3,3,3,3,3,3,13,13,13,13,13,13,
3,3,3,3,3,3,3,3,3,3,3,3,13,13,13,13,
3,3,3,3,3,3,3,3,3,3,3,3,3,3,3,3,
3,3,3,3,3,3,3,3,3,3,3,3,3,3,3,3
</chunk>
   <chunk x="0" y="-64" width="16" height="16">
13,13,13,13,13,13,13,13,13,13,13,13,13,13,13,13,
13,13,13,13,13,13,13,13,13,13,13,13,13,13,13,13,
13,13,13,13,13,13,13,13,13,13,13,13,13,13,13,13,
13,13,13,13,13,13,13,13,13,13,13,13,13,13,13,13,
13,13,13,13,13,13,13,13,13,13,13,13,13,13,13,13,
13,13,13,13,13,13,13,13,13,13,13,13,13,13,13,13,
13,13,13,13,13,13,13,13,13,13,13,13,13,13,13,13,
13,13,13,13,13,13,13,13,13,13,13,13,13,13,13,13,
13,13,13,13,13,13,13,13,13,13,13,13,13,13,13,13,
13,13,13,13,13,13,13,13,13,13,13,13,13,13,13,13,
13,13,13,13,13,13,13,13,13,13,13,13,13,13,13,13,
13,13,13,13,13,13,13,13,13,13,13,13,13,13,13,3,
13,13,13,13,13,13,13,13,13,13,13,13,13,13,3,3,
13,13,13,13,13,13,13,13,13,13,13,13,13,3,3,3,
3,3,3,3,3,13,13,13,13,13,13,13,13,3,3,3,
3,3,3,3,3,3,3,13,13,13,13,13,3,3,3,3
</chunk>
   <chunk x="16" y="-64" width="16" height="16">
13,13,13,13,13,13,13,13,13,13,13,13,13,13,13,13,
13,13,13,13,13,13,13,13,13,13,13,13,13,13,13,13,
13,13,13,13,13,13,13,13,13,13,13,13,13,13,13,13,
13,13,13,13,13,13,13,13,13,13,13,13,13,13,13,13,
13,13,13,13,13,13,13,13,13,13,13,13,13,13,13,13,
13,13,13,13,13,13,13,13,13,13,13,13,13,13,13,13,
13,13,13,13,13,13,13,13,13,13,13,13,13,13,13,13,
13,13,13,13,13,13,13,13,13,13,13,13,13,13,13,13,
13,13,13,13,13,13,13,13,13,13,13,13,13,13,13,13,
13,13,13,13,13,13,13,13,13,13,13,13,13,13,13,13,
13,3,3,3,3,3,3,3,3,13,13,13,13,13,13,13,
3,3,3,3,3,3,3,3,3,3,13,13,13,13,13,13,
3,3,3,3,3,3,3,3,3,3,13,13,13,13,13,13,
3,3,3,3,3,3,3,3,3,3,13,13,13,13,13,13,
3,3,3,3,3,3,3,3,3,3,3,13,13,13,13,13,
3,3,3,3,3,3,3,3,3,3,3,3,13,13,13,13
</chunk>
   <chunk x="32" y="-64" width="16" height="16">
13,13,13,13,13,13,13,13,13,13,13,13,13,13,13,13,
13,13,13,13,13,13,13,13,13,13,13,13,13,13,13,13,
13,13,13,13,13,13,13,13,13,13,13,13,13,13,13,13,
13,13,13,13,13,13,13,13,13,13,13,13,13,13,13,13,
13,13,13,13,13,13,13,13,13,13,13,13,13,13,13,13,
13,13,13,13,13,13,13,13,13,13,13,13,13,13,13,13,
13,13,13,13,13,13,13,13,13,13,13,13,13,13,13,13,
13,13,13,13,13,13,13,13,13,13,13,13,13,13,13,13,
13,13,13,13,13,13,13,13,13,13,13,13,13,13,13,13,
13,13,13,13,13,13,13,13,13,13,13,13,13,13,13,13,
13,13,13,13,13,13,13,13,13,13,13,13,13,13,13,13,
13,13,13,13,13,13,13,13,13,13,13,13,13,13,13,13,
13,13,13,13,13,13,13,13,13,13,13,13,13,13,13,13,
13,13,13,13,13,13,13,13,13,13,13,13,13,13,13,13,
13,13,13,13,13,13,13,13,13,13,13,13,13,13,13,13,
13,13,13,13,13,13,13,13,13,13,13,13,13,13,13,13
</chunk>
   <chunk x="48" y="-64" width="16" height="16">
13,13,13,13,13,13,13,13,13,13,13,13,13,13,13,13,
13,13,13,13,13,13,13,13,13,13,13,13,13,13,13,13,
13,13,13,13,13,13,13,13,13,13,13,13,13,13,13,13,
13,13,13,13,13,13,13,13,13,13,13,13,13,13,13,13,
13,13,13,13,13,13,13,13,13,13,13,13,13,13,13,13,
13,13,13,13,13,13,13,13,13,13,13,13,13,13,13,13,
13,13,13,13,13,13,13,13,13,13,13,13,13,13,13,13,
13,13,13,13,13,13,13,13,13,13,13,13,13,13,13,13,
13,13,13,13,13,13,13,13,13,13,13,13,13,13,13,13,
13,13,13,13,13,13,13,13,13,13,13,13,13,13,13,13,
13,13,13,13,13,13,13,13,13,13,13,13,13,13,13,13,
13,13,13,13,13,13,13,13,13,13,13,13,13,13,13,13,
13,13,13,13,13,13,13,13,13,13,13,13,13,13,13,13,
13,13,13,13,13,13,13,13,13,13,13,13,13,13,13,13,
13,13,13,13,13,13,13,13,13,13,13,13,13,13,13,13,
13,13,13,13,13,13,13,13,13,13,13,13,13,13,13,13
</chunk>
   <chunk x="-80" y="-48" width="16" height="16">
13,13,13,13,13,3,3,3,1,1,1,1,1,1,1,1,
13,13,13,13,13,3,3,3,3,1,1,1,1,1,1,1,
13,13,13,13,13,3,3,3,3,3,3,3,1,1,1,1,
13,13,13,13,3,3,3,3,3,3,3,3,1,1,1,1,
13,3,13,13,3,3,3,3,3,3,3,3,3,1,1,1,
13,3,3,3,3,3,3,3,3,3,3,3,3,1,1,1,
13,3,3,3,3,3,3,3,3,3,3,3,3,3,1,1,
13,3,3,3,3,3,3,3,3,3,3,3,3,3,1,1,
10,10,10,10,3,3,3,3,10,10,1,3,3,3,1,1,
10,10,10,10,10,10,10,10,10,10,1,1,1,1,1,1,
10,10,10,10,10,10,10,10,10,10,10,10,10,1,1,1,
10,10,10,10,10,10,10,10,10,10,10,10,10,10,10,1,
10,10,10,10,10,10,10,10,10,10,10,10,10,10,10,10,
10,10,10,10,10,10,10,10,10,10,10,10,10,10,10,10,
10,10,10,10,10,10,10,10,10,10,10,10,10,10,10,10,
10,10,10,10,10,10,10,10,10,10,10,10,10,10,10,10
</chunk>
   <chunk x="-64" y="-48" width="16" height="16">
1,1,1,1,1,1,1,1,1,1,1,1,1,1,1,1,
1,1,1,1,1,1,1,1,1,1,1,1,1,1,1,1,
1,1,1,1,1,1,1,1,1,1,1,1,1,1,1,1,
1,1,1,1,1,1,1,1,1,1,1,1,1,1,1,1,
1,1,1,1,1,1,1,1,1,1,1,1,1,1,1,1,
1,1,1,1,1,1,1,1,1,1,1,1,1,1,1,1,
1,1,1,1,1,1,1,1,1,1,1,1,1,1,1,1,
1,1,1,1,1,1,1,1,1,1,1,1,1,1,1,1,
1,1,1,1,1,1,1,1,1,1,1,1,1,1,1,1,
1,1,1,1,1,1,1,1,1,1,1,1,1,1,1,1,
1,1,1,1,1,1,1,1,1,1,1,1,1,1,1,1,
1,1,1,1,1,1,1,1,1,1,1,1,1,1,1,1,
10,1,1,1,1,1,1,1,1,10,10,10,10,10,2,2,
10,10,10,1,1,1,10,10,10,10,10,10,10,10,10,10,
10,10,10,10,10,10,10,10,10,10,10,10,10,10,10,10,
10,10,10,10,10,10,10,10,10,10,10,10,10,10,10,10
</chunk>
   <chunk x="-48" y="-48" width="16" height="16">
1,1,1,1,3,3,3,13,13,13,13,13,13,13,13,13,
1,1,1,1,3,3,3,3,13,13,13,13,13,13,13,13,
1,1,1,1,3,3,3,3,13,13,13,13,13,13,13,13,
1,1,1,1,3,3,3,13,13,13,13,13,13,13,13,13,
1,1,1,1,1,3,3,13,13,13,13,13,13,13,13,13,
1,1,1,3,3,3,3,13,13,13,13,13,13,13,13,13,
1,1,3,3,3,3,3,13,13,13,13,13,13,13,13,13,
1,1,1,1,3,3,3,3,13,13,13,13,13,13,13,13,
1,1,1,1,3,3,3,3,13,13,13,13,13,13,13,13,
1,1,1,1,1,3,3,3,3,13,13,13,13,13,3,3,
1,1,1,1,1,3,3,3,3,3,13,13,13,3,3,3,
1,1,1,1,1,1,3,3,3,3,3,3,3,3,3,3,
2,1,1,1,1,1,3,3,3,3,3,3,3,3,3,3,
2,2,1,1,1,1,1,3,3,3,3,3,3,3,3,3,
2,2,2,1,1,1,1,3,3,3,3,3,3,3,3,3,
10,2,2,1,1,1,1,3,3,3,3,3,3,3,3,3
</chunk>
   <chunk x="-32" y="-48" width="16" height="16">
13,13,13,13,13,13,13,3,3,3,3,3,3,3,3,3,
13,13,13,13,13,13,3,3,3,3,3,3,3,3,3,3,
13,13,13,13,13,3,3,3,3,3,3,3,3,3,3,3,
13,13,13,13,3,3,3,3,3,3,3,3,1,1,1,1,
13,13,13,3,3,3,3,3,3,3,3,1,1,1,1,1,
13,13,3,3,3,3,3,3,3,3,3,1,1,1,1,1,
13,3,3,3,3,3,3,3,3,3,1,1,1,1,1,1,
13,3,3,3,3,3,3,3,3,1,1,1,1,1,1,1,
3,3,3,3,3,3,3,1,1,1,1,1,1,1,1,1,
3,3,3,3,3,3,1,1,1,1,1,1,1,1,1,1,
3,3,3,3,3,3,3,1,1,1,1,1,1,1,1,1,
3,3,3,3,3,3,3,1,1,1,1,1,1,1,1,1,
3,3,3,3,3,3,3,1,1,1,1,1,1,1,1,1,
3,3,3,3,3,3,3,1,1,1,1,1,1,1,1,1,
3,3,3,3,3,3,3,1,1,1,1,1,1,1,1,12,
3,3,3,3,3,3,3,1,1,1,1,1,1,1,12,12
</chunk>
   <chunk x="-16" y="-48" width="16" height="16">
3,3,3,3,3,3,3,3,3,3,3,3,3,3,3,3,
3,3,3,3,3,3,3,3,3,1,1,3,3,3,3,3,
1,1,3,3,3,3,3,3,1,1,1,1,1,1,1,1,
1,1,1,1,1,1,1,1,1,1,1,1,1,1,1,1,
1,1,1,1,1,1,1,1,1,1,1,1,1,1,1,1,
1,1,1,1,1,1,1,1,1,1,1,1,1,1,1,1,
1,1,1,1,1,1,1,1,1,1,1,3,3,3,1,1,
1,1,1,1,1,1,1,1,1,1,1,3,3,3,3,1,
1,1,1,1,1,1,1,1,1,1,3,3,3,3,3,3,
1,1,1,1,12,12,12,12,12,12,3,3,3,3,3,3,
1,1,1,12,12,12,12,12,12,12,12,3,3,3,3,3,
1,1,12,12,12,12,12,12,12,12,12,12,12,3,3,3,
1,12,12,12,12,12,12,12,12,10,10,12,12,12,3,3,
12,12,12,12,12,12,12,12,12,9,9,12,12,12,12,12,
12,12,12,12,12,12,12,12,12,9,9,12,12,12,12,12,
12,12,12,12,12,12,12,12,12,9,9,12,12,12,12,12
</chunk>
   <chunk x="0" y="-48" width="16" height="16">
3,3,3,3,3,3,3,3,3,13,13,13,3,3,3,3,
3,3,3,3,3,3,3,3,3,3,3,3,3,3,3,3,
1,1,1,1,1,3,3,3,3,3,3,3,3,3,3,3,
1,1,1,1,1,1,1,3,3,3,3,3,3,1,1,1,
1,1,1,1,1,1,1,1,1,1,1,1,1,1,1,1,
1,1,1,1,1,1,1,1,1,1,1,1,1,1,1,1,
1,1,1,1,1,1,1,1,1,1,1,1,1,1,1,1,
1,1,1,1,1,3,1,1,1,1,1,1,1,1,1,1,
1,1,1,1,3,3,3,1,1,1,1,1,1,1,1,12,
3,3,1,3,3,3,3,3,3,1,1,1,1,1,1,12,
3,3,3,3,3,3,3,3,3,3,3,1,1,1,12,12,
3,3,3,3,3,3,3,3,3,3,3,3,3,12,12,12,
3,3,3,3,3,3,3,3,3,3,3,3,3,12,12,12,
12,12,12,3,3,3,3,3,3,3,3,3,3,12,12,12,
12,12,12,12,3,3,3,3,3,12,12,12,12,12,12,12,
12,12,12,12,12,12,12,12,12,12,12,12,12,12,12,12
</chunk>
   <chunk x="16" y="-48" width="16" height="16">
3,3,3,3,3,3,3,3,3,3,3,3,13,13,13,13,
3,1,1,1,3,3,3,3,3,3,3,3,3,13,13,13,
1,1,1,1,1,3,3,3,3,3,3,3,3,13,13,13,
1,1,1,1,1,1,3,3,3,3,3,3,3,13,13,13,
1,1,1,1,1,1,1,1,1,3,3,3,3,1,13,13,
1,1,1,1,1,1,1,1,1,1,1,1,1,1,1,1,
1,1,1,1,1,1,1,1,1,1,1,1,1,1,1,1,
1,1,1,1,1,1,1,1,1,1,1,1,1,1,1,1,
12,12,12,1,1,1,1,1,1,1,1,1,1,1,1,1,
12,12,12,12,1,1,1,1,1,1,1,1,1,1,1,1,
12,12,12,12,1,1,1,1,1,1,1,1,1,1,1,1,
12,12,12,12,12,1,1,1,1,1,1,1,1,2,2,2,
12,12,12,12,12,12,1,1,1,1,1,1,2,2,2,2,
12,12,12,12,12,12,12,1,1,1,1,1,2,2,2,2,
12,12,12,12,12,12,12,12,12,12,12,2,2,2,2,2,
12,12,12,12,12,12,12,12,12,12,2,2,2,2,2,2
</chunk>
   <chunk x="32" y="-48" width="16" height="16">
13,13,13,13,13,13,13,13,13,13,13,13,13,13,13,13,
13,13,13,13,13,13,13,13,13,13,13,13,13,13,13,13,
13,13,13,13,13,13,13,13,13,13,13,13,13,13,13,13,
13,13,13,13,13,13,13,13,13,13,13,13,13,13,13,13,
13,13,13,13,13,13,13,13,13,13,13,13,13,13,13,13,
13,13,13,13,13,13,13,13,13,13,13,13,13,13,13,13,
1,1,13,13,13,13,13,13,13,13,13,13,13,13,13,13,
1,1,1,1,13,13,13,13,13,13,13,13,13,13,13,13,
1,1,1,1,13,13,13,13,13,13,13,13,13,13,13,13,
1,1,1,1,13,13,13,13,13,13,13,13,13,13,13,13,
1,1,1,13,13,13,13,13,13,13,13,13,13,13,13,13,
2,1,1,13,13,13,13,13,13,13,13,13,13,13,13,13,
2,2,2,13,13,13,13,13,13,13,13,13,13,13,13,13,
2,2,13,13,13,13,13,13,13,13,13,13,13,13,13,13,
2,2,13,13,13,13,13,13,13,13,13,13,13,13,13,13,
2,2,13,13,13,13,13,13,13,13,13,13,13,13,13,13
</chunk>
   <chunk x="48" y="-48" width="16" height="16">
13,13,13,13,13,13,13,13,13,13,13,13,13,13,13,13,
13,13,13,13,13,13,13,13,13,13,13,13,13,13,13,13,
13,13,13,13,13,13,13,13,13,13,13,13,13,13,13,13,
13,13,13,13,13,13,13,13,13,13,13,13,13,13,13,13,
13,13,13,13,13,13,13,13,13,13,13,13,13,13,13,13,
13,13,13,13,13,13,13,13,13,13,13,13,13,13,13,13,
13,13,13,13,13,13,13,13,13,13,13,13,13,13,13,13,
13,13,13,13,13,13,13,13,13,13,13,13,13,13,13,13,
13,13,13,13,13,13,13,13,13,13,13,13,13,13,13,13,
13,13,13,13,13,13,13,13,13,13,13,13,13,13,13,13,
13,13,13,13,13,13,13,13,13,13,13,13,13,13,13,13,
13,13,13,13,13,13,13,13,13,13,13,13,13,13,13,13,
13,13,13,13,13,13,13,13,13,13,13,13,13,13,13,13,
13,13,13,13,13,13,13,13,13,13,13,13,13,13,13,13,
13,13,13,13,13,13,13,13,13,13,13,13,13,13,13,13,
13,13,13,13,13,13,13,13,13,13,13,13,13,13,13,13
</chunk>
   <chunk x="-80" y="-32" width="16" height="16">
10,10,10,10,10,10,10,10,10,10,10,10,10,10,10,10,
10,10,10,10,10,10,10,10,10,10,10,10,10,10,10,10,
10,10,10,10,10,10,10,10,10,10,10,10,10,10,10,10,
10,10,10,10,10,10,10,10,10,10,10,10,10,10,10,10,
10,10,10,10,10,10,10,10,10,10,10,10,10,10,10,10,
10,10,10,10,10,10,10,10,10,10,10,10,10,10,10,10,
10,10,10,10,10,10,10,10,10,10,10,10,10,10,10,10,
10,10,10,10,10,10,10,10,10,10,10,10,10,10,10,10,
10,10,10,10,10,10,10,10,10,10,10,10,10,10,10,10,
10,10,10,10,10,10,10,10,10,10,10,10,10,10,10,10,
10,10,10,10,10,10,10,10,10,10,10,10,10,10,10,10,
10,10,10,10,10,10,10,10,10,10,10,10,10,10,10,10,
10,10,10,10,10,10,10,10,10,10,10,10,10,10,10,10,
10,10,10,10,10,10,10,10,10,10,10,10,10,10,10,10,
10,10,10,10,10,10,10,10,10,10,10,10,10,10,10,10,
10,10,10,10,10,10,10,10,10,10,10,10,10,10,10,10
</chunk>
   <chunk x="-64" y="-32" width="16" height="16">
10,10,10,10,10,10,10,10,10,10,10,10,10,10,10,10,
10,10,10,10,10,10,10,10,10,10,10,10,10,2,2,2,
10,10,10,10,10,10,10,10,10,10,2,2,2,2,2,1,
10,10,10,10,10,10,10,10,10,2,2,2,2,2,1,1,
10,10,10,10,10,10,10,10,10,2,2,2,2,2,2,2,
10,10,10,10,10,10,10,10,10,2,2,2,2,2,2,2,
10,10,10,10,10,10,10,10,10,10,2,2,2,2,2,2,
10,10,10,10,10,10,10,10,10,10,10,10,2,2,2,2,
10,10,10,10,10,10,10,10,10,10,10,10,10,2,2,2,
10,10,10,10,10,10,10,10,10,10,10,10,10,10,10,10,
10,10,10,10,10,10,10,10,10,10,10,10,10,10,10,10,
10,10,10,10,10,10,10,10,10,10,10,10,10,3,3,3,
10,10,10,10,10,10,10,10,10,10,10,10,3,3,3,3,
10,10,10,10,10,10,10,10,10,10,10,10,3,3,3,3,
10,10,10,10,10,10,10,10,10,10,10,3,3,3,3,3,
10,10,10,10,10,10,10,10,10,10,2,2,2,2,2,2
</chunk>
   <chunk x="-48" y="-32" width="16" height="16">
2,2,2,1,1,1,1,1,1,1,1,3,3,3,1,1,
2,2,1,1,1,1,1,1,1,1,1,1,1,1,1,1,
1,1,1,1,1,1,1,1,1,1,1,1,1,1,1,1,
1,1,1,1,1,1,1,1,1,1,1,1,1,1,1,1,
1,1,1,1,1,1,1,1,1,1,1,1,1,1,1,1,
2,1,1,1,1,1,1,1,1,1,1,1,1,1,1,1,
2,2,1,1,1,1,1,1,1,1,1,1,1,1,1,1,
2,2,2,1,1,1,1,1,1,1,1,1,1,1,1,1,
2,2,2,2,1,1,1,1,1,1,1,1,1,1,1,1,
10,2,2,2,2,2,1,1,1,1,1,1,1,1,1,1,
10,10,10,10,2,2,2,2,2,1,1,1,1,1,1,1,
10,10,10,10,10,10,10,10,2,2,2,2,2,2,2,2,
3,3,2,2,2,2,10,10,10,10,2,2,2,10,10,10,
3,3,2,2,2,2,2,2,10,10,10,10,10,10,10,10,
3,2,2,2,2,2,2,3,3,3,3,10,10,10,3,3,
2,2,2,2,2,2,3,3,3,3,3,3,3,3,3,3
</chunk>
   <chunk x="-32" y="-32" width="16" height="16">
3,3,3,3,3,3,1,1,1,1,1,1,1,12,12,12,
1,1,1,1,1,1,1,1,1,1,1,1,1,12,12,12,
1,1,1,1,1,1,1,1,1,1,1,1,12,12,12,12,
1,1,1,1,1,1,1,1,1,1,1,12,12,12,12,12,
1,1,1,1,1,1,1,1,1,1,1,10,10,12,12,12,
1,1,1,1,1,1,1,1,1,1,10,10,10,12,12,12,
1,1,1,1,1,1,1,1,1,10,10,10,12,12,12,12,
1,1,1,1,1,1,1,10,10,10,10,12,12,12,12,12,
1,1,1,1,1,2,2,10,10,12,12,12,12,12,12,12,
1,1,1,2,2,10,10,10,10,12,12,12,12,12,12,12,
2,2,2,2,2,10,10,12,12,12,12,12,12,12,12,12,
2,2,10,10,10,10,12,12,12,12,12,12,12,12,12,12,
10,10,10,10,10,12,12,12,12,12,12,12,12,12,12,12,
10,3,3,3,3,12,12,12,12,12,12,12,12,12,12,12,
3,3,3,3,3,12,12,12,12,12,12,12,12,12,12,12,
3,3,3,3,12,12,12,12,12,12,12,12,12,12,12,12
</chunk>
   <chunk x="-16" y="-32" width="16" height="16">
12,12,12,12,12,12,12,12,12,9,9,12,12,12,12,12,
12,12,12,12,12,12,12,12,12,9,9,12,12,12,12,12,
12,12,12,12,12,12,12,12,12,9,9,12,12,12,12,12,
12,12,12,12,12,12,12,12,12,9,9,12,12,12,12,12,
12,12,12,12,12,12,12,12,12,9,9,12,12,12,12,12,
12,12,12,12,12,12,12,12,12,9,9,12,12,12,12,12,
12,12,12,12,12,12,12,12,12,9,9,12,12,1,1,1,
12,12,12,12,12,10,10,10,10,10,10,10,10,10,1,1,
12,12,12,12,10,10,10,10,10,10,10,10,10,10,10,11,
12,12,12,10,10,10,10,10,10,10,10,10,10,10,10,10,
12,12,12,12,10,10,10,10,10,10,10,10,10,10,10,11,
12,12,12,12,12,1,10,10,10,10,10,10,10,11,11,11,
12,12,12,12,1,1,1,1,11,10,10,11,11,11,11,11,
12,12,12,1,1,1,11,11,11,10,10,11,11,11,11,11,
12,1,1,1,1,11,11,11,11,10,10,11,11,11,11,11,
1,1,1,1,11,11,11,11,11,10,10,11,11,11,11,11
</chunk>
   <chunk x="0" y="-32" width="16" height="16">
12,12,12,12,12,12,12,12,12,12,12,12,12,12,12,12,
12,12,12,12,12,12,12,12,12,12,12,12,12,12,12,12,
12,12,12,12,12,12,12,12,12,12,12,12,12,12,1,1,
12,12,12,12,12,12,12,12,12,12,12,12,1,1,1,1,
12,12,12,1,1,1,1,1,1,1,1,1,1,1,1,1,
1,1,1,1,1,1,1,1,1,1,1,1,1,1,1,1,
1,1,1,1,1,1,1,1,1,1,1,1,1,1,1,1,
1,1,1,1,1,1,1,1,1,1,1,1,1,1,1,1,
11,11,11,11,11,11,1,1,1,1,1,1,1,1,1,1,
11,11,11,11,11,11,11,11,11,11,1,1,1,1,1,1,
11,11,11,11,11,11,11,11,11,11,11,11,1,1,1,1,
11,11,11,11,11,11,11,11,11,11,11,11,11,1,1,1,
11,11,11,11,11,11,11,11,11,11,11,11,11,11,1,1,
11,11,11,11,11,11,11,11,11,11,11,11,11,11,1,1,
11,11,11,11,11,11,11,11,11,11,11,11,11,11,11,1,
11,11,11,11,11,11,11,11,11,11,11,11,11,11,11,1
</chunk>
   <chunk x="16" y="-32" width="16" height="16">
12,12,12,12,12,12,12,12,12,2,2,2,2,2,2,2,
12,12,12,12,12,12,12,12,12,2,2,2,2,2,2,2,
1,1,1,1,1,12,12,12,12,2,2,2,2,2,2,2,
1,1,1,1,1,1,1,1,2,2,2,2,2,2,2,2,
1,1,1,1,1,1,1,1,1,1,2,2,2,2,2,2,
1,1,1,1,1,1,1,1,1,1,1,2,2,2,2,2,
1,1,1,1,1,1,1,1,1,1,1,2,2,2,2,2,
1,1,1,1,1,1,1,1,1,1,1,2,2,2,2,2,
1,1,1,1,1,1,1,1,1,1,1,2,2,2,2,2,
1,1,1,1,1,1,1,1,1,1,1,2,2,2,2,2,
1,1,1,1,1,1,1,1,1,1,1,2,2,2,2,2,
1,1,1,1,1,1,1,1,1,1,1,1,1,2,2,2,
1,1,1,1,1,1,1,1,1,1,1,1,1,1,2,2,
1,1,1,1,1,1,1,1,1,1,1,1,1,1,1,2,
1,1,1,1,1,1,1,1,1,1,1,1,1,1,1,2,
1,1,1,1,1,1,1,1,1,1,1,1,1,1,1,1
</chunk>
   <chunk x="32" y="-32" width="16" height="16">
2,2,2,13,13,13,13,13,13,2,13,13,13,13,13,13,
2,2,2,13,13,13,13,2,2,2,2,13,13,13,13,13,
2,2,2,2,2,2,2,2,2,2,2,2,13,13,13,13,
2,2,2,2,2,2,2,2,2,2,2,2,13,13,13,13,
2,2,2,2,2,2,2,2,2,2,2,2,13,13,13,13,
2,2,2,2,2,2,2,2,2,2,2,2,13,13,13,13,
2,2,2,2,2,2,2,2,2,2,2,2,13,13,13,13,
2,2,2,2,2,2,2,2,2,2,2,2,13,13,13,13,
2,2,2,2,2,2,2,2,2,2,13,13,13,13,13,13,
2,2,2,2,2,2,2,2,2,2,13,13,13,13,13,13,
2,2,2,2,2,2,2,2,2,13,13,13,13,13,13,13,
2,2,2,2,2,2,2,2,13,13,13,13,13,13,13,13,
2,2,2,2,2,2,2,13,13,13,13,13,13,13,13,13,
2,2,2,2,2,2,2,13,13,13,13,13,13,13,13,13,
2,2,2,2,2,2,2,13,13,13,13,13,13,13,13,13,
2,2,2,2,2,2,2,2,2,13,13,13,13,13,13,13
</chunk>
   <chunk x="48" y="-32" width="16" height="16">
13,13,13,13,13,13,13,13,13,13,13,13,13,13,13,13,
13,13,13,13,13,13,13,13,13,13,13,13,13,13,13,13,
13,13,13,13,13,13,13,13,13,13,13,13,13,13,13,13,
13,13,13,13,13,13,13,13,13,13,13,13,13,13,13,13,
13,13,13,13,13,13,13,13,13,13,13,13,13,13,13,13,
13,13,13,13,13,13,13,13,13,13,13,13,13,13,13,13,
13,13,13,13,13,13,13,13,13,13,13,13,13,13,13,13,
13,13,13,13,13,13,13,13,13,13,13,13,13,13,13,13,
13,13,13,13,13,13,13,13,13,13,13,13,13,13,13,13,
13,13,13,13,13,13,13,13,13,13,13,13,13,13,13,13,
13,13,13,13,13,13,13,13,13,13,13,13,13,13,13,13,
13,13,13,13,13,13,13,13,13,13,13,13,13,13,13,13,
13,13,13,13,13,13,13,13,13,13,13,13,13,13,13,13,
13,13,13,13,13,13,13,13,13,13,13,13,13,13,13,13,
13,13,13,13,13,13,13,13,13,13,13,13,13,13,13,13,
13,13,13,13,13,13,13,13,13,13,13,13,13,13,13,13
</chunk>
   <chunk x="-80" y="-16" width="16" height="16">
10,10,10,10,10,10,10,10,10,10,10,10,10,10,10,10,
10,10,10,10,10,10,10,10,10,10,10,10,10,10,10,10,
10,10,10,10,10,10,10,10,3,3,10,10,10,10,10,10,
10,10,10,10,3,3,3,3,3,3,3,3,10,10,3,3,
3,3,3,3,3,3,3,3,3,3,3,3,3,3,3,3,
3,3,3,3,3,3,3,3,3,3,3,3,3,3,3,3,
3,3,3,3,3,3,3,3,3,3,3,3,3,3,3,3,
3,3,3,3,3,3,3,3,3,3,3,3,3,3,3,3,
3,3,3,3,3,3,3,3,3,3,3,3,3,3,3,3,
3,3,3,3,3,3,3,3,3,3,3,3,3,3,3,3,
12,3,3,3,3,3,3,3,3,3,3,3,3,3,3,3,
12,12,12,12,3,3,3,3,3,3,3,3,3,3,12,12,
12,12,12,12,12,3,3,3,3,3,12,12,12,12,12,12,
12,12,12,12,12,12,3,3,12,12,12,12,12,12,12,12,
12,12,12,12,12,12,12,12,12,12,12,12,12,12,12,12,
12,12,12,12,12,12,12,12,12,12,12,12,12,12,12,12
</chunk>
   <chunk x="-64" y="-16" width="16" height="16">
10,10,10,10,10,10,10,10,10,2,2,2,2,2,2,2,
10,10,10,10,10,10,10,10,2,2,2,2,2,2,2,2,
10,10,10,10,10,10,10,3,3,3,3,3,2,2,2,2,
3,10,10,10,10,3,3,3,3,3,3,3,3,3,2,2,
3,3,3,3,3,3,3,3,3,3,3,3,3,3,3,3,
3,3,3,3,3,3,3,3,3,3,3,3,3,3,3,3,
3,3,3,3,3,3,3,3,3,3,3,3,3,3,12,12,
3,3,3,3,3,3,3,3,3,3,3,3,3,12,12,12,
3,3,3,3,3,3,3,3,3,3,3,12,12,12,12,12,
3,3,3,3,3,3,3,3,3,3,12,12,12,12,12,12,
3,3,3,3,3,12,12,12,12,12,12,12,12,12,12,12,
12,12,12,12,12,12,12,12,12,12,12,12,12,12,12,12,
12,12,12,12,12,12,12,12,12,12,12,12,12,12,12,12,
12,12,12,12,12,12,12,12,12,12,12,12,12,12,2,2,
12,12,12,12,12,12,12,12,12,12,3,3,2,2,2,2,
12,12,12,12,12,12,12,12,12,3,3,3,3,2,2,1
</chunk>
   <chunk x="-48" y="-16" width="16" height="16">
2,2,2,2,2,2,3,3,3,3,3,3,3,3,3,3,
2,2,2,2,2,2,2,3,3,3,3,3,3,3,3,3,
2,2,2,2,2,2,2,3,3,3,3,3,3,3,3,12,
2,2,2,2,12,12,12,3,3,3,3,3,3,12,12,12,
2,2,2,2,12,12,12,12,12,12,12,12,12,12,12,12,
12,12,2,2,2,12,12,12,12,12,12,12,12,12,12,12,
12,12,12,2,2,2,12,12,12,12,12,12,12,12,12,12,
12,12,12,12,2,2,12,12,12,12,12,12,12,12,12,12,
12,12,12,12,2,2,12,12,12,12,12,12,12,12,12,12,
12,12,12,12,2,2,12,12,12,12,12,12,12,12,12,12,
12,12,12,12,2,2,12,12,12,12,3,3,3,12,12,12,
12,12,2,2,2,12,12,12,3,3,3,3,3,3,3,3,
2,2,2,2,2,12,3,3,3,3,3,3,3,3,3,3,
2,2,2,12,12,3,3,3,3,3,3,3,3,3,3,3,
2,2,1,1,1,1,3,3,3,3,3,3,3,3,3,3,
1,1,1,1,1,1,3,3,3,3,3,3,3,3,3,3
</chunk>
   <chunk x="-32" y="-16" width="16" height="16">
3,3,3,12,12,12,12,12,12,12,12,12,12,12,12,12,
3,3,3,12,12,12,12,12,12,12,12,12,12,12,12,1,
12,12,12,12,12,12,12,12,12,12,12,12,12,4,12,1,
12,12,12,12,12,12,12,12,12,12,12,12,12,4,1,1,
12,12,12,12,12,12,12,12,12,12,12,12,4,4,1,1,
12,12,12,12,12,12,12,12,12,12,12,4,4,4,1,11,
12,12,12,12,12,12,12,12,12,12,4,4,4,1,1,11,
12,12,12,12,12,12,12,12,12,12,4,4,4,1,11,11,
12,12,12,12,12,12,12,12,12,4,4,4,1,1,11,11,
12,12,12,12,12,12,12,12,12,4,4,4,1,11,11,11,
12,12,12,12,12,12,12,12,12,4,4,4,1,11,11,11,
12,12,12,12,12,12,12,12,12,4,4,1,1,11,11,11,
3,3,12,12,12,12,12,12,12,4,4,1,1,11,11,11,
3,3,12,12,12,12,12,12,12,4,1,1,1,11,11,11,
3,3,3,12,12,12,12,12,12,4,1,1,1,11,11,11,
3,3,3,3,12,12,12,12,4,4,1,1,1,11,11,11
</chunk>
   <chunk x="-16" y="-16" width="16" height="16">
1,1,1,11,11,11,11,11,11,10,10,11,11,11,11,11,
1,1,11,11,11,11,11,11,11,10,10,11,11,11,11,11,
1,11,11,11,11,11,11,11,11,10,10,11,11,11,11,11,
1,11,11,11,11,11,11,11,7,7,7,7,11,11,11,11,
11,11,11,11,11,11,11,11,11,10,10,11,11,11,11,11,
11,11,11,11,11,11,11,11,11,10,10,11,11,11,11,11,
11,11,11,11,11,11,11,11,11,10,10,11,11,11,11,11,
11,11,11,11,11,11,11,11,11,10,10,11,11,11,11,11,
11,11,11,11,11,11,11,11,11,10,10,11,11,11,11,11,
11,11,11,11,11,11,11,11,11,10,10,10,11,11,11,11,
11,11,11,11,11,11,11,11,11,11,10,10,10,10,10,10,
11,11,11,11,11,11,11,11,11,11,11,10,10,10,10,10,
11,11,11,11,11,11,11,11,11,11,11,11,11,11,11,11,
11,11,11,11,11,11,11,11,11,11,11,11,11,11,11,11,
11,11,11,11,11,11,11,11,11,11,11,11,11,11,11,11,
11,11,11,11,11,11,11,11,11,11,11,11,11,11,11,11
</chunk>
   <chunk x="0" y="-16" width="16" height="16">
11,11,11,11,11,11,11,11,11,11,11,11,11,11,11,11,
11,11,11,11,11,11,11,11,11,11,11,11,11,11,11,11,
11,11,11,11,11,11,11,11,11,11,11,11,11,11,11,11,
11,11,11,11,11,11,11,11,11,11,11,11,11,11,11,11,
11,11,11,11,11,11,11,11,11,11,11,11,11,11,11,11,
11,11,11,11,11,11,11,11,11,11,11,11,11,11,11,11,
11,11,11,11,11,11,11,11,11,11,11,11,11,11,11,11,
11,11,11,11,11,11,11,11,11,11,11,11,11,11,11,11,
11,11,11,11,11,11,11,11,11,11,11,11,11,11,11,11,
7,11,11,11,11,11,11,11,11,11,11,11,11,11,11,11,
7,10,10,10,10,10,11,11,11,11,11,11,11,11,11,11,
7,10,10,10,10,10,10,10,11,11,11,11,11,11,11,11,
7,11,11,11,10,10,10,10,10,11,11,11,11,11,11,11,
11,11,11,11,11,11,10,10,10,10,11,11,11,11,11,11,
11,11,11,11,11,11,11,10,10,10,11,11,11,11,11,11,
11,11,11,11,11,11,11,10,10,10,10,11,11,11,11,11
</chunk>
   <chunk x="16" y="-16" width="16" height="16">
1,1,1,1,1,1,1,1,1,1,1,1,1,1,1,1,
1,1,1,1,1,1,1,1,1,1,1,1,1,1,1,1,
11,1,1,1,1,1,1,1,1,1,1,1,1,1,1,1,
11,1,1,1,1,1,1,1,1,1,1,1,1,1,1,1,
11,11,1,1,1,1,1,1,1,1,1,1,1,1,1,1,
11,11,11,1,1,1,1,1,1,1,1,1,1,1,1,1,
11,11,11,11,1,1,1,1,1,1,1,1,1,1,1,1,
11,11,11,11,11,1,1,1,1,1,1,1,1,1,1,1,
11,11,11,11,11,1,1,1,1,1,1,1,1,1,1,1,
11,11,11,11,11,11,1,1,1,1,1,1,1,1,1,1,
11,11,11,11,11,11,1,1,1,1,1,1,1,1,1,1,
11,11,11,11,11,11,1,1,1,1,1,1,1,1,1,1,
11,11,11,11,11,11,1,1,1,1,1,1,1,1,1,1,
11,11,11,11,11,11,1,1,1,1,1,1,1,1,1,1,
11,11,11,11,11,11,1,1,1,1,1,1,1,1,1,1,
11,11,11,11,11,11,1,1,1,1,1,1,1,1,1,1
</chunk>
   <chunk x="32" y="-16" width="16" height="16">
1,1,2,2,2,2,2,2,2,2,2,13,13,13,13,13,
1,1,1,1,2,2,2,2,2,2,2,13,13,13,13,13,
1,1,1,1,1,1,2,2,2,2,2,2,13,13,13,13,
1,1,1,1,1,1,1,2,2,2,2,2,13,13,13,13,
1,1,1,1,1,1,1,2,2,2,2,2,13,13,13,13,
1,1,1,1,1,1,1,1,2,2,2,2,13,13,13,13,
1,1,1,1,1,1,1,1,2,2,2,2,13,13,13,13,
1,1,1,1,1,1,1,1,2,2,2,2,13,13,13,13,
1,1,1,1,1,1,1,1,2,2,2,2,13,13,13,13,
1,1,1,1,1,1,1,1,2,2,2,2,2,13,13,13,
1,1,1,1,1,1,1,1,2,2,2,2,2,13,13,13,
1,1,1,1,1,1,1,1,2,2,2,2,2,13,13,13,
1,1,1,1,1,1,1,1,2,2,2,2,2,2,13,13,
1,1,1,1,1,1,1,1,2,2,2,2,2,2,13,13,
1,1,1,1,1,1,1,1,2,2,2,2,2,2,13,13,
1,1,1,1,1,1,1,1,1,2,2,2,2,2,13,13
</chunk>
   <chunk x="48" y="-16" width="16" height="16">
13,13,13,13,13,13,13,13,13,13,13,13,13,13,13,13,
13,13,13,13,13,13,13,13,13,13,13,13,13,13,13,13,
13,13,13,13,13,13,13,13,13,13,13,13,13,13,13,13,
13,13,13,13,13,13,13,13,13,13,13,13,13,13,13,13,
13,13,13,13,13,13,13,13,13,13,13,13,13,13,13,13,
13,13,13,13,13,13,13,13,13,13,13,13,13,13,13,13,
13,13,13,13,13,13,13,13,13,13,13,13,13,13,13,13,
13,13,13,13,13,13,13,13,13,13,13,13,13,13,13,13,
13,13,13,13,13,13,13,13,13,13,13,13,13,13,13,13,
13,13,13,13,13,13,13,13,13,13,13,13,13,13,13,13,
13,13,13,13,13,13,13,13,13,13,13,13,13,13,13,13,
13,13,13,13,13,13,13,13,13,13,13,13,13,13,13,13,
13,13,13,13,13,13,13,13,13,13,13,13,13,13,13,13,
13,13,13,13,13,13,13,13,13,13,13,13,13,13,13,13,
13,13,13,13,13,13,13,13,13,13,13,13,13,13,13,13,
13,13,13,13,13,13,13,13,13,13,13,13,13,13,13,13
</chunk>
   <chunk x="-80" y="0" width="16" height="16">
12,12,12,12,12,12,12,12,12,12,12,12,12,12,12,12,
12,12,12,12,12,12,12,12,12,13,13,13,13,13,13,13,
12,12,12,12,12,12,13,13,13,13,13,13,13,13,13,13,
12,12,12,13,13,13,13,13,13,13,13,13,13,13,13,13,
13,13,13,13,13,13,13,13,13,13,13,13,13,13,13,13,
13,13,13,13,13,13,13,13,13,13,13,13,13,13,13,13,
13,13,13,13,13,13,13,13,13,13,13,13,13,13,13,13,
13,13,13,13,13,13,13,13,13,13,13,13,13,13,1,1,
13,13,13,13,13,13,13,13,13,13,13,13,1,1,1,1,
13,13,13,13,13,13,13,13,13,13,1,1,1,1,1,1,
13,13,13,13,13,13,13,13,10,10,10,10,10,10,10,10,
13,13,13,10,10,10,10,10,10,10,10,10,10,10,10,10,
13,10,10,10,10,10,10,10,10,10,10,10,10,10,10,10,
10,10,10,10,10,10,10,10,10,10,10,10,10,10,10,10,
10,10,10,10,10,10,10,10,10,10,10,10,10,3,3,3,
10,10,10,10,10,10,10,10,1,1,1,1,1,3,3,3
</chunk>
   <chunk x="-64" y="0" width="16" height="16">
12,12,12,12,13,13,13,13,13,3,3,3,3,3,1,1,
13,13,13,13,13,13,13,3,3,3,3,3,3,3,1,1,
13,13,13,13,3,3,3,3,3,3,3,3,3,3,3,1,
13,13,3,3,3,3,3,3,3,3,3,3,3,3,3,1,
13,13,3,3,3,3,3,3,3,3,3,3,3,3,3,3,
13,13,3,3,3,3,3,3,3,3,3,3,3,3,3,3,
13,13,3,3,3,3,3,3,3,3,3,3,3,3,3,3,
1,1,3,3,3,3,3,3,3,3,3,3,3,3,3,3,
1,1,1,3,3,3,3,3,3,3,3,3,3,3,3,1,
1,1,1,1,3,3,3,3,3,3,3,3,3,3,3,1,
10,10,1,1,1,1,1,1,3,1,3,3,3,1,1,1,
10,10,10,10,10,10,10,1,1,1,1,1,1,1,1,1,
10,10,10,10,10,10,10,10,10,10,1,1,1,1,1,1,
10,10,10,10,10,10,10,10,10,10,10,10,1,1,1,1,
3,3,3,10,10,10,10,10,10,10,10,10,10,1,1,1,
3,3,3,3,3,10,10,10,10,10,10,10,10,10,10,1
</chunk>
   <chunk x="-48" y="0" width="16" height="16">
1,1,1,1,1,3,3,3,3,3,3,3,3,3,3,3,
1,1,1,1,1,3,3,3,3,3,3,3,3,3,3,3,
1,1,1,1,3,3,3,3,3,3,3,3,3,3,3,3,
1,1,1,1,1,1,1,1,1,3,3,3,3,3,3,3,
3,1,1,1,1,1,1,1,1,1,1,1,1,1,1,1,
3,1,1,1,1,1,1,1,1,1,1,1,1,1,1,1,
3,1,1,1,1,1,1,1,1,1,1,1,1,1,1,1,
3,1,1,1,1,1,1,1,1,1,1,1,1,1,1,1,
1,1,1,1,1,1,1,1,1,1,1,1,1,1,1,1,
1,1,1,1,1,1,3,3,3,3,3,1,1,1,1,1,
1,1,1,1,1,3,3,3,3,3,3,3,1,1,1,1,
1,1,1,1,3,3,3,3,3,3,3,3,1,1,1,1,
1,1,1,1,3,3,3,3,3,3,3,1,1,1,1,3,
1,1,1,1,1,1,1,3,3,1,1,1,1,1,3,3,
1,1,1,1,1,1,1,1,1,1,1,1,1,3,3,3,
1,1,1,1,1,1,1,1,3,3,3,3,3,3,3,3
</chunk>
   <chunk x="-32" y="0" width="16" height="16">
3,3,3,3,3,12,12,12,4,4,1,1,1,11,11,11,
3,3,3,3,3,3,4,4,4,4,1,1,1,11,11,11,
3,3,3,3,3,3,4,4,4,4,1,1,1,1,11,11,
3,3,3,3,3,3,4,4,4,1,1,1,1,1,1,11,
3,3,3,3,3,3,4,4,1,1,1,1,1,1,1,1,
1,3,3,3,3,3,1,1,1,1,1,1,1,1,1,1,
1,1,1,1,1,1,1,1,1,1,1,1,1,1,1,1,
1,1,1,1,1,1,1,1,3,3,3,12,12,1,1,1,
1,1,1,1,3,3,3,3,3,3,12,12,12,12,1,1,
1,1,1,1,3,3,3,3,12,12,12,12,12,12,12,1,
1,1,1,1,3,3,12,12,12,12,12,12,12,12,12,12,
1,1,1,1,3,3,12,12,12,12,12,12,12,12,12,12,
3,3,3,3,3,3,12,12,12,12,12,12,12,12,12,12,
3,3,3,3,3,3,12,12,12,12,12,12,12,12,12,12,
3,3,3,3,3,12,12,12,12,12,12,12,12,12,12,12,
3,3,3,12,12,12,12,12,12,12,12,12,12,12,12,12
</chunk>
   <chunk x="-16" y="0" width="16" height="16">
11,11,11,11,11,11,11,11,11,11,11,11,11,11,11,11,
11,11,11,11,11,11,11,11,11,11,11,11,11,11,11,11,
11,11,11,11,11,11,11,11,11,11,11,11,11,11,11,11,
11,11,11,11,11,11,11,11,11,11,11,11,11,11,11,11,
11,11,11,11,11,11,11,11,11,11,11,11,11,11,11,11,
1,1,11,11,11,11,11,11,11,11,11,11,11,11,11,11,
1,1,1,1,11,11,11,11,11,11,11,11,11,11,11,11,
1,1,1,1,11,11,11,11,11,11,11,11,11,11,11,11,
1,1,1,1,1,11,11,11,11,11,11,11,11,11,11,11,
1,1,1,1,1,1,11,11,11,11,11,11,11,11,11,11,
1,1,1,1,1,1,1,11,11,11,11,11,11,11,11,11,
12,4,1,1,1,1,1,1,11,11,11,11,11,11,11,11,
12,4,4,1,1,1,1,1,1,1,11,11,11,11,11,11,
12,4,4,4,1,1,1,1,1,1,1,1,11,11,11,11,
12,4,4,4,1,1,1,1,1,1,1,1,1,1,1,1,
12,12,4,4,1,1,1,1,1,1,1,1,1,1,1,1
</chunk>
   <chunk x="0" y="0" width="16" height="16">
11,11,11,11,11,11,11,11,10,10,10,11,11,11,11,11,
11,11,11,11,11,11,11,7,7,7,7,7,11,11,11,11,
11,11,11,11,11,11,11,11,10,10,10,11,11,11,11,11,
11,11,11,11,11,11,11,10,10,10,11,11,11,11,11,11,
11,11,11,11,11,11,11,10,10,10,11,11,11,11,11,11,
11,11,11,11,11,11,10,10,10,10,11,11,11,11,11,11,
11,11,11,11,11,11,10,10,10,11,11,11,11,11,11,11,
11,11,11,11,11,11,10,10,10,11,11,11,11,11,11,11,
11,11,11,11,11,11,10,10,10,11,11,11,11,11,11,11,
11,11,11,11,11,11,10,10,10,10,11,11,11,11,11,11,
11,11,11,11,11,11,10,10,10,10,10,10,11,11,11,11,
11,11,11,11,11,11,10,10,10,10,10,10,10,10,11,11,
11,11,11,11,11,10,10,10,10,1,10,10,10,10,10,1,
11,11,11,11,11,10,10,10,10,1,1,10,10,10,10,10,
11,11,11,11,11,10,10,10,10,1,1,1,1,10,10,10,
1,1,1,1,1,1,10,10,10,1,1,1,1,1,1,1
</chunk>
   <chunk x="16" y="0" width="16" height="16">
11,11,11,11,11,11,1,1,1,1,1,1,1,1,1,1,
11,11,11,11,11,11,1,1,1,1,1,1,1,1,1,1,
11,11,11,11,11,11,1,1,1,1,1,1,1,1,1,1,
11,11,11,11,11,1,1,1,1,1,1,1,1,1,1,1,
11,11,11,11,11,1,1,1,1,1,1,1,1,1,1,1,
11,11,11,11,11,1,1,1,1,1,1,1,1,1,1,1,
11,11,11,11,1,1,1,1,1,1,1,1,1,1,1,1,
11,11,11,1,1,1,1,1,1,1,1,1,1,1,1,1,
11,11,11,1,1,1,1,1,1,1,1,1,1,1,1,1,
11,11,1,1,1,1,1,1,1,1,1,1,1,1,1,1,
11,1,1,1,1,1,1,1,1,1,1,1,1,1,1,1,
1,1,1,1,1,1,1,1,1,1,1,1,1,1,1,1,
1,1,1,1,1,1,1,1,1,1,1,1,1,1,1,1,
10,10,1,1,1,1,1,1,1,1,1,1,1,1,1,1,
10,10,10,1,1,1,1,1,1,1,1,1,1,1,1,1,
10,10,10,10,10,1,1,1,1,1,1,1,1,1,1,1
</chunk>
   <chunk x="32" y="0" width="16" height="16">
1,1,1,1,1,1,1,1,1,2,2,2,2,2,2,13,
1,1,1,1,1,1,1,1,1,1,2,2,2,2,2,13,
1,1,1,1,1,1,1,1,1,1,2,2,2,2,2,13,
1,1,1,1,1,1,1,1,1,1,1,2,2,2,2,2,
1,1,1,1,1,1,1,1,1,1,1,2,2,2,2,2,
1,1,1,1,1,1,1,1,1,1,1,1,2,2,2,2,
1,1,1,1,1,1,1,1,1,1,1,1,1,2,2,2,
1,1,1,1,1,1,1,1,1,1,1,1,1,2,2,2,
1,1,1,1,1,1,1,1,1,1,1,1,1,2,2,2,
1,1,1,1,1,1,1,1,1,1,1,1,1,2,2,2,
1,1,1,1,1,1,1,1,1,1,1,1,1,2,2,2,
1,1,1,1,1,1,1,1,1,1,1,1,1,2,2,2,
1,1,1,1,1,1,1,1,1,1,1,1,1,2,2,2,
1,1,1,1,1,1,1,1,1,1,1,1,1,2,2,2,
1,1,1,1,1,1,1,1,1,1,1,1,2,2,2,2,
1,1,1,1,1,1,1,1,1,1,1,1,2,2,2,2
</chunk>
   <chunk x="48" y="0" width="16" height="16">
13,13,13,13,13,13,13,13,13,13,13,13,13,13,13,13,
13,13,13,13,13,13,13,13,13,13,13,13,13,13,13,13,
13,13,13,13,13,13,13,13,13,13,13,13,13,13,13,13,
13,13,13,13,13,13,13,13,13,13,13,13,13,13,13,13,
2,13,13,13,13,13,13,13,13,13,13,13,13,13,13,13,
2,13,13,13,13,13,13,13,13,13,13,13,13,13,13,13,
2,13,13,13,13,13,13,13,13,13,13,13,13,13,13,13,
2,13,13,13,13,13,13,13,13,13,13,13,13,13,13,13,
2,13,13,13,13,13,13,13,13,13,13,13,13,13,13,13,
2,13,13,13,13,13,13,13,13,13,13,13,13,13,13,13,
2,2,13,13,13,13,13,13,13,13,13,13,13,13,13,13,
2,2,2,13,13,13,13,13,13,13,13,13,13,13,10,10,
2,2,2,13,13,13,13,13,13,13,13,13,13,10,10,10,
2,2,2,2,13,13,13,13,13,13,13,13,10,10,10,10,
2,2,2,2,13,13,13,13,13,13,13,10,10,10,10,10,
2,2,2,2,13,13,13,13,13,13,13,10,10,10,10,10
</chunk>
   <chunk x="-80" y="16" width="16" height="16">
10,10,10,10,13,13,13,13,1,1,1,1,1,3,3,3,
10,10,10,13,13,13,13,1,1,1,1,1,1,3,3,3,
10,10,13,13,13,13,3,1,1,1,1,1,3,3,3,3,
10,13,13,13,13,3,3,1,1,1,1,1,3,3,3,3,
13,13,13,13,13,3,3,1,1,1,1,3,3,3,3,3,
13,13,13,13,3,3,3,1,1,1,1,1,3,3,3,3,
13,13,13,13,3,3,3,3,1,1,1,1,1,3,3,3,
13,13,13,13,3,3,3,3,3,1,1,1,1,1,1,1,
13,13,13,13,3,3,3,3,3,1,1,1,1,1,1,1,
13,13,13,13,3,3,3,3,3,1,1,1,1,1,1,1,
13,13,13,13,13,3,3,3,3,3,1,1,1,1,1,1,
13,13,13,13,13,3,3,3,3,3,3,3,3,3,1,1,
13,13,13,13,13,13,13,3,3,3,3,3,3,3,1,1,
13,13,13,13,13,13,13,3,3,3,3,3,3,3,3,1,
13,13,13,13,13,13,13,3,3,3,3,3,3,3,3,1,
13,13,13,13,13,13,13,13,3,3,3,3,3,3,3,1
</chunk>
   <chunk x="-64" y="16" width="16" height="16">
3,3,3,3,3,3,10,10,10,10,10,10,10,10,10,10,
3,3,3,3,3,3,3,3,10,10,10,10,10,10,10,10,
3,3,3,3,3,3,3,3,10,10,10,10,10,10,10,10,
3,3,3,3,3,3,3,3,3,1,10,10,10,10,10,10,
3,3,3,3,3,3,3,3,1,1,1,10,10,10,10,10,
3,3,3,3,3,3,1,1,1,1,1,1,10,10,10,10,
3,3,1,1,1,1,1,1,1,1,1,1,1,1,10,10,
1,1,1,1,1,1,1,1,1,1,1,1,1,1,1,10,
1,1,1,1,1,1,1,1,1,1,1,1,1,1,1,10,
1,1,1,1,1,1,1,1,1,1,1,1,1,1,1,1,
1,1,1,1,1,1,1,1,1,1,1,1,1,1,1,1,
1,1,1,1,1,1,1,1,3,3,1,1,1,1,1,1,
1,1,1,1,1,1,1,1,3,3,3,3,3,1,1,1,
1,1,1,1,1,1,3,3,3,3,3,3,3,3,1,1,
1,1,1,3,3,3,3,3,3,3,3,3,3,3,3,3,
1,1,3,3,3,3,3,3,3,3,3,3,3,3,3,3
</chunk>
   <chunk x="-48" y="16" width="16" height="16">
1,1,1,1,1,1,1,3,3,3,3,12,12,12,12,3,
10,1,1,1,1,1,1,3,12,12,12,12,12,12,12,12,
10,10,1,1,1,1,1,1,1,12,12,12,12,12,12,12,
10,10,10,1,1,1,1,1,1,1,1,1,1,1,1,1,
10,10,10,10,1,1,1,1,1,1,1,1,1,1,1,1,
10,10,10,10,10,1,1,1,1,1,1,1,1,1,1,1,
10,10,10,10,10,10,1,1,1,1,1,1,1,10,10,10,
10,10,10,10,10,10,10,10,1,1,1,10,10,10,10,10,
10,10,10,10,10,10,10,10,10,10,10,10,10,10,10,1,
10,10,10,10,10,10,10,10,10,10,10,10,10,1,1,1,
1,1,10,10,10,10,10,10,10,10,10,10,1,1,1,1,
1,1,1,1,1,1,1,1,1,1,1,1,1,1,1,1,
1,1,1,1,1,1,1,1,1,1,1,1,1,1,1,1,
1,1,1,1,1,1,1,1,1,1,1,1,1,1,1,1,
1,1,1,1,1,1,1,3,3,3,3,3,3,1,1,1,
3,3,3,1,1,1,3,3,3,3,3,3,3,3,1,3
</chunk>
   <chunk x="-32" y="16" width="16" height="16">
3,12,12,12,12,12,12,12,12,12,12,12,12,12,12,12,
12,12,12,12,12,12,12,12,12,12,12,12,12,12,12,12,
12,12,12,12,1,1,1,12,12,12,12,12,12,12,12,12,
1,1,1,1,1,1,1,1,12,12,12,12,12,12,12,12,
1,1,1,1,1,1,1,1,1,1,1,12,12,12,12,4,
1,1,10,10,10,10,10,1,1,1,1,1,1,1,4,4,
10,10,10,10,10,10,10,10,10,10,10,1,1,1,1,4,
10,10,10,10,10,10,10,10,10,10,10,10,10,1,1,1,
1,1,1,1,1,1,1,1,1,10,10,10,10,10,10,10,
1,1,1,1,1,1,1,1,1,1,1,1,1,10,10,10,
1,1,1,1,1,1,1,1,1,1,1,1,1,1,10,10,
1,1,1,1,1,1,1,1,1,1,1,1,1,1,1,1,
1,1,1,1,1,1,1,1,1,1,1,1,1,1,1,1,
1,1,1,1,3,3,3,1,1,1,1,1,1,1,1,1,
3,3,1,3,3,3,3,3,3,3,1,1,1,1,1,1,
3,3,3,3,3,3,3,3,3,3,1,1,1,1,3,1
</chunk>
   <chunk x="-16" y="16" width="16" height="16">
12,12,12,1,1,1,1,1,1,1,1,1,1,1,1,1,
12,12,12,1,1,1,1,1,1,1,1,1,1,1,1,1,
12,12,1,1,1,1,1,1,1,1,1,1,1,1,1,1,
12,1,1,1,1,1,1,1,1,1,1,1,1,1,1,1,
4,1,1,1,1,1,1,1,1,1,1,1,1,1,1,1,
4,1,1,1,1,1,1,1,1,1,1,1,1,1,1,1,
1,1,1,1,1,1,1,1,1,1,1,1,1,1,1,1,
1,1,1,1,1,1,1,1,1,1,1,1,1,1,1,1,
1,1,1,1,1,1,1,1,1,1,1,1,1,1,1,1,
10,1,1,1,1,1,1,1,1,7,1,1,1,1,1,1,
10,10,10,10,10,10,10,10,10,7,10,10,10,10,10,10,
10,10,10,10,10,10,10,10,10,7,10,10,10,10,10,10,
1,10,10,10,10,10,10,10,10,7,10,10,10,10,10,10,
1,1,1,1,1,1,1,1,1,7,1,1,1,1,1,1,
1,1,1,1,1,1,1,1,1,1,1,1,1,1,1,1,
1,1,1,1,1,1,1,1,1,1,1,1,1,1,1,1
</chunk>
   <chunk x="0" y="16" width="16" height="16">
1,1,1,1,1,1,10,10,10,1,1,1,1,1,1,1,
1,1,1,1,1,1,10,10,10,1,1,1,1,1,1,1,
1,1,1,1,1,1,10,10,10,1,1,1,1,1,1,1,
1,1,1,1,1,1,10,10,10,1,1,1,1,1,1,1,
1,1,1,1,1,1,10,10,10,1,1,1,1,1,1,1,
1,1,1,1,1,10,10,10,10,1,1,1,1,1,1,1,
1,1,1,1,1,10,10,10,10,1,1,1,1,1,1,1,
1,1,1,1,10,10,10,10,1,1,1,1,1,3,3,3,
1,1,1,10,10,10,10,10,1,1,1,3,3,3,3,3,
1,10,10,10,10,10,10,1,1,1,3,3,3,3,3,3,
10,10,10,10,10,10,1,1,1,3,3,3,3,3,3,3,
10,10,10,10,10,1,1,1,1,3,3,3,3,3,3,3,
10,10,10,1,1,1,1,1,3,3,3,3,3,3,3,3,
1,1,1,1,1,1,1,1,3,3,3,3,3,3,3,3,
1,1,1,1,1,1,1,3,3,3,3,3,3,3,3,3,
1,1,1,1,1,1,1,3,3,3,3,3,3,3,3,3
</chunk>
   <chunk x="16" y="16" width="16" height="16">
1,1,10,10,10,10,1,1,1,1,1,1,1,1,1,1,
1,1,1,10,10,10,10,10,1,1,1,1,1,1,1,1,
1,1,1,1,10,10,10,10,10,1,1,1,1,1,1,1,
1,1,1,1,1,10,10,10,10,10,1,1,1,1,1,1,
1,1,1,1,1,1,10,10,10,10,10,10,1,1,1,1,
1,1,1,1,1,1,1,10,10,10,10,10,10,10,10,10,
1,1,1,1,1,1,1,1,1,10,10,10,10,10,10,10,
3,3,3,1,1,1,1,1,1,1,1,1,10,10,10,10,
3,3,3,3,1,1,1,1,1,1,1,1,1,1,1,1,
3,3,3,3,1,1,1,1,1,1,1,1,1,1,1,1,
3,3,3,3,1,1,1,1,1,1,1,1,1,1,1,1,
3,3,3,3,3,1,1,1,1,1,1,1,1,1,1,1,
3,3,3,3,3,1,1,1,1,3,3,3,1,1,1,1,
3,3,3,3,3,3,3,3,3,3,3,3,1,1,1,1,
3,3,3,3,3,3,3,3,3,3,3,3,3,1,1,1,
3,3,3,3,3,3,3,3,3,3,3,3,3,1,1,1
</chunk>
   <chunk x="32" y="16" width="16" height="16">
1,1,1,1,1,1,1,1,1,1,1,2,2,2,2,2,
1,1,1,1,1,1,1,1,1,1,1,2,2,2,2,2,
1,1,1,1,1,1,1,1,1,1,2,2,2,2,2,2,
1,1,1,1,1,1,1,1,2,2,2,2,2,2,2,2,
1,1,1,1,1,1,2,2,2,2,2,2,2,2,2,2,
10,10,10,10,10,2,2,2,2,2,2,2,2,2,2,10,
10,10,10,10,10,10,10,10,10,10,10,10,10,10,10,10,
10,10,10,10,10,10,10,10,10,10,10,10,10,10,10,10,
10,10,10,10,10,10,10,10,10,10,10,10,10,10,10,10,
1,1,10,10,10,10,10,10,10,10,10,10,10,10,10,10,
1,1,1,1,1,1,10,10,10,10,10,10,10,10,10,10,
1,1,1,1,1,1,1,1,1,1,1,10,10,10,10,10,
1,1,1,1,1,1,3,3,3,1,1,1,1,1,10,10,
1,1,1,1,3,3,3,3,3,3,1,1,13,13,13,10,
1,1,1,1,3,3,3,3,3,3,13,13,13,13,13,13,
1,1,1,1,1,3,3,3,3,3,13,13,13,13,13,13
</chunk>
   <chunk x="48" y="16" width="16" height="16">
2,2,2,2,13,13,13,13,13,13,10,10,10,10,10,10,
2,2,2,2,13,13,13,13,13,10,10,10,10,10,10,10,
2,2,2,2,13,13,13,10,10,10,10,10,10,10,10,10,
2,2,2,13,13,10,10,10,10,10,10,10,10,10,10,10,
2,2,13,10,10,10,10,10,10,10,10,10,10,10,10,10,
10,10,10,10,10,10,10,10,10,10,10,10,10,10,10,10,
10,10,10,10,10,10,10,10,10,10,10,10,10,10,10,10,
10,10,10,10,10,10,10,10,10,10,10,10,10,10,10,10,
10,10,10,10,10,10,10,10,10,10,10,10,10,10,10,10,
10,10,10,10,10,10,10,10,10,10,10,10,10,10,10,10,
10,10,10,10,10,10,10,10,10,10,10,10,10,10,10,10,
10,10,10,10,10,10,10,10,10,10,10,10,10,10,10,10,
10,10,10,10,10,10,10,10,10,10,10,10,10,10,10,10,
10,10,10,10,10,10,10,10,10,10,10,10,10,10,10,10,
13,10,10,10,10,10,10,10,10,10,10,10,10,10,10,10,
13,13,13,10,10,10,10,10,10,10,10,10,10,10,10,10
</chunk>
   <chunk x="-80" y="32" width="16" height="16">
13,13,13,13,13,13,13,13,13,3,3,3,3,3,3,3,
13,13,13,13,13,13,13,13,13,13,13,3,3,3,3,3,
13,13,13,13,13,13,13,13,13,13,13,13,3,3,3,3,
13,13,13,13,13,13,13,13,13,13,13,13,13,13,13,13,
13,13,13,13,13,13,13,13,13,13,13,13,13,13,13,13,
13,13,13,13,13,13,13,13,13,13,13,13,13,13,13,13,
13,13,13,13,13,13,13,13,13,13,13,13,13,13,13,13,
13,13,13,13,13,13,13,13,13,13,13,13,13,13,13,13,
13,13,13,13,13,13,13,13,13,13,13,13,13,13,13,13,
13,13,13,13,13,13,13,13,13,13,13,13,13,13,13,13,
13,13,13,13,13,13,13,13,13,13,13,13,13,13,13,13,
13,13,13,13,13,13,13,13,13,13,13,13,13,13,13,13,
13,13,13,13,13,13,13,13,13,13,13,13,13,13,13,13,
13,13,13,13,13,13,13,13,13,13,13,13,13,13,13,13,
13,13,13,13,13,13,13,13,13,13,13,13,13,13,13,13,
13,13,13,13,13,13,13,13,13,13,13,13,13,13,13,13
</chunk>
   <chunk x="-64" y="32" width="16" height="16">
3,3,3,3,3,3,3,3,3,3,3,3,3,3,3,3,
3,3,3,3,3,3,3,3,3,3,3,3,3,3,3,3,
3,3,3,3,3,3,3,3,13,13,13,13,13,13,13,13,
13,13,13,13,13,13,13,13,13,13,13,13,13,13,13,13,
13,13,13,13,13,13,13,13,13,13,13,13,13,13,13,13,
13,13,13,13,13,13,13,13,13,13,13,13,13,13,13,13,
13,13,13,13,13,13,13,13,13,13,13,13,13,13,13,13,
13,13,13,13,13,13,13,13,13,13,13,13,13,13,13,13,
13,13,13,13,13,13,13,13,13,13,13,13,13,13,13,13,
13,13,13,13,13,13,13,13,13,13,13,13,13,13,13,13,
13,13,13,13,13,13,13,13,13,13,13,13,13,13,13,13,
13,13,13,13,13,13,13,13,13,13,13,13,13,13,13,13,
13,13,13,13,13,13,13,13,13,13,13,13,13,13,13,13,
13,13,13,13,13,13,13,13,13,13,13,13,13,13,13,13,
13,13,13,13,13,13,13,13,13,13,13,13,13,13,13,13,
13,13,13,13,13,13,13,13,13,13,13,13,13,13,13,13
</chunk>
   <chunk x="-48" y="32" width="16" height="16">
3,3,3,3,3,3,3,3,3,3,3,3,3,3,3,3,
3,3,13,13,3,3,3,13,13,13,13,13,13,13,13,3,
13,13,13,13,13,13,13,13,13,13,13,13,13,13,13,13,
13,13,13,13,13,13,13,13,13,13,13,13,13,13,13,13,
13,13,13,13,13,13,13,13,13,13,13,13,13,13,13,13,
13,13,13,13,13,13,13,13,13,13,13,13,13,13,13,13,
13,13,13,13,13,13,13,13,13,13,13,13,13,13,13,13,
13,13,13,13,13,13,13,13,13,13,13,13,13,13,13,13,
13,13,13,13,13,13,13,13,13,13,13,13,13,13,13,13,
13,13,13,13,13,13,13,13,13,13,13,13,13,13,13,13,
13,13,13,13,13,13,13,13,13,13,13,13,13,13,13,13,
13,13,13,13,13,13,13,13,13,13,13,13,13,13,13,13,
13,13,13,13,13,13,13,13,13,13,13,13,13,13,13,13,
13,13,13,13,13,13,13,13,13,13,13,13,13,13,13,13,
13,13,13,13,13,13,13,13,13,13,13,13,13,13,13,13,
13,13,13,13,13,13,13,13,13,13,13,13,13,13,13,13
</chunk>
   <chunk x="-32" y="32" width="16" height="16">
3,3,3,3,3,3,3,3,3,3,3,1,3,3,3,3,
3,3,3,3,3,3,3,3,3,3,3,3,3,3,3,3,
13,3,3,3,3,3,3,3,3,3,3,3,3,3,3,3,
13,13,13,13,13,13,13,13,13,13,13,3,3,3,3,3,
13,13,13,13,13,13,13,13,13,13,13,13,13,3,3,3,
13,13,13,13,13,13,13,13,13,13,13,13,13,13,3,3,
13,13,13,13,13,13,13,13,13,13,13,13,13,13,13,3,
13,13,13,13,13,13,13,13,13,13,13,13,13,13,13,13,
13,13,13,13,13,13,13,13,13,13,13,13,13,13,13,13,
13,13,13,13,13,13,13,13,13,13,13,13,13,13,13,13,
13,13,13,13,13,13,13,13,13,13,13,13,13,13,13,13,
13,13,13,13,13,13,13,13,13,13,13,13,13,13,13,13,
13,13,13,13,13,13,13,13,13,13,13,13,13,13,13,13,
13,13,13,13,13,13,13,13,13,13,13,13,13,13,13,13,
13,13,13,13,13,13,13,13,13,13,13,13,13,13,13,13,
13,13,13,13,13,13,13,13,13,13,13,13,13,13,13,13
</chunk>
   <chunk x="-16" y="32" width="16" height="16">
1,1,1,1,1,1,1,1,1,1,1,1,1,1,1,1,
3,1,1,1,1,1,1,1,1,1,1,1,1,1,1,1,
3,3,1,1,1,1,1,1,1,1,1,1,1,1,1,1,
3,3,1,1,1,1,1,1,1,1,1,1,1,1,1,1,
3,3,3,3,3,1,1,1,1,1,1,1,1,1,1,1,
3,3,3,3,3,3,1,1,1,1,1,1,3,3,3,1,
3,3,3,3,3,3,3,1,1,1,1,3,3,3,3,3,
13,3,3,3,3,3,3,3,1,1,3,3,3,3,3,3,
13,13,3,3,3,3,3,3,1,3,3,3,3,3,3,3,
13,13,13,13,13,3,3,3,3,3,3,3,3,3,3,3,
13,13,13,13,13,13,13,3,3,3,3,3,3,3,3,3,
13,13,13,13,13,13,13,13,13,3,3,3,3,3,3,3,
13,13,13,13,13,13,13,13,13,13,13,13,3,3,3,3,
13,13,13,13,13,13,13,13,13,13,13,13,13,3,3,13,
13,13,13,13,13,13,13,13,13,13,13,13,13,13,13,13,
13,13,13,13,13,13,13,13,13,13,13,13,13,13,13,13
</chunk>
   <chunk x="0" y="32" width="16" height="16">
1,1,1,1,1,1,1,3,3,3,3,3,3,3,3,3,
1,1,1,1,1,1,1,1,3,3,3,3,3,3,3,3,
1,1,1,1,3,3,3,3,3,3,3,3,3,3,3,3,
1,1,1,3,3,3,3,3,3,3,3,3,3,3,3,3,
1,1,3,3,3,3,3,3,3,3,3,3,3,3,3,3,
1,1,3,3,3,3,3,3,3,3,3,3,3,3,3,3,
1,1,3,3,3,3,3,3,3,3,3,3,3,3,3,3,
3,3,3,3,3,3,3,3,3,3,3,3,3,3,3,3,
3,3,3,3,3,3,3,3,3,3,3,3,3,3,3,13,
3,3,3,3,3,3,3,3,3,3,3,3,13,13,13,13,
3,3,3,3,3,3,3,3,13,13,13,13,13,13,13,13,
3,13,13,13,13,13,13,13,13,13,13,13,13,13,13,13,
3,13,13,13,13,13,13,13,13,13,13,13,13,13,13,13,
13,13,13,13,13,13,13,13,13,13,13,13,13,13,13,13,
13,13,13,13,13,13,13,13,13,13,13,13,13,13,13,13,
13,13,13,13,13,13,13,13,13,13,13,13,13,13,13,13
</chunk>
   <chunk x="16" y="32" width="16" height="16">
3,3,3,3,3,3,3,3,3,3,3,3,3,1,1,1,
3,3,3,3,3,3,3,3,3,3,3,3,3,1,1,1,
3,3,3,3,3,3,3,3,3,3,3,3,3,1,1,1,
3,3,3,3,3,3,3,3,3,3,3,3,3,1,1,1,
3,3,3,3,3,3,3,3,3,3,3,3,1,1,1,1,
3,3,3,3,3,3,3,3,3,3,3,3,3,3,3,3,
3,3,3,3,3,3,3,3,3,3,3,3,3,3,3,3,
3,3,3,13,13,13,13,13,3,3,3,3,3,3,3,3,
13,13,13,13,13,13,13,13,13,3,3,3,3,3,3,3,
13,13,13,13,13,13,13,13,13,13,13,13,13,13,13,13,
13,13,13,13,13,13,13,13,13,13,13,13,13,13,13,13,
13,13,13,13,13,13,13,13,13,13,13,13,13,13,13,13,
13,13,13,13,13,13,13,13,13,13,13,13,13,13,13,13,
13,13,13,13,13,13,13,13,13,13,13,13,13,13,13,13,
13,13,13,13,13,13,13,13,13,13,13,13,13,13,13,13,
13,13,13,13,13,13,13,13,13,13,13,13,13,13,13,13
</chunk>
   <chunk x="32" y="32" width="16" height="16">
1,1,1,1,1,3,3,13,13,13,13,13,13,13,13,13,
1,1,1,1,1,1,13,13,13,13,13,13,13,13,13,13,
1,1,1,1,1,13,13,13,13,13,13,13,13,13,13,13,
1,1,1,1,1,13,13,13,13,13,13,13,13,13,13,13,
1,1,1,1,13,13,13,13,13,13,13,13,13,13,13,13,
3,3,3,1,13,13,13,13,13,13,13,13,13,13,13,13,
3,3,3,13,13,13,13,13,13,13,13,13,13,13,13,13,
3,3,3,13,13,13,13,13,13,13,13,13,13,13,13,13,
3,13,13,13,13,13,13,13,13,13,13,13,13,13,13,13,
13,13,13,13,13,13,13,13,13,13,13,13,13,13,13,13,
13,13,13,13,13,13,13,13,13,13,13,13,13,13,13,13,
13,13,13,13,13,13,13,13,13,13,13,13,13,13,13,13,
13,13,13,13,13,13,13,13,13,13,13,13,13,13,13,13,
13,13,13,13,13,13,13,13,13,13,13,13,13,13,13,13,
13,13,13,13,13,13,13,13,13,13,13,13,13,13,13,13,
13,13,13,13,13,13,13,13,13,13,13,13,13,13,13,13
</chunk>
   <chunk x="48" y="32" width="16" height="16">
13,13,13,13,13,10,10,10,10,10,10,10,10,10,10,10,
13,13,13,13,13,13,13,13,10,10,10,10,10,10,10,10,
13,13,13,13,13,13,13,13,13,13,10,10,10,10,10,10,
13,13,13,13,13,13,13,13,13,13,13,13,13,10,10,10,
13,13,13,13,13,13,13,13,13,13,13,13,13,13,10,10,
13,13,13,13,13,13,13,13,13,13,13,13,13,13,13,13,
13,13,13,13,13,13,13,13,13,13,13,13,13,13,13,13,
13,13,13,13,13,13,13,13,13,13,13,13,13,13,13,13,
13,13,13,13,13,13,13,13,13,13,13,13,13,13,13,13,
13,13,13,13,13,13,13,13,13,13,13,13,13,13,13,13,
13,13,13,13,13,13,13,13,13,13,13,13,13,13,13,13,
13,13,13,13,13,13,13,13,13,13,13,13,13,13,13,13,
13,13,13,13,13,13,13,13,13,13,13,13,13,13,13,13,
13,13,13,13,13,13,13,13,13,13,13,13,13,13,13,13,
13,13,13,13,13,13,13,13,13,13,13,13,13,13,13,13,
13,13,13,13,13,13,13,13,13,13,13,13,13,13,13,13
</chunk>
  </data>
 </layer>
 <layer id="2" name="cosas" width="120" height="100">
  <data encoding="csv">
   <chunk x="0" y="-16" width="16" height="16">
0,0,0,0,0,0,0,0,0,0,0,0,0,0,0,0,
0,0,0,0,0,0,0,0,0,0,0,0,0,0,0,0,
0,0,0,0,0,0,0,0,0,0,0,0,0,0,0,0,
0,0,0,0,0,0,0,0,0,0,0,0,0,0,0,0,
0,0,0,0,0,0,0,0,0,0,0,0,0,0,0,0,
0,65,0,0,0,0,0,0,0,0,0,0,0,0,0,0,
0,66,0,0,0,0,0,0,0,0,0,0,0,0,0,0,
0,0,0,0,0,0,0,0,0,0,0,0,0,0,0,0,
0,0,0,0,0,0,0,0,0,0,0,0,0,0,0,0,
0,0,0,0,0,0,0,0,0,0,0,0,0,0,0,0,
0,0,0,0,0,0,0,0,0,0,0,0,0,0,0,0,
0,0,0,0,0,0,0,0,0,0,0,0,0,0,0,0,
0,0,0,0,0,0,0,0,0,0,0,0,0,0,0,0,
0,0,0,0,0,0,0,0,0,0,0,0,0,0,0,0,
0,0,0,0,0,0,0,0,0,0,0,0,0,0,0,0,
0,0,0,0,0,0,0,0,0,0,0,0,0,0,0,0
</chunk>
  </data>
 </layer>
</map>
