<?xml version="1.0" encoding="UTF-8"?>
<map version="1.10" tiledversion="1.11.2" orientation="orthogonal" renderorder="right-down" width="120" height="100" tilewidth="16" tileheight="16" infinite="1" nextlayerid="5" nextobjectid="1">
 <tileset firstgid="1" source="../boceto.tsx"/>
 <tileset firstgid="65" source="../bollo.tsx"/>
 <tileset firstgid="67" source="CALLES.tsx"/>
 <tileset firstgid="131" source="Suelos.tsx"/>
 <layer id="1" name="Boceto" width="120" height="100" opacity="0.21">
  <data encoding="csv">
   <chunk x="-80" y="-64" width="16" height="16">
13,13,13,13,13,13,13,13,13,13,13,13,13,13,13,13,
13,13,13,13,13,13,13,13,13,13,13,13,3,3,3,3,
13,13,13,13,13,13,13,13,13,13,3,3,3,3,3,3,
13,13,13,13,13,13,13,13,3,3,3,3,3,3,3,3,
13,13,13,13,13,13,13,3,3,3,3,3,3,3,3,1,
13,13,13,13,13,13,13,3,3,3,3,3,3,3,1,1,
13,13,13,13,13,13,3,3,3,3,3,3,3,1,1,1,
13,13,13,13,13,3,3,3,3,3,3,3,1,1,1,1,
13,13,13,13,13,3,3,3,3,3,3,1,1,1,1,1,
13,13,13,13,3,3,3,3,3,3,3,1,1,1,1,1,
13,13,13,13,3,3,3,3,3,3,3,1,1,1,1,1,
13,13,13,13,3,3,3,3,3,3,1,1,1,1,1,1,
13,13,13,13,13,3,3,3,3,3,1,1,1,1,1,1,
13,13,13,13,13,3,3,3,3,1,1,1,1,1,1,1,
13,13,13,13,13,3,3,3,1,1,1,1,1,1,1,1,
13,13,13,13,13,3,3,3,1,1,1,1,1,1,1,1
</chunk>
   <chunk x="-64" y="-64" width="16" height="16">
13,13,13,13,13,13,13,13,13,13,13,13,13,13,13,13,
3,3,3,3,3,13,13,13,13,13,13,13,13,13,13,13,
3,3,3,3,3,3,3,3,3,3,13,13,13,13,13,13,
3,3,1,1,1,3,3,3,3,3,3,3,13,13,13,13,
1,1,1,1,1,1,1,1,1,1,3,3,3,13,13,13,
1,1,1,1,1,1,1,1,1,1,1,1,3,3,3,13,
1,1,1,1,1,1,1,1,1,1,1,1,1,3,3,3,
1,1,1,1,1,1,1,1,1,1,1,1,1,1,3,3,
1,1,1,1,1,1,1,1,1,1,1,1,1,1,1,1,
1,1,1,1,1,1,1,1,1,1,1,1,1,1,1,1,
1,1,1,1,1,1,1,1,1,1,1,1,1,1,1,1,
1,1,1,1,1,1,1,1,1,1,1,1,1,1,1,1,
1,1,1,1,1,1,1,1,1,1,1,1,1,1,1,1,
1,1,1,1,1,1,1,1,1,1,1,1,1,1,1,1,
1,1,1,1,1,1,1,1,1,1,1,1,1,1,1,1,
1,1,1,1,1,1,1,1,1,1,1,1,1,1,1,1
</chunk>
   <chunk x="-48" y="-64" width="16" height="16">
13,13,13,13,13,13,13,13,13,13,13,13,13,13,13,13,
13,13,13,13,13,13,13,13,13,13,13,13,13,13,13,13,
13,13,13,13,13,13,13,13,13,13,13,13,13,13,13,13,
13,13,13,13,13,13,13,13,13,13,13,13,13,13,13,13,
13,13,13,13,13,13,13,13,13,13,13,13,13,13,13,13,
13,13,13,13,13,13,13,13,13,13,13,13,13,13,13,13,
3,13,13,13,13,13,13,13,13,13,13,13,13,13,13,13,
3,3,13,13,13,13,13,13,13,13,13,13,13,13,13,13,
3,3,3,3,13,13,13,13,13,13,13,13,13,13,13,13,
3,3,3,3,3,3,3,3,3,13,13,13,13,13,13,13,
3,3,3,3,3,3,3,3,3,3,3,3,13,13,13,13,
1,3,3,3,3,3,3,3,3,3,3,3,3,3,3,13,
1,3,3,3,3,3,3,3,3,3,3,3,3,3,3,3,
1,1,1,1,3,3,3,3,3,3,3,3,3,3,3,3,
1,1,1,1,1,1,3,3,3,3,3,3,3,3,3,3,
1,1,1,1,1,1,1,3,3,3,3,3,3,3,3,3
</chunk>
   <chunk x="-32" y="-64" width="16" height="16">
13,13,13,13,13,13,13,13,13,13,13,13,13,13,13,13,
13,13,13,13,13,13,13,13,13,13,13,13,13,13,13,13,
13,13,13,13,13,13,13,13,13,13,13,13,13,13,13,13,
13,13,13,13,13,13,13,13,13,13,13,13,13,13,13,13,
13,13,13,13,13,13,13,13,13,13,13,13,13,13,13,13,
13,13,13,13,13,13,13,13,13,13,13,13,13,13,13,13,
13,13,13,13,13,13,13,13,13,13,13,13,13,13,13,13,
13,13,13,13,13,13,13,13,13,13,13,13,13,13,13,13,
13,13,13,13,13,13,13,13,13,13,13,13,13,13,13,13,
13,13,13,13,13,13,13,13,13,13,13,13,13,13,13,13,
13,13,13,13,13,13,3,3,3,3,13,13,13,13,3,3,
13,13,3,3,3,3,3,3,3,3,3,3,3,3,3,3,
3,3,3,3,3,3,3,3,3,3,3,3,3,3,3,3,
3,3,3,3,3,3,3,3,3,3,3,3,3,3,3,3,
3,3,3,3,3,3,3,3,3,3,3,3,3,3,3,3,
3,3,3,3,3,3,3,3,3,3,3,3,3,3,3,3
</chunk>
   <chunk x="-16" y="-64" width="16" height="16">
13,13,13,13,13,13,13,13,13,13,13,13,13,13,13,13,
13,13,13,13,13,13,13,13,13,13,13,13,13,13,13,13,
13,13,13,13,13,13,13,13,13,13,13,13,13,13,13,13,
13,13,13,13,13,13,13,13,13,13,13,13,13,13,13,13,
13,13,13,13,13,13,13,13,13,13,13,13,13,13,13,13,
13,13,13,13,13,13,13,13,13,13,13,13,13,13,13,13,
13,13,13,13,13,13,13,13,13,13,13,13,13,13,13,13,
13,13,13,13,13,13,13,13,13,13,13,13,13,13,13,13,
13,13,13,13,13,13,12,12,12,12,12,12,12,12,2,2,
13,13,13,13,12,12,12,12,12,12,12,12,12,12,2,2,
3,3,3,3,12,12,12,12,12,12,12,12,2,2,2,2,
3,3,3,12,12,12,12,12,12,12,12,2,2,2,2,2,
3,3,12,12,12,12,12,12,12,2,2,2,2,2,2,2,
3,3,12,12,12,12,12,2,2,2,2,2,2,2,2,2,
3,12,12,12,12,2,2,2,2,2,2,2,2,2,2,2,
3,12,12,2,2,2,2,2,2,2,2,2,2,2,2,2
</chunk>
   <chunk x="0" y="-64" width="16" height="16">
13,13,13,13,13,13,13,13,13,13,13,13,13,13,13,13,
13,13,13,13,13,13,13,13,13,13,13,13,13,13,13,13,
13,13,13,13,13,13,13,13,13,13,13,13,13,13,13,13,
13,13,13,13,13,13,13,13,13,13,13,13,13,13,13,13,
13,13,13,13,13,13,13,13,13,13,13,13,13,13,13,13,
13,13,13,13,13,13,13,13,13,13,13,13,13,13,13,13,
13,13,13,13,13,13,13,13,13,13,13,13,13,13,13,13,
13,13,13,2,2,2,2,2,2,2,2,2,2,2,2,2,
2,2,2,2,2,2,2,2,2,2,2,2,2,2,2,2,
2,2,2,2,2,2,2,2,2,2,2,2,2,2,2,2,
2,2,2,2,2,2,2,2,2,2,2,2,2,2,2,2,
2,2,2,2,2,2,2,2,2,2,2,2,2,2,2,2,
2,2,2,2,2,2,2,2,2,2,2,2,2,2,2,2,
2,2,2,2,2,2,2,2,2,2,2,2,2,2,2,2,
2,2,2,2,2,2,2,2,2,2,2,2,2,2,2,2,
2,2,2,2,2,2,2,2,2,2,2,2,2,2,2,2
</chunk>
   <chunk x="16" y="-64" width="16" height="16">
13,13,13,13,13,13,13,13,13,13,13,13,13,13,13,13,
13,13,13,13,13,13,13,13,13,13,13,13,13,13,13,13,
13,13,13,13,13,13,13,13,13,13,13,13,13,13,13,13,
13,13,13,13,13,13,13,13,13,13,13,13,13,13,13,13,
13,13,13,13,13,13,13,13,13,13,13,13,13,13,13,13,
13,13,13,13,13,13,13,13,13,13,13,13,13,13,13,13,
13,13,13,13,13,13,13,13,13,13,13,13,13,13,13,13,
2,2,2,2,13,13,13,13,13,13,13,13,13,13,13,13,
2,2,2,2,2,2,2,2,2,13,13,13,13,13,13,13,
2,2,2,2,2,2,2,2,2,2,2,2,2,13,13,13,
2,2,2,2,2,2,2,2,2,2,2,2,2,2,2,2,
2,2,2,2,2,2,2,2,2,2,2,2,2,2,2,2,
2,2,2,2,2,2,2,2,2,2,2,2,2,2,2,2,
2,2,2,2,2,2,2,2,2,2,2,2,2,2,2,2,
2,2,2,2,2,2,2,2,2,2,2,2,2,2,2,2,
2,2,2,2,2,2,2,2,2,2,2,2,2,2,2,2
</chunk>
   <chunk x="32" y="-64" width="16" height="16">
13,13,13,13,13,13,13,13,13,13,13,13,13,13,13,13,
13,13,13,13,13,13,13,13,13,13,13,13,13,13,13,13,
13,13,13,13,13,13,13,13,13,13,13,13,13,13,13,13,
13,13,13,13,13,13,13,13,13,13,13,13,13,13,13,13,
13,13,13,13,13,13,13,13,13,13,13,13,13,13,13,13,
13,13,13,13,13,13,13,13,13,13,13,13,13,13,13,13,
13,13,13,13,13,13,13,13,13,13,13,13,13,13,13,13,
13,13,13,13,13,13,13,13,13,13,13,13,13,13,13,13,
13,13,13,13,13,13,13,13,13,13,13,13,13,13,13,13,
13,13,13,13,13,13,13,13,13,13,13,13,13,13,13,13,
2,13,13,13,13,13,13,13,13,13,13,13,13,13,13,13,
2,2,2,13,13,13,13,13,13,13,13,13,13,13,13,13,
2,2,2,2,13,13,13,13,13,13,13,13,13,13,13,13,
2,2,2,2,2,2,13,13,13,13,13,13,13,13,13,13,
2,2,2,2,2,2,2,2,13,13,13,13,13,13,13,13,
2,2,2,2,2,2,2,2,2,13,13,13,13,13,13,13
</chunk>
   <chunk x="48" y="-64" width="16" height="16">
13,13,13,13,13,13,13,13,13,13,13,13,13,13,13,13,
13,13,13,13,13,13,13,13,13,13,13,13,13,13,13,13,
13,13,13,13,13,13,13,13,13,13,13,13,13,13,13,13,
13,13,13,13,13,13,13,13,13,13,13,13,13,13,13,13,
13,13,13,13,13,13,13,13,13,13,13,13,13,13,13,13,
13,13,13,13,13,13,13,13,13,13,13,13,13,13,13,13,
13,13,13,13,13,13,13,13,13,13,13,13,13,13,13,13,
13,13,13,13,13,13,13,13,13,13,13,13,13,13,13,13,
13,13,13,13,13,13,13,13,13,13,13,13,13,13,13,13,
13,13,13,13,13,13,13,13,13,13,13,13,13,13,13,13,
13,13,13,13,13,13,13,13,13,13,13,13,13,13,13,13,
13,13,13,13,13,13,13,13,13,13,13,13,13,13,13,13,
13,13,13,13,13,13,13,13,13,13,13,13,13,13,13,13,
13,13,13,13,13,13,13,13,13,13,13,13,13,13,13,13,
13,13,13,13,13,13,13,13,13,13,13,13,13,13,13,13,
13,13,13,13,13,13,13,13,13,13,13,13,13,13,13,13
</chunk>
   <chunk x="-80" y="-48" width="16" height="16">
13,13,13,13,13,3,3,3,1,1,1,1,1,1,1,1,
13,13,13,13,13,3,3,3,3,1,1,1,1,1,1,1,
13,13,13,13,13,3,3,3,3,3,3,3,1,1,1,1,
13,13,13,13,3,3,3,3,3,3,3,3,1,1,1,1,
13,13,13,3,3,3,3,3,3,3,3,3,3,1,1,1,
13,3,3,3,3,3,3,3,3,3,3,3,3,1,1,1,
3,3,3,3,3,3,3,3,3,3,3,3,3,3,1,1,
3,3,3,3,3,3,3,3,3,3,3,3,3,3,1,1,
3,3,3,3,3,3,3,3,3,3,3,3,3,3,1,1,
3,3,3,3,3,3,3,3,3,3,3,3,3,1,1,1,
3,3,3,3,3,3,3,3,3,3,3,3,10,1,1,1,
10,10,3,3,3,3,3,3,10,10,10,10,10,10,10,1,
10,10,10,10,10,10,10,10,10,10,10,10,10,10,10,10,
10,10,10,10,10,10,10,10,10,10,10,10,10,10,10,10,
10,10,10,10,10,10,10,10,10,10,10,10,10,10,10,10,
10,10,10,10,10,10,10,10,10,10,10,10,10,10,10,10
</chunk>
   <chunk x="-64" y="-48" width="16" height="16">
1,1,1,1,1,1,1,1,1,1,1,1,1,1,1,1,
1,1,1,1,1,1,1,1,1,1,1,1,1,1,1,1,
1,1,1,1,1,1,1,1,1,1,3,3,3,3,3,3,
1,1,1,1,1,1,1,1,1,1,1,3,3,3,3,3,
1,1,1,1,1,1,1,1,1,1,1,1,1,3,3,3,
1,1,1,1,1,1,1,1,1,1,1,1,1,3,3,3,
1,1,1,1,1,1,1,1,1,1,1,1,1,1,1,1,
1,1,1,1,1,1,1,1,1,1,1,1,1,1,1,1,
1,1,1,1,1,1,1,1,1,1,1,1,1,1,1,1,
1,1,1,1,1,1,1,1,1,1,1,1,1,1,1,1,
1,1,1,1,1,1,1,1,1,1,1,1,1,1,1,1,
1,1,1,1,1,1,1,1,1,1,1,1,1,1,1,1,
10,1,1,1,1,1,1,1,1,10,10,10,10,10,2,2,
10,10,10,1,1,1,10,10,10,10,10,10,10,10,10,10,
10,10,10,10,10,10,10,10,10,10,10,10,10,10,10,10,
10,10,10,10,10,10,10,10,10,10,10,10,10,10,10,10
</chunk>
   <chunk x="-48" y="-48" width="16" height="16">
1,1,1,1,1,1,1,1,3,3,3,3,3,3,3,3,
1,1,1,1,1,1,1,1,1,3,3,3,3,3,3,3,
3,3,3,3,3,3,1,1,1,1,3,3,3,3,3,3,
3,3,3,3,3,3,1,1,1,1,1,1,3,3,3,3,
3,3,3,3,3,3,1,1,1,1,1,1,1,3,3,3,
3,3,3,3,3,3,3,1,1,1,1,1,1,1,3,3,
3,3,3,3,3,3,3,3,1,1,1,1,1,1,1,1,
1,1,1,1,3,3,3,3,3,1,1,1,1,1,1,1,
1,1,1,1,3,3,3,3,3,3,3,3,1,1,1,1,
1,1,1,1,1,3,3,3,3,3,3,3,3,3,3,3,
1,1,1,1,1,3,3,3,3,3,3,3,3,3,3,3,
1,1,1,1,1,1,3,3,3,3,3,3,3,3,3,3,
2,1,1,1,1,1,3,3,3,3,3,3,3,3,3,3,
2,2,1,1,1,1,1,3,3,3,3,3,3,3,3,3,
2,2,2,1,1,1,1,3,3,3,3,3,3,3,3,3,
10,2,2,1,1,1,1,3,3,3,3,3,3,3,3,3
</chunk>
   <chunk x="-32" y="-48" width="16" height="16">
3,3,3,3,3,3,3,3,3,3,3,3,3,3,3,3,
3,3,3,3,3,3,3,3,3,3,3,3,3,3,3,3,
3,3,3,3,3,3,3,3,3,3,3,3,3,3,3,3,
3,3,3,3,3,3,3,3,3,3,3,3,1,1,1,1,
3,3,3,3,3,3,3,3,3,3,3,1,1,1,1,1,
3,3,3,3,3,3,1,1,1,1,1,1,1,1,1,1,
1,1,1,1,1,1,1,1,1,1,1,1,1,1,1,1,
1,1,1,1,1,1,1,1,1,1,1,1,1,1,1,1,
1,1,1,1,1,3,3,1,1,1,1,1,1,1,1,1,
3,3,3,3,3,3,1,1,1,1,1,1,1,1,1,1,
3,3,3,3,3,3,3,1,1,1,1,1,1,1,1,1,
3,3,3,3,3,3,3,1,1,1,1,1,1,1,1,1,
3,3,3,3,3,3,3,1,1,1,1,1,1,1,1,1,
3,3,3,3,3,3,3,1,1,1,1,1,1,1,1,1,
3,3,3,3,3,3,3,1,1,1,1,1,1,1,1,12,
3,3,3,3,3,3,3,1,1,1,1,1,1,1,12,12
</chunk>
   <chunk x="-16" y="-48" width="16" height="16">
12,12,2,2,2,2,2,2,2,2,2,2,2,2,2,2,
12,2,2,2,2,2,2,2,2,2,2,2,2,2,2,2,
1,2,2,2,2,2,2,2,2,2,2,2,2,2,2,2,
1,2,2,2,2,2,2,2,2,2,2,2,2,2,2,2,
1,2,2,2,2,2,2,2,2,2,2,2,2,2,2,2,
1,1,2,2,2,2,2,2,2,2,2,2,2,2,2,2,
1,1,1,2,2,2,2,2,2,2,2,3,3,3,2,2,
1,1,1,1,2,2,2,2,2,2,2,3,3,3,3,2,
1,1,1,1,1,2,2,2,2,2,3,3,3,3,3,3,
1,1,1,1,12,12,12,12,12,12,3,3,3,3,3,3,
1,1,1,12,12,12,12,12,12,12,12,3,3,3,3,3,
1,1,12,12,12,12,12,12,12,12,12,12,12,3,3,3,
1,12,12,12,12,12,12,12,12,10,10,12,12,12,3,3,
12,12,12,12,12,12,12,12,12,9,9,12,12,12,12,12,
12,12,12,12,12,12,12,12,12,9,9,12,12,12,12,12,
12,12,12,12,12,12,12,12,12,9,9,12,12,12,12,12
</chunk>
   <chunk x="0" y="-48" width="16" height="16">
2,2,2,2,2,2,2,2,2,2,2,2,2,2,2,2,
2,2,2,2,2,2,2,2,2,2,2,2,2,2,2,2,
2,2,2,2,2,2,2,2,2,2,2,2,2,2,2,2,
2,2,2,2,2,2,2,2,2,2,2,2,2,2,2,2,
2,2,2,2,2,2,2,2,2,2,2,2,2,2,2,2,
2,2,2,2,2,2,2,2,2,2,2,2,2,2,2,2,
2,2,2,2,2,2,2,2,2,2,2,2,2,2,2,2,
2,2,2,2,2,12,12,12,12,2,2,2,2,12,12,12,
2,2,2,2,3,3,3,12,12,12,12,12,12,12,12,12,
3,3,2,3,3,3,3,3,3,12,12,12,12,12,12,12,
3,3,3,3,3,3,3,3,3,3,3,12,12,12,12,12,
3,3,3,3,3,3,3,3,3,3,3,3,3,12,12,12,
3,3,3,3,3,3,3,3,3,3,3,3,3,12,12,12,
12,12,12,3,3,3,3,3,3,3,3,3,3,12,12,12,
12,12,12,12,3,3,3,3,3,12,12,12,12,12,12,12,
12,12,12,12,12,12,12,12,12,12,12,12,12,12,12,12
</chunk>
   <chunk x="16" y="-48" width="16" height="16">
2,2,2,2,2,2,2,2,2,2,2,2,2,2,2,2,
2,2,2,2,2,2,2,2,2,2,2,2,2,2,2,2,
2,2,2,2,2,2,2,2,2,2,2,2,2,2,2,2,
2,2,2,2,2,2,2,2,2,2,2,2,2,2,2,2,
2,2,2,2,2,2,2,2,2,2,2,2,2,2,2,2,
2,2,2,2,2,2,12,12,12,12,12,2,2,2,2,2,
12,12,12,12,12,12,12,12,12,12,12,2,2,2,2,2,
12,12,12,12,12,12,12,12,12,12,12,2,2,2,2,2,
12,12,12,12,12,12,12,12,12,12,12,2,2,2,2,2,
12,12,12,12,12,12,12,12,12,3,3,3,2,2,2,2,
12,12,12,12,12,12,12,3,3,3,3,3,2,2,2,2,
12,12,12,12,12,12,12,3,3,3,3,3,2,2,2,2,
12,12,12,12,12,12,3,3,3,3,1,1,2,2,2,2,
12,12,12,12,12,12,3,3,3,1,1,1,2,2,2,2,
12,12,12,12,12,3,3,3,1,1,1,1,2,2,2,2,
12,12,12,12,3,3,3,1,1,1,1,2,2,2,2,2
</chunk>
   <chunk x="32" y="-48" width="16" height="16">
2,2,2,2,2,2,2,2,2,2,2,13,13,13,13,13,
2,2,2,2,2,2,2,2,2,2,2,2,13,13,13,13,
2,2,2,2,2,2,2,2,2,2,2,2,2,13,13,13,
2,2,2,2,2,2,2,2,2,2,2,2,2,2,13,13,
2,2,2,2,2,2,2,2,2,2,2,2,2,2,13,13,
2,2,2,2,2,2,2,2,2,2,2,2,2,2,2,13,
2,2,2,2,2,2,2,2,2,2,2,2,2,2,2,13,
2,2,2,2,2,2,2,2,2,2,2,2,2,2,2,2,
2,2,2,2,2,2,2,2,2,2,2,2,2,2,2,2,
2,2,2,2,2,2,2,2,2,2,2,2,2,2,2,2,
2,2,2,2,2,2,2,2,2,2,2,2,2,2,2,2,
2,2,2,2,2,2,2,2,2,2,2,2,2,2,2,2,
2,2,2,2,2,2,2,2,2,2,2,2,2,2,2,2,
2,2,2,2,2,2,2,2,2,2,2,2,2,2,2,2,
2,2,2,2,2,2,2,2,2,2,2,2,2,2,2,2,
2,2,2,2,2,2,2,2,2,2,2,2,2,2,2,2
</chunk>
   <chunk x="48" y="-48" width="16" height="16">
13,13,13,13,13,13,13,13,13,13,13,13,13,13,13,13,
13,13,13,13,13,13,13,13,13,13,13,13,13,13,13,13,
13,13,13,13,13,13,13,13,13,13,13,13,13,13,13,13,
13,13,13,13,13,13,13,13,13,13,13,13,13,13,13,13,
13,13,13,13,13,13,13,13,13,13,13,13,13,13,13,13,
13,13,13,13,13,13,13,13,13,13,13,13,13,13,13,13,
13,13,13,13,13,13,13,13,13,13,13,13,13,13,13,13,
13,13,13,13,13,13,13,13,13,13,13,13,13,13,13,13,
13,13,13,13,13,13,13,13,13,13,13,13,13,13,13,13,
13,13,13,13,13,13,13,13,13,13,13,13,13,13,13,13,
13,13,13,13,13,13,13,13,13,13,13,13,13,13,13,13,
2,13,13,13,13,13,13,13,13,13,13,13,13,13,13,13,
2,13,13,13,13,13,13,13,13,13,13,13,13,13,13,13,
2,13,13,13,13,13,13,13,13,13,13,13,13,13,13,13,
2,13,13,13,13,13,13,13,13,13,13,13,13,13,13,13,
2,13,13,13,13,13,13,13,13,13,13,13,13,13,13,13
</chunk>
   <chunk x="-80" y="-32" width="16" height="16">
10,10,10,10,10,10,10,10,10,10,10,10,10,10,10,10,
10,10,10,10,10,10,10,10,10,10,10,10,10,10,10,10,
10,10,10,10,10,10,10,10,10,10,10,10,10,10,10,10,
10,10,10,10,10,10,10,10,10,10,10,10,10,10,10,10,
10,10,10,10,10,10,10,10,10,10,10,10,10,10,10,10,
10,10,10,10,10,10,10,10,10,10,10,10,10,10,10,10,
10,10,10,10,10,10,10,10,10,10,10,10,10,10,10,10,
10,10,10,10,10,10,10,10,10,10,10,10,10,10,10,10,
10,10,10,10,10,10,10,10,10,10,10,10,10,10,10,10,
10,10,10,10,10,10,10,10,10,10,10,10,10,10,10,10,
10,10,10,10,10,10,10,10,10,10,10,10,10,10,10,10,
10,10,10,10,10,10,10,10,10,10,10,10,10,10,10,10,
10,10,10,10,10,10,10,10,10,10,10,10,10,10,10,10,
10,10,10,10,10,10,10,10,10,10,10,10,10,10,10,10,
10,10,10,10,10,10,10,10,10,10,10,10,10,10,10,10,
10,10,10,10,10,10,10,10,10,10,10,10,10,10,10,10
</chunk>
   <chunk x="-64" y="-32" width="16" height="16">
10,10,10,10,10,10,10,10,10,10,10,10,10,10,10,10,
10,10,10,10,10,10,10,10,10,10,10,10,10,2,2,2,
10,10,10,10,10,10,10,10,10,10,2,2,2,2,2,1,
10,10,10,10,10,10,10,10,10,2,2,2,2,2,1,1,
10,10,10,10,10,10,10,10,10,2,2,2,2,2,2,2,
10,10,10,10,10,10,10,10,10,2,2,2,2,2,2,2,
10,10,10,10,10,10,10,10,10,10,2,2,2,2,2,2,
10,10,10,10,10,10,10,10,10,10,10,10,2,2,2,2,
10,10,10,10,10,10,10,10,10,10,10,10,10,2,2,2,
10,10,10,10,10,10,10,10,10,10,10,10,10,10,10,10,
10,10,10,10,10,10,10,10,10,10,10,10,10,10,10,10,
10,10,10,10,10,10,10,10,10,10,10,10,10,3,3,3,
10,10,10,10,10,10,10,10,10,10,10,10,3,3,3,3,
10,10,10,10,10,10,10,10,10,10,10,10,3,3,3,3,
10,10,10,10,10,10,10,10,10,10,10,3,3,3,3,3,
10,10,10,10,10,10,10,10,10,10,2,2,2,2,2,2
</chunk>
   <chunk x="-48" y="-32" width="16" height="16">
2,2,2,1,1,1,1,1,1,1,1,3,3,3,1,1,
2,2,1,1,1,1,1,1,1,1,1,1,1,1,1,1,
1,1,1,1,1,1,1,1,1,1,1,1,1,1,1,1,
1,1,1,1,1,1,1,1,1,1,1,1,1,1,1,1,
1,1,1,1,1,1,1,1,1,1,1,1,1,1,1,1,
2,1,1,1,1,1,1,1,1,1,1,1,1,1,1,1,
2,2,1,1,1,1,1,1,1,1,1,1,1,1,1,1,
2,2,2,1,1,1,1,1,1,1,1,1,1,1,1,1,
2,2,2,2,1,1,1,1,1,1,1,1,1,1,1,1,
10,2,2,2,2,2,1,1,1,1,1,1,1,1,1,1,
10,10,10,10,2,2,2,2,2,1,1,1,1,1,1,1,
10,10,10,10,10,10,10,10,2,2,2,2,2,2,2,2,
3,3,2,2,2,2,10,10,10,10,2,2,2,10,10,10,
3,3,2,2,2,2,2,2,10,10,10,10,10,10,10,10,
3,2,2,2,2,2,2,3,3,3,3,10,10,10,3,3,
2,2,2,2,2,2,3,3,3,3,3,3,3,3,3,3
</chunk>
   <chunk x="-32" y="-32" width="16" height="16">
3,3,3,3,3,3,1,1,1,1,1,1,1,12,12,12,
1,1,1,1,1,1,1,1,1,1,1,1,1,12,12,12,
1,1,1,1,1,1,1,1,1,1,1,1,12,12,12,12,
1,1,1,1,1,1,1,1,1,1,1,12,12,12,12,12,
1,1,1,1,1,1,1,1,1,1,1,10,10,12,12,12,
1,1,1,1,1,1,1,1,1,1,10,10,10,12,12,12,
1,1,1,1,1,1,1,1,1,10,10,10,12,12,12,12,
1,1,1,1,1,1,1,10,10,10,10,12,12,12,12,12,
1,1,1,1,1,2,2,10,10,12,12,12,12,12,12,12,
1,1,1,2,2,10,10,10,10,12,12,12,12,12,12,12,
2,2,2,2,2,10,10,12,12,12,12,12,12,12,12,12,
2,2,10,10,10,10,12,12,12,12,12,12,12,12,12,12,
10,10,10,10,10,12,12,12,12,12,12,12,12,12,12,12,
10,3,3,3,3,12,12,12,12,12,12,12,12,12,12,12,
3,3,3,3,3,12,12,12,12,12,12,12,12,12,12,12,
3,3,3,3,12,12,12,12,12,12,12,12,12,12,12,12
</chunk>
   <chunk x="-16" y="-32" width="16" height="16">
12,12,12,12,12,12,12,12,12,9,9,12,12,12,12,12,
12,12,12,12,12,12,12,12,12,9,9,12,12,12,12,12,
12,12,12,12,12,12,12,12,12,9,9,12,12,12,12,12,
12,12,12,12,12,12,12,12,12,9,9,12,12,12,12,12,
12,12,12,12,12,12,12,12,12,9,9,12,12,12,12,12,
12,12,12,12,12,12,12,12,12,9,9,12,12,12,12,12,
12,12,12,12,12,12,12,12,12,9,9,12,12,1,1,1,
12,12,12,12,12,10,10,10,10,10,10,10,10,10,1,1,
12,12,12,12,10,10,10,10,10,10,10,10,10,10,10,11,
12,12,12,10,10,10,10,10,10,10,10,10,10,10,10,10,
12,12,12,12,10,10,10,10,10,10,10,10,10,10,10,11,
12,12,12,12,12,1,10,10,10,10,10,10,10,11,11,11,
12,12,12,12,1,1,1,1,11,10,10,11,11,11,11,11,
12,12,12,1,1,1,11,11,11,10,10,11,11,11,11,11,
12,1,1,1,1,11,11,11,11,10,10,11,11,11,11,11,
1,1,1,1,11,11,11,11,11,10,10,11,11,11,11,11
</chunk>
   <chunk x="0" y="-32" width="16" height="16">
12,12,12,12,12,12,12,12,12,12,12,12,12,12,12,12,
12,12,12,12,12,12,12,12,12,12,12,12,12,12,12,3,
12,12,12,12,12,12,12,12,12,12,12,12,12,12,3,3,
12,12,12,12,12,12,12,12,12,12,1,1,1,1,1,1,
12,12,12,1,1,1,1,1,1,1,1,1,1,1,1,1,
1,1,1,1,1,1,1,1,1,1,1,1,1,1,1,1,
1,1,1,1,1,1,1,1,1,1,1,1,1,1,1,1,
1,1,1,1,1,1,1,1,1,1,1,1,1,1,1,1,
11,11,11,11,11,11,1,1,1,1,1,1,1,1,1,1,
11,11,11,11,11,11,11,11,11,11,1,1,1,1,1,1,
11,11,11,11,11,11,11,11,11,11,11,11,1,1,1,1,
11,11,11,11,11,11,11,11,11,11,11,11,11,1,1,1,
11,11,11,11,11,11,11,11,11,11,11,11,11,11,1,1,
11,11,11,11,11,11,11,11,11,11,11,11,11,11,1,1,
11,11,11,11,11,11,11,11,11,11,11,11,11,11,11,1,
11,11,11,11,11,11,11,11,11,11,11,11,11,11,11,1
</chunk>
   <chunk x="16" y="-32" width="16" height="16">
12,12,3,3,3,3,1,1,1,1,2,2,2,2,2,2,
3,3,3,1,1,1,1,1,1,2,2,2,2,2,2,2,
1,1,1,1,1,1,1,1,1,2,2,2,2,2,2,2,
1,1,1,1,1,1,1,1,2,2,2,2,2,2,2,2,
1,1,1,1,1,1,1,1,1,1,2,2,2,2,2,2,
1,1,1,1,1,1,1,1,1,1,1,2,2,2,2,2,
1,1,1,1,1,1,1,1,1,1,1,2,2,2,2,2,
1,1,1,1,1,1,1,1,1,1,1,2,2,2,2,2,
1,1,1,1,1,1,1,1,1,1,1,2,2,2,2,2,
1,1,1,1,1,1,1,1,1,1,1,2,2,2,2,2,
1,1,1,1,1,1,1,1,1,1,1,2,2,2,2,2,
1,1,1,1,1,1,1,1,1,1,1,1,1,2,2,2,
1,1,1,1,1,1,1,1,1,1,1,1,1,1,2,2,
1,1,1,1,1,1,1,1,1,1,1,1,1,1,1,2,
1,1,1,1,1,1,1,1,1,1,1,1,1,1,1,2,
1,1,1,1,1,1,1,1,1,1,1,1,1,1,1,1
</chunk>
   <chunk x="32" y="-32" width="16" height="16">
2,2,2,2,2,2,2,2,2,2,2,2,2,2,2,2,
2,2,2,2,2,2,2,2,2,2,2,2,2,2,2,2,
2,2,2,2,2,2,2,2,2,2,2,2,2,2,2,2,
2,2,2,2,2,2,2,2,2,2,2,2,2,2,2,2,
2,2,2,2,2,2,2,2,2,2,2,2,2,2,2,2,
2,2,2,2,2,2,2,2,2,2,2,2,2,2,2,13,
2,2,2,2,2,2,2,2,2,2,2,2,2,2,2,13,
2,2,2,2,2,2,2,2,2,2,2,2,2,2,13,13,
2,2,2,2,2,2,2,2,2,2,2,2,2,13,13,13,
2,2,2,2,2,2,2,2,2,2,2,2,13,13,13,13,
2,2,2,2,2,2,2,2,2,2,2,2,13,13,13,13,
2,2,2,2,2,2,2,2,2,2,2,13,13,13,13,13,
2,2,2,2,2,2,2,2,2,2,13,13,13,13,13,13,
2,2,2,2,2,2,2,2,2,2,13,13,13,13,13,13,
2,2,2,2,2,2,2,2,2,2,2,13,13,13,13,13,
2,2,2,2,2,2,2,2,2,2,2,13,13,13,13,13
</chunk>
   <chunk x="48" y="-32" width="16" height="16">
2,13,13,13,13,13,13,13,13,13,13,13,13,13,13,13,
13,13,13,13,13,13,13,13,13,13,13,13,13,13,13,13,
13,13,13,13,13,13,13,13,13,13,13,13,13,13,13,13,
13,13,13,13,13,13,13,13,13,13,13,13,13,13,13,13,
13,13,13,13,13,13,13,13,13,13,13,13,13,13,13,13,
13,13,13,13,13,13,13,13,13,13,13,13,13,13,13,13,
13,13,13,13,13,13,13,13,13,13,13,13,13,13,13,13,
13,13,13,13,13,13,13,13,13,13,13,13,13,13,13,13,
13,13,13,13,13,13,13,13,13,13,13,13,13,13,13,13,
13,13,13,13,13,13,13,13,13,13,13,13,13,13,13,13,
13,13,13,13,13,13,13,13,13,13,13,13,13,13,13,13,
13,13,13,13,13,13,13,13,13,13,13,13,13,13,13,13,
13,13,13,13,13,13,13,13,13,13,13,13,13,13,13,13,
13,13,13,13,13,13,13,13,13,13,13,13,13,13,13,13,
13,13,13,13,13,13,13,13,13,13,13,13,13,13,13,13,
13,13,13,13,13,13,13,13,13,13,13,13,13,13,13,13
</chunk>
   <chunk x="-80" y="-16" width="16" height="16">
10,10,10,10,10,10,10,10,10,10,10,10,10,10,10,10,
10,10,10,10,10,10,10,10,10,10,10,10,10,10,10,10,
10,10,10,10,10,10,10,10,3,3,10,10,10,10,10,10,
10,10,10,10,3,3,3,3,3,3,3,3,10,10,3,3,
3,3,3,3,3,3,3,3,3,3,3,3,3,3,3,3,
3,3,3,3,3,3,3,3,3,3,3,3,3,3,3,3,
3,3,3,3,3,3,3,3,3,3,3,3,3,3,3,3,
3,3,3,3,3,3,3,3,3,3,3,3,3,3,3,3,
3,3,3,3,3,3,3,3,3,3,3,3,3,3,3,3,
3,3,3,3,3,3,3,3,3,3,3,3,3,3,3,3,
12,3,3,3,3,3,3,3,3,3,3,3,3,3,3,3,
12,12,12,12,3,3,3,3,3,3,3,3,3,3,12,12,
12,12,12,12,12,3,3,3,3,3,12,12,12,12,12,12,
12,12,12,12,12,12,3,3,12,12,12,12,12,12,12,12,
12,12,12,12,12,12,12,12,12,12,12,12,12,12,12,12,
12,12,12,12,12,12,12,12,12,12,12,12,12,12,12,12
</chunk>
   <chunk x="-64" y="-16" width="16" height="16">
10,10,10,10,10,10,10,10,10,2,2,2,2,2,2,2,
10,10,10,10,10,10,10,10,2,2,2,2,2,2,2,2,
10,10,10,10,10,10,10,3,3,3,3,3,2,2,2,2,
3,10,10,10,10,3,3,3,3,3,3,3,3,3,2,2,
3,3,3,3,3,3,3,3,3,3,3,3,3,3,3,2,
3,3,3,3,3,3,3,3,3,3,3,3,3,3,3,3,
3,3,3,3,3,3,3,3,3,3,3,3,3,3,12,12,
3,3,3,3,3,3,3,3,3,3,3,3,3,12,12,12,
3,3,3,3,3,3,3,3,3,3,3,12,12,12,12,12,
3,3,3,3,3,3,3,3,2,2,2,12,12,12,12,12,
3,3,3,3,3,2,2,2,2,2,2,2,12,12,12,12,
12,12,12,12,12,1,1,1,2,2,2,2,2,2,2,2,
12,12,12,1,1,1,1,1,2,2,2,2,2,2,2,2,
12,12,1,1,1,1,1,1,1,2,2,2,2,2,2,2,
12,1,1,1,1,1,1,3,3,3,3,3,2,2,2,2,
12,1,1,1,1,3,3,3,3,3,3,3,3,2,2,1
</chunk>
   <chunk x="-48" y="-16" width="16" height="16">
2,2,2,2,2,2,3,3,3,3,3,3,3,3,3,3,
2,2,2,2,2,2,2,3,3,3,3,3,3,3,3,3,
2,2,2,2,2,2,2,3,3,3,3,3,3,3,3,12,
2,2,2,2,12,12,12,3,3,3,3,3,3,12,12,12,
2,2,2,2,12,12,12,12,12,12,12,12,12,12,12,12,
2,2,2,2,2,12,12,12,12,12,12,12,12,12,12,12,
2,2,2,2,2,2,12,12,12,12,12,12,12,12,12,12,
12,2,2,2,2,2,12,12,12,12,12,12,12,12,12,12,
12,2,2,2,2,2,12,12,12,12,3,3,3,12,12,12,
2,2,2,2,2,2,12,3,3,3,3,3,3,3,12,12,
2,2,2,2,2,3,3,3,3,3,3,3,3,3,3,3,
2,2,2,2,3,3,3,3,3,3,3,3,3,3,3,3,
2,2,2,2,3,3,3,3,3,3,3,3,3,3,3,3,
2,2,2,12,12,3,3,3,3,3,3,3,3,3,3,3,
2,2,1,1,1,1,3,3,3,3,3,3,3,3,3,3,
1,1,1,1,1,1,3,3,3,3,3,3,3,3,3,3
</chunk>
   <chunk x="-32" y="-16" width="16" height="16">
3,3,3,12,12,12,12,12,12,12,12,12,12,12,12,12,
3,3,3,12,12,12,12,12,12,12,12,12,12,3,12,1,
12,12,12,12,12,12,12,12,12,12,12,12,12,3,12,1,
12,12,12,12,12,12,12,12,12,12,12,12,3,3,1,1,
12,12,12,12,12,12,12,12,12,12,3,3,3,3,1,1,
12,12,12,12,12,12,12,12,12,3,3,3,3,3,1,11,
12,12,12,12,12,12,12,12,3,3,3,3,3,1,1,11,
12,12,12,12,12,12,12,3,3,3,3,3,3,1,11,11,
12,12,12,12,12,12,3,3,3,3,3,3,3,1,11,11,
12,12,12,12,12,3,3,3,3,3,3,3,3,11,11,11,
12,12,12,12,12,3,3,3,3,3,3,3,1,11,11,11,
3,3,3,3,3,3,3,3,3,3,3,3,1,11,11,11,
3,3,3,3,3,3,3,3,3,3,3,1,1,11,11,11,
3,3,3,3,3,3,3,3,3,3,1,1,1,11,11,11,
3,3,3,3,3,3,3,3,3,3,1,1,1,11,11,11,
3,3,3,3,3,3,3,3,3,3,3,1,1,11,11,11
</chunk>
   <chunk x="-16" y="-16" width="16" height="16">
1,1,1,11,11,11,11,11,11,10,10,11,11,11,11,11,
1,1,11,11,11,11,11,11,11,10,10,11,11,11,11,11,
1,11,11,11,11,11,11,11,11,10,10,11,11,11,11,11,
1,11,11,11,11,11,11,11,7,7,7,7,11,11,11,11,
11,11,11,11,11,11,11,11,11,10,10,11,11,11,11,11,
11,11,11,11,11,11,11,11,11,10,10,11,11,11,11,11,
11,11,11,11,11,11,11,11,11,10,10,11,11,11,11,11,
11,11,11,11,11,11,11,11,11,10,10,11,11,11,11,11,
11,11,11,11,11,11,11,11,11,10,10,11,11,11,11,11,
11,11,11,11,11,11,11,11,11,10,10,10,11,11,11,11,
11,11,11,11,11,11,11,11,11,11,10,10,10,10,10,10,
11,11,11,11,11,11,11,11,11,11,11,10,10,10,10,10,
11,11,11,11,11,11,11,11,11,11,11,11,11,11,11,11,
11,11,11,11,11,11,11,11,11,11,11,11,11,11,11,11,
11,11,11,11,11,11,11,11,11,11,11,11,11,11,11,11,
11,11,11,11,11,11,11,11,11,11,11,11,11,11,11,11
</chunk>
   <chunk x="0" y="-16" width="16" height="16">
11,11,11,11,11,11,11,11,11,11,11,11,11,11,11,11,
11,11,11,11,11,11,11,11,11,11,11,11,11,11,11,11,
11,11,11,11,11,11,11,11,11,11,11,11,11,11,11,11,
11,11,11,11,11,11,11,11,11,11,11,11,11,11,11,11,
11,11,11,11,11,11,11,11,11,11,11,11,11,11,11,11,
11,11,11,11,11,11,11,11,11,11,11,11,11,11,11,11,
11,11,11,11,11,11,11,11,11,11,11,11,11,11,11,11,
11,11,11,11,11,11,11,11,11,11,11,11,11,11,11,11,
11,11,11,11,11,11,11,11,11,11,11,11,11,11,11,11,
7,11,11,11,11,11,11,11,11,11,11,11,11,11,11,11,
7,10,10,10,10,10,11,11,11,11,11,11,11,11,11,11,
7,10,10,10,10,10,10,10,11,11,11,11,11,11,11,11,
7,11,11,11,10,10,10,10,10,11,11,11,11,11,11,11,
11,11,11,11,11,11,10,10,10,10,11,11,11,11,11,11,
11,11,11,11,11,11,11,10,10,10,11,11,11,11,11,11,
11,11,11,11,11,11,11,10,10,10,10,11,11,11,11,11
</chunk>
   <chunk x="16" y="-16" width="16" height="16">
1,1,1,1,1,1,1,1,1,1,1,1,1,1,1,1,
1,1,1,1,1,1,1,1,1,1,1,1,1,1,1,1,
11,1,1,1,1,1,1,1,1,1,1,1,1,1,1,1,
11,1,1,1,1,1,1,1,1,1,1,1,1,1,1,1,
11,11,1,1,1,1,1,1,1,1,1,1,1,1,1,1,
11,11,11,1,1,1,1,1,1,1,1,1,1,1,1,1,
11,11,11,11,1,1,1,1,1,1,1,1,1,1,1,1,
11,11,11,11,11,1,1,1,1,1,1,1,1,1,1,1,
11,11,11,11,11,1,1,1,1,1,1,1,1,1,1,1,
11,11,11,11,11,11,1,1,1,1,1,1,1,1,1,1,
11,11,11,11,11,11,1,1,1,1,1,1,1,1,1,1,
11,11,11,11,11,11,1,1,1,1,1,1,1,1,1,1,
11,11,11,11,11,11,1,1,1,1,1,1,1,1,1,1,
11,11,11,11,11,11,1,1,1,1,1,1,1,1,1,1,
11,11,11,11,11,11,1,1,1,1,1,1,1,1,1,1,
11,11,11,11,11,11,1,1,1,1,1,1,1,1,1,1
</chunk>
   <chunk x="32" y="-16" width="16" height="16">
1,1,2,2,2,2,2,2,2,2,2,13,13,13,13,13,
1,1,1,1,2,2,2,2,2,2,2,13,13,13,13,13,
1,1,1,1,1,1,2,2,2,2,2,2,13,13,13,13,
1,1,1,1,1,1,1,2,2,2,2,2,13,13,13,13,
1,1,1,1,1,1,1,2,2,2,2,2,13,13,13,13,
1,1,1,1,1,1,1,1,2,2,2,2,13,13,13,13,
1,1,1,1,1,1,1,1,2,2,2,2,13,13,13,13,
1,1,1,1,1,1,1,1,2,2,2,2,13,13,13,13,
1,1,1,1,1,1,1,1,2,2,2,2,13,13,13,13,
1,1,1,1,1,1,1,1,2,2,2,2,2,13,13,13,
1,1,1,1,1,1,1,1,2,2,2,2,2,13,13,13,
1,1,1,1,1,1,1,1,2,2,2,2,2,13,13,13,
1,1,1,1,1,1,1,1,2,2,2,2,2,2,13,13,
1,1,1,1,1,1,1,1,2,2,2,2,2,2,13,13,
1,1,1,1,1,1,1,1,2,2,2,2,2,2,13,13,
1,1,1,1,1,1,1,1,1,2,2,2,2,2,13,13
</chunk>
   <chunk x="48" y="-16" width="16" height="16">
13,13,13,13,13,13,13,13,13,13,13,13,13,13,13,13,
13,13,13,13,13,13,13,13,13,13,13,13,13,13,13,13,
13,13,13,13,13,13,13,13,13,13,13,13,13,13,13,13,
13,13,13,13,13,13,13,13,13,13,13,13,13,13,13,13,
13,13,13,13,13,13,13,13,13,13,13,13,13,13,13,13,
13,13,13,13,13,13,13,13,13,13,13,13,13,13,13,13,
13,13,13,13,13,13,13,13,13,13,13,13,13,13,13,13,
13,13,13,13,13,13,13,13,13,13,13,13,13,13,13,13,
13,13,13,13,13,13,13,13,13,13,13,13,13,13,13,13,
13,13,13,13,13,13,13,13,13,13,13,13,13,13,13,13,
13,13,13,13,13,13,13,13,13,13,13,13,13,13,13,13,
13,13,13,13,13,13,13,13,13,13,13,13,13,13,13,13,
13,13,13,13,13,13,13,13,13,13,13,13,13,13,13,13,
13,13,13,13,13,13,13,13,13,13,13,13,13,13,13,13,
13,13,13,13,13,13,13,13,13,13,13,13,13,13,13,13,
13,13,13,13,13,13,13,13,13,13,13,13,13,13,13,13
</chunk>
   <chunk x="-80" y="0" width="16" height="16">
12,12,12,12,12,12,12,12,12,12,12,12,12,12,12,12,
12,12,12,12,12,12,12,12,12,3,3,3,3,3,3,3,
12,12,12,12,12,12,3,3,3,3,3,3,3,3,3,1,
12,12,12,3,3,3,3,3,3,3,3,3,3,3,3,1,
3,3,3,3,3,3,3,3,3,3,3,3,3,3,3,1,
3,3,3,3,3,3,3,3,3,3,3,3,3,3,3,1,
3,3,3,3,3,3,3,3,3,3,3,3,3,3,3,1,
3,3,3,3,3,3,3,3,3,3,3,3,3,3,1,1,
3,3,3,3,3,3,3,3,3,3,3,3,1,1,1,1,
3,3,3,3,3,3,3,3,3,3,1,1,1,1,1,1,
3,3,3,3,3,3,3,3,1,1,1,1,1,1,1,1,
3,3,3,10,10,10,10,10,10,10,10,10,10,10,10,10,
3,3,10,10,10,10,10,10,10,10,10,10,10,10,10,10,
10,10,10,10,10,10,10,10,10,10,10,10,10,10,10,10,
10,10,10,10,10,10,10,10,10,10,10,10,10,3,3,3,
10,10,10,10,10,10,10,10,1,1,1,1,1,3,3,3
</chunk>
   <chunk x="-64" y="0" width="16" height="16">
1,1,1,1,3,3,3,3,3,3,3,3,3,3,1,1,
1,1,1,3,3,3,3,3,3,3,3,3,3,3,1,1,
1,1,3,3,3,3,3,3,3,3,3,3,3,3,3,1,
1,1,3,3,3,3,3,3,3,3,3,3,3,3,3,1,
1,1,3,3,3,3,3,3,3,3,3,3,3,3,3,3,
1,1,3,3,3,3,3,3,3,3,3,3,3,3,3,3,
1,1,3,3,3,3,3,3,3,3,3,3,3,3,3,3,
1,1,3,3,3,3,3,3,3,3,3,3,3,3,3,1,
1,1,1,1,3,3,3,3,3,3,3,3,3,1,1,1,
1,1,1,1,1,1,1,1,3,3,3,3,1,1,1,1,
1,1,1,1,1,1,1,1,1,1,1,1,1,1,1,1,
10,10,10,10,10,10,10,1,1,1,1,1,1,1,1,1,
10,10,10,10,10,10,10,10,10,10,1,1,1,1,1,1,
10,10,10,10,10,10,10,10,10,10,10,10,1,1,1,1,
3,3,3,10,10,10,10,10,10,10,10,10,10,1,1,1,
3,3,3,3,3,10,10,10,10,10,10,10,10,10,10,1
</chunk>
   <chunk x="-48" y="0" width="16" height="16">
1,1,1,1,1,3,3,3,3,3,3,3,3,3,3,3,
1,1,1,1,1,3,3,3,3,3,3,3,3,3,3,3,
1,1,1,1,3,3,3,3,3,3,3,3,3,3,3,3,
1,1,1,1,1,1,1,1,1,3,3,3,3,3,3,3,
1,1,1,1,1,1,1,1,1,1,1,1,1,1,1,1,
1,1,1,1,1,1,1,1,1,1,1,1,1,1,1,1,
1,1,1,1,1,1,1,1,1,1,1,1,1,1,1,1,
1,1,1,1,1,1,1,1,1,1,1,1,1,1,1,1,
1,1,1,1,1,1,1,1,1,1,1,1,1,1,1,1,
1,1,1,1,1,1,3,3,3,3,3,1,1,1,1,1,
1,1,1,1,1,3,3,3,3,3,3,3,1,1,1,1,
1,1,1,1,3,3,3,3,3,3,3,3,1,1,1,1,
1,1,1,1,3,3,3,3,3,3,3,1,1,1,1,3,
1,1,1,1,1,1,1,3,3,1,1,1,1,1,3,3,
1,1,1,1,1,1,1,1,1,1,1,1,1,3,3,3,
1,1,1,1,1,1,1,1,3,3,3,3,3,3,3,3
</chunk>
   <chunk x="-32" y="0" width="16" height="16">
3,3,3,3,3,3,3,3,3,3,3,1,1,11,11,11,
3,3,3,3,3,3,3,3,3,3,3,1,1,11,11,11,
3,3,3,3,3,3,3,3,3,3,3,1,1,1,11,11,
3,3,3,3,3,3,3,3,3,1,1,1,1,1,1,11,
3,3,3,3,3,3,3,3,1,1,1,1,1,1,1,1,
1,3,3,3,3,3,1,1,1,1,1,1,1,1,1,1,
1,1,1,1,1,1,1,1,1,1,1,1,1,1,1,1,
1,1,1,1,1,1,1,1,3,3,3,3,3,1,1,1,
1,1,1,1,1,1,3,3,3,3,3,3,3,3,1,1,
1,1,1,1,1,3,3,3,3,12,12,12,12,12,12,1,
1,1,1,1,3,3,3,3,12,12,12,12,12,12,12,12,
1,1,1,1,3,3,3,12,12,12,12,12,12,12,12,12,
3,3,3,3,3,3,12,12,12,12,12,12,12,12,12,12,
3,3,3,3,3,3,12,12,12,12,12,12,12,12,12,3,
3,3,3,3,3,12,12,12,12,12,12,12,12,12,3,3,
3,3,3,12,12,12,12,12,12,12,12,12,12,12,3,3
</chunk>
   <chunk x="-16" y="0" width="16" height="16">
11,11,11,11,11,11,11,11,11,11,11,11,11,11,11,11,
11,11,11,11,11,11,11,11,11,11,11,11,11,11,11,11,
11,11,11,11,11,11,11,11,11,11,11,11,11,11,11,11,
11,11,11,11,11,11,11,11,11,11,11,11,11,11,11,11,
11,11,11,11,11,11,11,11,11,11,11,11,11,11,11,11,
1,1,11,11,11,11,11,11,11,11,11,11,11,11,11,11,
1,1,1,1,11,11,11,11,11,11,11,11,11,11,11,11,
1,1,1,1,11,11,11,11,11,11,11,11,11,11,11,11,
1,1,1,1,1,11,11,11,11,11,11,11,11,11,11,11,
1,1,1,1,1,1,11,11,11,11,11,11,11,11,11,11,
1,1,1,1,1,1,1,11,11,11,11,11,11,11,11,11,
12,3,3,1,1,1,1,1,11,11,11,11,11,11,11,11,
12,3,3,3,1,1,1,1,1,1,11,11,11,11,11,11,
3,3,3,3,1,1,1,1,1,1,1,1,11,11,11,11,
3,3,3,3,3,1,1,1,1,1,1,1,1,1,1,1,
3,3,3,3,3,1,1,1,1,1,1,1,1,1,1,1
</chunk>
   <chunk x="0" y="0" width="16" height="16">
11,11,11,11,11,11,11,11,10,10,10,11,11,11,11,11,
11,11,11,11,11,11,11,7,7,7,7,7,11,11,11,11,
11,11,11,11,11,11,11,11,10,10,10,11,11,11,11,11,
11,11,11,11,11,11,11,10,10,10,11,11,11,11,11,11,
11,11,11,11,11,11,11,10,10,10,11,11,11,11,11,11,
11,11,11,11,11,11,10,10,10,10,11,11,11,11,11,11,
11,11,11,11,11,11,10,10,10,11,11,11,11,11,11,11,
11,11,11,11,11,11,10,10,10,11,11,11,11,11,11,11,
11,11,11,11,11,11,10,10,10,11,11,11,11,11,11,11,
11,11,11,11,11,11,10,10,10,10,11,11,11,11,11,11,
11,11,11,11,11,11,10,10,10,10,10,10,11,11,11,11,
11,11,11,11,11,11,10,10,10,10,10,10,10,10,11,11,
11,11,11,11,11,10,10,10,10,1,10,10,10,10,10,1,
11,11,11,11,11,10,10,10,10,1,1,10,10,10,10,10,
11,11,11,11,11,10,10,10,10,1,1,1,1,10,10,10,
1,1,1,1,1,1,10,10,10,1,1,1,1,1,1,1
</chunk>
   <chunk x="16" y="0" width="16" height="16">
11,11,11,11,11,11,1,1,1,1,1,1,1,1,1,1,
11,11,11,11,11,11,1,1,1,1,1,1,1,1,1,1,
11,11,11,11,11,11,1,1,1,1,1,1,1,1,1,1,
11,11,11,11,11,1,1,1,1,1,1,1,1,1,1,1,
11,11,11,11,11,1,1,1,1,1,1,1,1,1,1,1,
11,11,11,11,11,1,1,1,1,1,1,1,1,1,1,1,
11,11,11,11,1,1,1,1,1,1,1,1,1,1,1,1,
11,11,11,1,1,1,1,1,1,1,1,1,1,1,1,1,
11,11,11,1,1,1,1,1,1,1,1,1,1,1,1,1,
11,11,1,1,1,1,1,1,1,1,1,1,1,1,1,1,
11,1,1,1,1,1,1,1,1,1,1,1,1,1,1,1,
1,1,1,1,1,1,1,1,1,1,1,1,1,1,1,1,
1,1,1,1,1,1,1,1,1,1,1,1,1,1,1,1,
10,10,1,1,1,1,1,1,1,1,1,1,1,1,1,1,
10,10,10,1,1,1,1,1,1,1,1,1,1,1,1,1,
10,10,10,10,10,1,1,1,1,1,1,1,1,1,1,1
</chunk>
   <chunk x="32" y="0" width="16" height="16">
1,1,1,1,1,1,1,1,1,2,2,2,2,2,2,13,
1,1,1,1,1,1,1,1,1,1,2,2,2,2,2,13,
1,1,1,1,1,1,1,1,1,1,2,2,2,2,2,13,
1,1,1,1,1,1,1,1,1,1,1,2,2,2,2,2,
1,1,1,1,1,1,1,1,1,1,1,2,2,2,2,2,
1,1,1,1,1,1,1,1,1,1,1,1,2,2,2,2,
1,1,1,1,1,1,1,1,1,1,1,1,1,2,2,2,
1,1,1,1,1,1,1,1,1,1,1,1,1,2,2,2,
1,1,1,1,1,1,1,1,1,1,1,1,1,2,2,2,
1,1,1,1,1,1,1,1,1,1,1,1,1,2,2,2,
1,1,1,1,1,1,1,1,1,1,1,1,1,2,2,2,
1,1,1,1,1,1,1,1,1,1,1,1,1,2,2,2,
1,1,1,1,1,1,1,1,1,1,1,1,1,2,2,2,
1,1,1,1,1,1,1,1,1,1,1,1,1,2,2,2,
1,1,1,1,1,1,1,1,1,1,1,1,2,2,2,2,
1,1,1,1,1,1,1,1,1,1,1,1,2,2,2,2
</chunk>
   <chunk x="48" y="0" width="16" height="16">
13,13,13,13,13,13,13,13,13,13,13,13,13,13,13,13,
13,13,13,13,13,13,13,13,13,13,13,13,13,13,13,13,
13,13,13,13,13,13,13,13,13,13,13,13,13,13,13,13,
13,13,13,13,13,13,13,13,13,13,13,13,13,13,13,13,
2,13,13,13,13,13,13,13,13,13,13,13,13,13,13,13,
2,13,13,13,13,13,13,13,13,13,13,13,13,13,13,13,
2,13,13,13,13,13,13,13,13,13,13,13,13,13,13,13,
2,13,13,13,13,13,13,13,13,13,13,13,13,13,13,13,
2,13,13,13,13,13,13,13,13,13,13,13,13,13,13,13,
2,13,13,13,13,13,13,13,13,13,13,13,13,13,13,13,
2,2,13,13,13,13,13,13,13,13,13,13,13,13,13,13,
2,2,2,13,13,13,13,13,13,13,13,13,13,13,10,10,
2,2,2,13,13,13,13,13,13,13,13,13,13,10,10,10,
2,2,2,2,13,13,13,13,13,13,13,13,10,10,10,10,
2,2,2,2,13,13,13,13,13,13,13,10,10,10,10,10,
2,2,2,2,13,13,13,13,13,13,13,10,10,10,10,10
</chunk>
   <chunk x="-80" y="16" width="16" height="16">
10,10,10,10,13,13,13,13,1,1,1,1,1,3,3,3,
10,10,10,13,13,13,13,1,1,1,1,1,1,3,3,3,
10,10,13,13,13,13,3,1,1,1,1,1,3,3,3,3,
10,13,13,13,13,3,3,1,1,1,1,1,3,3,3,3,
13,13,13,13,13,3,3,1,1,1,1,3,3,3,3,3,
13,13,13,13,3,3,3,1,1,1,1,1,3,3,3,3,
13,13,13,13,3,3,3,3,1,1,1,1,1,3,3,3,
13,13,13,13,3,3,3,3,3,1,1,1,1,1,1,1,
13,13,13,13,3,3,3,3,3,1,1,1,1,1,1,1,
13,13,13,13,3,3,3,3,3,1,1,1,1,1,1,1,
13,13,13,13,13,3,3,3,3,3,1,1,1,1,1,1,
13,13,13,13,13,3,3,3,3,3,3,3,3,3,1,1,
13,13,13,13,13,13,13,3,3,3,3,3,3,3,1,1,
13,13,13,13,13,13,13,3,3,3,3,3,3,3,3,1,
13,13,13,13,13,13,13,3,3,3,3,3,3,3,3,1,
13,13,13,13,13,13,13,13,3,3,3,3,3,3,3,1
</chunk>
   <chunk x="-64" y="16" width="16" height="16">
3,3,3,3,3,3,10,10,10,10,10,10,10,10,10,10,
3,3,3,3,3,3,3,3,10,10,10,10,10,10,10,10,
3,3,3,3,3,3,3,3,10,10,10,10,10,10,10,10,
3,3,3,3,3,3,3,3,3,1,10,10,10,10,10,10,
3,3,3,3,3,3,3,3,1,1,1,10,10,10,10,10,
3,3,3,3,3,3,1,1,1,1,1,1,10,10,10,10,
3,3,1,1,1,1,1,1,1,1,1,1,1,1,10,10,
1,1,1,1,1,1,1,1,1,1,1,1,1,1,1,10,
1,1,1,1,1,1,1,1,1,1,1,1,1,1,1,10,
1,1,1,1,1,1,1,1,1,1,1,1,1,1,1,1,
1,1,1,1,1,1,1,1,1,1,1,1,1,1,1,1,
1,1,1,1,1,1,1,1,3,3,1,1,1,1,1,1,
1,1,1,1,1,1,1,1,3,3,3,3,3,1,1,1,
1,1,1,1,1,1,3,3,3,3,3,3,3,3,1,1,
1,1,1,3,3,3,3,3,3,3,3,3,3,3,3,3,
1,1,3,3,3,3,3,3,3,3,3,3,3,3,3,3
</chunk>
   <chunk x="-48" y="16" width="16" height="16">
1,1,1,1,1,1,1,3,3,3,3,12,12,12,12,3,
10,1,1,1,1,1,1,3,12,12,12,12,12,12,12,12,
10,10,1,1,1,1,1,1,1,12,12,12,12,12,12,12,
10,10,10,1,1,1,1,1,1,1,1,1,1,1,1,1,
10,10,10,10,1,1,1,1,1,1,1,1,1,1,1,1,
10,10,10,10,10,1,1,1,1,1,1,1,1,1,1,1,
10,10,10,10,10,10,1,1,1,1,1,1,1,10,10,10,
10,10,10,10,10,10,10,10,1,1,1,10,10,10,10,10,
10,10,10,10,10,10,10,10,10,10,10,10,10,10,10,2,
10,10,10,10,10,10,10,10,10,10,10,10,10,2,2,2,
1,1,10,10,10,10,10,10,10,10,10,10,2,2,2,2,
1,1,1,1,1,1,1,1,1,2,2,2,2,2,2,2,
1,1,1,1,1,1,1,1,1,1,1,1,2,2,2,2,
1,1,1,1,1,1,1,1,1,1,1,1,1,1,1,1,
1,1,1,1,1,1,1,3,3,3,3,3,3,1,1,1,
3,3,3,1,1,1,3,3,3,3,3,3,3,3,1,3
</chunk>
   <chunk x="-32" y="16" width="16" height="16">
3,12,12,12,12,12,12,12,12,12,12,12,12,12,1,3,
12,12,3,3,3,3,12,12,12,12,12,12,12,1,1,1,
12,3,3,3,1,3,3,3,12,12,12,1,1,1,1,1,
1,1,1,1,1,1,1,1,1,1,1,1,1,1,1,1,
1,1,1,1,1,1,1,1,1,1,1,1,1,1,1,1,
1,1,10,10,10,10,10,2,2,2,2,2,2,2,2,1,
10,10,10,10,10,10,10,10,10,10,10,2,2,2,2,2,
10,10,10,10,10,10,10,10,10,10,10,10,10,2,2,2,
2,2,2,2,2,2,2,2,2,10,10,10,10,10,10,10,
2,2,2,2,2,2,2,2,2,2,2,2,2,10,10,10,
2,2,2,2,2,2,2,2,2,2,2,2,2,2,10,10,
2,2,2,2,2,2,2,2,2,2,2,2,2,2,2,2,
2,2,2,1,1,1,1,1,1,1,1,2,2,2,2,2,
1,1,1,1,3,3,3,1,1,1,1,1,1,1,1,1,
3,3,1,3,3,3,3,3,3,3,1,1,1,1,1,1,
3,3,3,3,3,3,3,3,3,3,1,1,1,1,3,1
</chunk>
   <chunk x="-16" y="16" width="16" height="16">
3,3,3,3,1,1,1,1,1,1,1,1,1,1,1,1,
1,1,1,1,1,1,1,1,1,1,1,1,1,1,1,1,
1,1,1,1,1,1,1,1,1,1,1,1,1,1,1,1,
1,1,1,1,1,1,1,1,1,1,1,1,1,1,1,1,
1,1,1,1,1,1,1,1,1,1,1,1,1,1,1,1,
1,1,1,1,1,1,1,1,1,1,1,1,1,1,1,1,
2,2,2,1,1,1,1,1,1,1,1,1,1,1,1,2,
2,2,2,2,2,1,1,1,1,1,1,1,2,2,2,2,
2,2,2,2,2,2,2,2,2,1,2,2,2,2,2,2,
10,2,2,2,2,2,2,2,2,7,2,2,2,2,2,2,
10,10,10,10,10,10,10,10,10,7,10,10,10,10,10,10,
10,10,10,10,10,10,10,10,10,7,10,10,10,10,10,10,
2,10,10,10,10,10,10,10,10,7,10,10,10,10,10,10,
2,2,2,1,1,1,1,1,1,7,1,1,1,1,1,1,
1,1,1,1,1,1,1,1,1,1,1,1,1,1,1,1,
1,1,1,1,1,1,1,1,1,1,1,1,1,1,1,1
</chunk>
   <chunk x="0" y="16" width="16" height="16">
1,1,1,1,1,1,10,10,10,1,1,1,1,1,1,1,
1,1,1,1,1,2,10,10,10,1,1,1,1,1,1,1,
1,1,1,1,2,2,10,10,10,1,1,1,1,1,1,1,
1,1,1,1,2,2,10,10,10,1,1,1,1,1,1,1,
1,1,1,2,2,2,10,10,10,1,1,1,1,1,1,1,
1,2,2,2,2,10,10,10,10,1,1,1,1,1,1,1,
2,2,2,2,2,10,10,10,10,1,1,1,1,1,1,1,
2,2,2,2,10,10,10,10,1,1,1,1,1,3,3,3,
2,2,2,10,10,10,10,10,1,1,1,3,3,3,3,3,
2,10,10,10,10,10,10,1,1,1,3,3,3,3,3,3,
10,10,10,10,10,10,1,1,1,3,3,3,3,3,3,3,
10,10,10,10,10,1,1,1,1,3,3,3,3,3,3,3,
10,10,10,1,1,1,1,1,3,3,3,3,3,3,3,3,
1,1,1,1,1,1,1,1,3,3,3,3,3,3,3,3,
1,1,1,1,1,1,1,3,3,3,3,3,3,3,3,3,
1,1,1,1,1,1,1,3,3,3,3,3,3,3,3,3
</chunk>
   <chunk x="16" y="16" width="16" height="16">
1,1,10,10,10,10,1,1,1,1,1,1,1,1,1,1,
1,1,1,10,10,10,10,10,1,1,1,1,1,1,1,1,
1,1,1,1,10,10,10,10,10,1,1,1,1,1,1,1,
1,1,1,1,1,10,10,10,10,10,1,1,1,1,1,1,
1,1,1,1,1,1,10,10,10,10,10,10,1,1,1,1,
1,1,1,1,1,1,1,10,10,10,10,10,10,10,10,10,
1,1,1,1,1,1,1,1,1,10,10,10,10,10,10,10,
3,3,3,1,1,1,1,1,1,1,1,1,10,10,10,10,
3,3,3,3,1,1,1,1,1,1,1,1,1,1,1,1,
3,3,3,3,1,1,1,1,1,1,1,1,1,1,1,1,
3,3,3,3,1,1,1,1,1,1,1,1,1,1,1,1,
3,3,3,3,3,1,1,1,1,1,1,1,1,1,1,1,
3,3,3,3,3,1,1,1,1,3,3,3,1,1,1,1,
3,3,3,3,3,3,3,3,3,3,3,3,1,1,1,1,
3,3,3,3,3,3,3,3,3,3,3,3,3,1,1,1,
3,3,3,3,3,3,3,3,3,3,3,3,3,1,1,1
</chunk>
   <chunk x="32" y="16" width="16" height="16">
1,1,1,1,1,1,1,1,1,1,1,2,2,2,2,2,
1,1,1,1,1,1,1,1,1,1,1,2,2,2,2,2,
1,1,1,1,1,1,1,1,1,1,2,2,2,2,2,2,
1,1,1,1,1,1,1,1,2,2,2,2,2,2,2,2,
1,1,1,1,1,1,2,2,2,2,2,2,2,2,2,2,
10,10,10,10,10,2,2,2,2,2,2,2,2,2,2,10,
10,10,10,10,10,10,10,10,10,10,10,10,10,10,10,10,
10,10,10,10,10,10,10,10,10,10,10,10,10,10,10,10,
10,10,10,10,10,10,10,10,10,10,10,10,10,10,10,10,
1,1,10,10,10,10,10,10,10,10,10,10,10,10,10,10,
1,1,1,1,1,1,10,10,10,10,10,10,10,10,10,10,
1,1,1,1,1,1,1,1,1,1,1,10,10,10,10,10,
1,1,1,1,1,1,3,3,3,1,1,1,1,1,10,10,
1,1,1,1,3,3,3,3,3,3,1,1,13,13,13,10,
1,1,1,1,3,3,3,3,3,3,13,13,13,13,13,13,
1,1,1,1,1,3,3,3,3,3,13,13,13,13,13,13
</chunk>
   <chunk x="48" y="16" width="16" height="16">
2,2,2,2,13,13,13,13,13,13,10,10,10,10,10,10,
2,2,2,2,13,13,13,13,13,10,10,10,10,10,10,10,
2,2,2,2,13,13,13,10,10,10,10,10,10,10,10,10,
2,2,2,13,13,10,10,10,10,10,10,10,10,10,10,10,
2,2,13,10,10,10,10,10,10,10,10,10,10,10,10,10,
10,10,10,10,10,10,10,10,10,10,10,10,10,10,10,10,
10,10,10,10,10,10,10,10,10,10,10,10,10,10,10,10,
10,10,10,10,10,10,10,10,10,10,10,10,10,10,10,10,
10,10,10,10,10,10,10,10,10,10,10,10,10,10,10,10,
10,10,10,10,10,10,10,10,10,10,10,10,10,10,10,10,
10,10,10,10,10,10,10,10,10,10,10,10,10,10,10,10,
10,10,10,10,10,10,10,10,10,10,10,10,10,10,10,10,
10,10,10,10,10,10,10,10,10,10,10,10,10,10,10,10,
10,10,10,10,10,10,10,10,10,10,10,10,10,10,10,10,
13,10,10,10,10,10,10,10,10,10,10,10,10,10,10,10,
13,13,13,10,10,10,10,10,10,10,10,10,10,10,10,10
</chunk>
   <chunk x="-80" y="32" width="16" height="16">
13,13,13,13,13,13,13,13,13,3,3,3,3,3,3,3,
13,13,13,13,13,13,13,13,13,13,13,3,3,3,3,3,
13,13,13,13,13,13,13,13,13,13,13,13,3,3,3,3,
13,13,13,13,13,13,13,13,13,13,13,13,13,13,13,13,
13,13,13,13,13,13,13,13,13,13,13,13,13,13,13,13,
13,13,13,13,13,13,13,13,13,13,13,13,13,13,13,13,
13,13,13,13,13,13,13,13,13,13,13,13,13,13,13,13,
13,13,13,13,13,13,13,13,13,13,13,13,13,13,13,13,
13,13,13,13,13,13,13,13,13,13,13,13,13,13,13,13,
13,13,13,13,13,13,13,13,13,13,13,13,13,13,13,13,
13,13,13,13,13,13,13,13,13,13,13,13,13,13,13,13,
13,13,13,13,13,13,13,13,13,13,13,13,13,13,13,13,
13,13,13,13,13,13,13,13,13,13,13,13,13,13,13,13,
13,13,13,13,13,13,13,13,13,13,13,13,13,13,13,13,
13,13,13,13,13,13,13,13,13,13,13,13,13,13,13,13,
13,13,13,13,13,13,13,13,13,13,13,13,13,13,13,13
</chunk>
   <chunk x="-64" y="32" width="16" height="16">
3,3,3,3,3,3,3,3,3,3,3,3,3,3,3,3,
3,3,3,3,3,3,3,3,3,3,3,3,3,3,3,3,
3,3,3,3,3,3,3,3,13,13,13,13,13,13,13,13,
13,13,13,13,13,13,13,13,13,13,13,13,13,13,13,13,
13,13,13,13,13,13,13,13,13,13,13,13,13,13,13,13,
13,13,13,13,13,13,13,13,13,13,13,13,13,13,13,13,
13,13,13,13,13,13,13,13,13,13,13,13,13,13,13,13,
13,13,13,13,13,13,13,13,13,13,13,13,13,13,13,13,
13,13,13,13,13,13,13,13,13,13,13,13,13,13,13,13,
13,13,13,13,13,13,13,13,13,13,13,13,13,13,13,13,
13,13,13,13,13,13,13,13,13,13,13,13,13,13,13,13,
13,13,13,13,13,13,13,13,13,13,13,13,13,13,13,13,
13,13,13,13,13,13,13,13,13,13,13,13,13,13,13,13,
13,13,13,13,13,13,13,13,13,13,13,13,13,13,13,13,
13,13,13,13,13,13,13,13,13,13,13,13,13,13,13,13,
13,13,13,13,13,13,13,13,13,13,13,13,13,13,13,13
</chunk>
   <chunk x="-48" y="32" width="16" height="16">
3,3,3,3,3,3,3,3,3,3,3,3,3,3,3,3,
3,3,13,13,3,3,3,13,13,13,13,13,13,13,13,3,
13,13,13,13,13,13,13,13,13,13,13,13,13,13,13,13,
13,13,13,13,13,13,13,13,13,13,13,13,13,13,13,13,
13,13,13,13,13,13,13,13,13,13,13,13,13,13,13,13,
13,13,13,13,13,13,13,13,13,13,13,13,13,13,13,13,
13,13,13,13,13,13,13,13,13,13,13,13,13,13,13,13,
13,13,13,13,13,13,13,13,13,13,13,13,13,13,13,13,
13,13,13,13,13,13,13,13,13,13,13,13,13,13,13,13,
13,13,13,13,13,13,13,13,13,13,13,13,13,13,13,13,
13,13,13,13,13,13,13,13,13,13,13,13,13,13,13,13,
13,13,13,13,13,13,13,13,13,13,13,13,13,13,13,13,
13,13,13,13,13,13,13,13,13,13,13,13,13,13,13,13,
13,13,13,13,13,13,13,13,13,13,13,13,13,13,13,13,
13,13,13,13,13,13,13,13,13,13,13,13,13,13,13,13,
13,13,13,13,13,13,13,13,13,13,13,13,13,13,13,13
</chunk>
   <chunk x="-32" y="32" width="16" height="16">
3,3,3,3,3,3,3,3,3,3,3,1,3,3,3,3,
3,3,3,3,3,3,3,3,3,3,3,3,3,3,3,3,
13,3,3,3,3,3,3,3,3,3,3,3,3,3,3,3,
13,13,13,13,13,13,13,13,13,13,13,3,3,3,3,3,
13,13,13,13,13,13,13,13,13,13,13,13,13,3,3,3,
13,13,13,13,13,13,13,13,13,13,13,13,13,13,3,3,
13,13,13,13,13,13,13,13,13,13,13,13,13,13,13,3,
13,13,13,13,13,13,13,13,13,13,13,13,13,13,13,13,
13,13,13,13,13,13,13,13,13,13,13,13,13,13,13,13,
13,13,13,13,13,13,13,13,13,13,13,13,13,13,13,13,
13,13,13,13,13,13,13,13,13,13,13,13,13,13,13,13,
13,13,13,13,13,13,13,13,13,13,13,13,13,13,13,13,
13,13,13,13,13,13,13,13,13,13,13,13,13,13,13,13,
13,13,13,13,13,13,13,13,13,13,13,13,13,13,13,13,
13,13,13,13,13,13,13,13,13,13,13,13,13,13,13,13,
13,13,13,13,13,13,13,13,13,13,13,13,13,13,13,13
</chunk>
   <chunk x="-16" y="32" width="16" height="16">
1,1,1,1,1,1,1,1,1,1,1,1,1,1,1,1,
3,1,1,1,1,1,1,1,1,1,1,1,1,1,1,1,
3,3,1,1,1,1,1,1,1,1,1,1,1,1,1,1,
3,3,1,1,1,1,1,1,1,1,1,1,1,1,1,1,
3,3,3,3,3,1,1,1,1,1,1,1,1,1,1,1,
3,3,3,3,3,3,1,1,1,1,1,1,3,3,3,1,
3,3,3,3,3,3,3,1,1,1,1,3,3,3,3,3,
13,3,3,3,3,3,3,3,1,1,3,3,3,3,3,3,
13,13,3,3,3,3,3,3,1,3,3,3,3,3,3,3,
13,13,13,13,13,3,3,3,3,3,3,3,3,3,3,3,
13,13,13,13,13,13,13,3,3,3,3,3,3,3,3,3,
13,13,13,13,13,13,13,13,13,3,3,3,3,3,3,3,
13,13,13,13,13,13,13,13,13,13,13,13,3,3,3,3,
13,13,13,13,13,13,13,13,13,13,13,13,13,3,3,13,
13,13,13,13,13,13,13,13,13,13,13,13,13,13,13,13,
13,13,13,13,13,13,13,13,13,13,13,13,13,13,13,13
</chunk>
   <chunk x="0" y="32" width="16" height="16">
1,1,1,1,1,1,1,3,3,3,3,3,3,3,3,3,
1,1,1,1,1,1,1,1,3,3,3,3,3,3,3,3,
1,1,1,1,3,3,3,3,3,3,3,3,3,3,3,3,
1,1,1,3,3,3,3,3,3,3,3,3,3,3,3,3,
1,1,3,3,3,3,3,3,3,3,3,3,3,3,3,3,
1,1,3,3,3,3,3,3,3,3,3,3,3,3,3,3,
1,1,3,3,3,3,3,3,3,3,3,3,3,3,3,3,
3,3,3,3,3,3,3,3,3,3,3,3,3,3,3,3,
3,3,3,3,3,3,3,3,3,3,3,3,3,3,3,13,
3,3,3,3,3,3,3,3,3,3,3,3,13,13,13,13,
3,3,3,3,3,3,3,3,13,13,13,13,13,13,13,13,
3,13,13,13,13,13,13,13,13,13,13,13,13,13,13,13,
3,13,13,13,13,13,13,13,13,13,13,13,13,13,13,13,
13,13,13,13,13,13,13,13,13,13,13,13,13,13,13,13,
13,13,13,13,13,13,13,13,13,13,13,13,13,13,13,13,
13,13,13,13,13,13,13,13,13,13,13,13,13,13,13,13
</chunk>
   <chunk x="16" y="32" width="16" height="16">
3,3,3,3,3,3,3,3,3,3,3,3,3,1,1,1,
3,3,3,3,3,3,3,3,3,3,3,3,3,1,1,1,
3,3,3,3,3,3,3,3,3,3,3,3,3,1,1,1,
3,3,3,3,3,3,3,3,3,3,3,3,3,1,1,1,
3,3,3,3,3,3,3,3,3,3,3,3,1,1,1,1,
3,3,3,3,3,3,3,3,3,3,3,3,3,3,3,3,
3,3,3,3,3,3,3,3,3,3,3,3,3,3,3,3,
3,3,3,13,13,13,13,13,3,3,3,3,3,3,3,3,
13,13,13,13,13,13,13,13,13,3,3,3,3,3,3,3,
13,13,13,13,13,13,13,13,13,13,13,13,13,13,13,13,
13,13,13,13,13,13,13,13,13,13,13,13,13,13,13,13,
13,13,13,13,13,13,13,13,13,13,13,13,13,13,13,13,
13,13,13,13,13,13,13,13,13,13,13,13,13,13,13,13,
13,13,13,13,13,13,13,13,13,13,13,13,13,13,13,13,
13,13,13,13,13,13,13,13,13,13,13,13,13,13,13,13,
13,13,13,13,13,13,13,13,13,13,13,13,13,13,13,13
</chunk>
   <chunk x="32" y="32" width="16" height="16">
1,1,1,1,1,3,3,13,13,13,13,13,13,13,13,13,
1,1,1,1,1,1,13,13,13,13,13,13,13,13,13,13,
1,1,1,1,1,13,13,13,13,13,13,13,13,13,13,13,
1,1,1,1,1,13,13,13,13,13,13,13,13,13,13,13,
1,1,1,1,13,13,13,13,13,13,13,13,13,13,13,13,
3,3,3,1,13,13,13,13,13,13,13,13,13,13,13,13,
3,3,3,13,13,13,13,13,13,13,13,13,13,13,13,13,
3,3,3,13,13,13,13,13,13,13,13,13,13,13,13,13,
3,13,13,13,13,13,13,13,13,13,13,13,13,13,13,13,
13,13,13,13,13,13,13,13,13,13,13,13,13,13,13,13,
13,13,13,13,13,13,13,13,13,13,13,13,13,13,13,13,
13,13,13,13,13,13,13,13,13,13,13,13,13,13,13,13,
13,13,13,13,13,13,13,13,13,13,13,13,13,13,13,13,
13,13,13,13,13,13,13,13,13,13,13,13,13,13,13,13,
13,13,13,13,13,13,13,13,13,13,13,13,13,13,13,13,
13,13,13,13,13,13,13,13,13,13,13,13,13,13,13,13
</chunk>
   <chunk x="48" y="32" width="16" height="16">
13,13,13,13,13,10,10,10,10,10,10,10,10,10,10,10,
13,13,13,13,13,13,13,13,10,10,10,10,10,10,10,10,
13,13,13,13,13,13,13,13,13,13,10,10,10,10,10,10,
13,13,13,13,13,13,13,13,13,13,13,13,13,10,10,10,
13,13,13,13,13,13,13,13,13,13,13,13,13,13,10,10,
13,13,13,13,13,13,13,13,13,13,13,13,13,13,13,13,
13,13,13,13,13,13,13,13,13,13,13,13,13,13,13,13,
13,13,13,13,13,13,13,13,13,13,13,13,13,13,13,13,
13,13,13,13,13,13,13,13,13,13,13,13,13,13,13,13,
13,13,13,13,13,13,13,13,13,13,13,13,13,13,13,13,
13,13,13,13,13,13,13,13,13,13,13,13,13,13,13,13,
13,13,13,13,13,13,13,13,13,13,13,13,13,13,13,13,
13,13,13,13,13,13,13,13,13,13,13,13,13,13,13,13,
13,13,13,13,13,13,13,13,13,13,13,13,13,13,13,13,
13,13,13,13,13,13,13,13,13,13,13,13,13,13,13,13,
13,13,13,13,13,13,13,13,13,13,13,13,13,13,13,13
</chunk>
  </data>
 </layer>
 <layer id="4" name="Ground" width="120" height="100">
  <data encoding="csv">
   <chunk x="-80" y="-64" width="16" height="16">
187,187,187,187,187,187,187,187,187,187,187,187,187,187,187,187,
187,187,187,187,187,187,187,187,187,187,187,187,187,187,187,187,
187,187,187,187,187,187,187,187,187,187,187,187,187,187,187,187,
187,187,187,187,187,187,187,187,187,187,187,187,187,187,187,187,
187,187,187,187,187,187,187,187,187,187,187,187,187,187,187,187,
187,187,187,187,187,187,187,187,187,187,187,187,187,187,187,187,
187,187,187,187,187,187,187,187,187,187,187,187,187,187,187,187,
187,187,187,187,187,187,187,187,187,187,187,187,187,187,187,187,
187,187,187,187,187,187,187,187,187,187,187,187,187,187,187,187,
187,187,187,187,187,187,187,187,187,187,187,187,187,187,187,187,
187,187,187,187,187,187,187,187,187,187,187,187,187,187,187,187,
187,187,187,187,187,187,187,187,187,187,187,187,187,187,187,187,
187,146,187,187,187,187,187,187,187,187,187,187,187,187,187,187,
187,187,187,187,187,187,187,187,187,187,187,187,187,187,187,187,
187,187,187,187,187,187,187,187,187,187,187,187,187,187,187,187,
187,187,187,187,187,187,187,187,187,187,187,187,187,187,187,187
</chunk>
   <chunk x="-64" y="-64" width="16" height="16">
187,187,187,187,187,187,187,187,187,187,187,187,187,187,187,187,
187,187,187,187,187,187,187,187,187,187,187,187,187,187,187,187,
187,187,187,187,187,187,187,187,187,187,187,187,187,187,187,187,
187,187,187,187,187,187,187,187,187,187,187,187,187,187,187,187,
187,187,187,187,187,187,187,187,187,187,187,187,187,306,187,187,
187,187,187,187,187,187,187,187,187,187,187,187,187,187,187,187,
187,187,187,187,187,187,187,187,187,187,187,187,187,187,187,187,
187,187,187,187,187,187,187,187,187,187,187,187,187,187,187,187,
187,187,187,187,187,187,187,187,187,187,187,187,187,187,187,187,
187,187,187,187,187,187,187,187,187,187,187,187,187,187,187,187,
187,187,187,187,187,187,187,187,187,187,187,187,187,187,187,187,
187,187,187,187,187,187,187,187,187,187,187,187,187,187,187,187,
187,187,187,187,187,187,187,187,187,187,187,187,307,187,187,187,
187,187,146,187,187,187,187,187,187,187,187,187,328,187,187,187,
187,187,187,187,187,187,187,187,187,187,187,187,187,187,187,187,
187,187,187,187,187,187,187,187,187,187,187,187,187,187,187,187
</chunk>
   <chunk x="-48" y="-64" width="16" height="16">
187,187,187,187,187,187,187,187,187,187,187,187,187,187,187,187,
187,187,187,187,187,187,187,187,187,187,187,187,187,187,187,187,
187,187,187,187,187,187,187,187,187,187,187,187,187,187,187,187,
187,187,187,187,187,187,187,187,187,187,187,187,187,187,187,187,
187,187,187,187,187,187,187,187,187,187,187,187,187,187,187,187,
187,187,187,187,187,187,187,187,187,187,187,187,187,187,187,187,
187,187,187,187,187,187,187,187,187,187,187,187,187,306,187,187,
187,187,187,187,187,187,187,187,187,187,187,187,187,187,187,187,
187,187,187,187,187,187,187,187,187,187,187,187,187,187,187,187,
187,187,187,187,187,187,187,187,187,187,187,187,187,187,187,187,
187,187,187,187,187,187,187,187,187,187,187,187,187,187,187,187,
187,187,187,187,187,187,187,187,306,187,187,187,187,187,187,187,
187,187,187,187,187,187,187,187,187,187,187,187,187,187,187,187,
187,187,187,187,187,187,187,187,187,187,187,187,306,187,187,187,
187,187,187,187,328,187,187,187,187,187,187,187,187,187,187,187,
187,187,187,187,187,187,187,187,187,187,187,187,187,187,187,306
</chunk>
   <chunk x="-32" y="-64" width="16" height="16">
187,187,187,188,222,222,222,222,222,222,222,222,222,222,222,222,
187,187,187,188,213,213,213,213,213,213,213,213,213,213,213,213,
187,187,187,188,213,213,213,213,213,213,213,213,213,213,213,213,
187,187,187,188,213,213,213,213,213,213,213,213,213,213,213,213,
187,187,187,188,213,213,213,213,213,213,213,213,213,213,213,213,
187,187,187,188,213,213,213,213,213,213,213,213,213,213,213,213,
187,187,187,188,213,213,213,213,213,213,213,213,213,213,213,213,
187,187,187,188,213,213,213,213,213,213,213,213,213,213,213,213,
187,187,187,188,213,213,213,213,213,213,213,213,213,213,213,213,
187,187,187,188,213,213,213,213,213,213,213,213,213,213,213,213,
187,187,187,188,213,213,213,213,213,213,213,213,213,213,213,213,
187,187,187,188,213,213,213,213,213,213,213,213,213,213,213,213,
187,187,187,188,213,213,213,213,213,213,213,213,213,213,213,213,
187,187,187,188,213,213,213,213,213,213,213,213,213,213,213,213,
187,187,187,188,213,213,213,213,213,213,213,213,213,213,213,213,
187,187,187,188,213,213,213,213,213,213,213,213,213,213,213,241
</chunk>
   <chunk x="-16" y="-64" width="16" height="16">
222,222,261,262,262,262,262,262,262,262,262,262,262,262,262,262,
213,213,261,262,262,262,262,262,262,262,262,262,262,262,262,262,
213,213,261,262,262,262,262,262,262,262,262,262,262,262,262,262,
213,213,261,262,262,262,262,262,262,262,262,262,262,262,262,262,
213,213,261,262,262,262,262,262,262,262,262,262,262,262,262,262,
213,213,261,262,262,262,262,262,262,262,262,262,262,262,262,262,
213,213,261,262,262,262,262,262,262,262,262,262,262,262,262,262,
213,213,261,262,262,262,262,262,262,262,262,262,262,262,262,262,
213,213,261,262,262,262,262,262,262,262,262,262,262,262,262,262,
213,213,261,262,262,262,262,262,262,262,262,262,262,262,262,262,
213,213,261,262,262,262,262,262,262,262,262,262,262,262,262,262,
213,213,261,262,262,262,262,262,262,262,262,262,262,262,262,262,
213,213,261,262,262,262,262,262,262,262,262,262,262,262,262,262,
213,241,224,262,262,262,262,262,262,262,262,262,262,262,262,262,
241,224,262,262,262,262,262,262,262,262,262,262,262,262,262,262,
224,262,262,262,262,262,262,262,262,262,262,262,262,262,262,262
</chunk>
   <chunk x="0" y="-64" width="16" height="16">
262,262,262,262,262,262,262,262,262,262,262,262,262,262,262,262,
262,262,262,262,262,262,262,262,262,262,262,262,262,262,262,262,
262,262,262,262,262,262,262,262,262,262,262,262,262,262,262,262,
262,262,262,262,262,262,262,262,262,262,262,262,262,262,262,262,
262,262,262,262,262,262,262,262,262,262,262,262,262,262,262,262,
262,262,262,262,262,262,262,262,262,262,262,262,262,262,262,262,
262,262,262,262,262,262,262,262,262,262,262,262,262,262,262,262,
262,262,262,262,262,262,262,262,262,262,262,262,262,262,262,262,
262,262,262,262,262,262,262,262,262,262,262,262,262,262,262,262,
262,262,262,262,262,262,262,262,262,262,262,262,262,262,262,262,
262,262,262,262,262,262,262,262,262,262,262,262,262,262,262,262,
262,262,262,262,262,262,262,262,262,262,262,262,262,262,262,262,
262,262,262,262,262,262,262,262,262,262,262,262,262,262,262,262,
262,262,262,262,262,262,262,262,262,262,262,262,262,262,262,262,
262,262,262,262,262,262,262,262,262,262,262,262,262,262,262,262,
262,262,262,262,262,262,262,262,262,262,262,262,262,262,262,262
</chunk>
   <chunk x="16" y="-64" width="16" height="16">
262,262,262,262,262,262,262,262,262,262,262,262,262,262,262,262,
262,262,262,262,262,262,262,262,262,262,262,262,262,262,262,262,
262,262,262,262,262,262,262,262,262,262,262,262,262,262,262,262,
262,262,262,262,262,262,262,262,262,262,262,262,262,262,262,262,
262,262,262,262,262,262,262,262,262,262,262,262,262,262,262,262,
262,262,262,262,262,262,262,262,262,262,262,262,262,262,262,262,
262,262,262,262,262,262,262,262,262,262,262,262,262,262,262,262,
262,262,262,262,262,262,262,262,262,262,262,262,262,262,262,262,
262,262,262,262,262,262,262,262,262,262,262,262,262,262,262,262,
262,262,262,262,262,262,262,262,262,262,262,262,262,262,262,262,
262,262,262,262,262,262,262,262,262,262,262,262,262,262,262,262,
262,262,262,262,262,262,262,262,262,262,262,262,262,262,262,262,
262,262,262,262,262,262,262,262,262,262,262,262,262,262,262,262,
262,262,262,262,262,262,262,262,262,262,262,262,262,262,262,262,
262,262,262,262,262,262,262,262,262,262,262,262,262,262,262,262,
262,262,262,262,262,262,262,262,262,262,262,262,262,262,262,262
</chunk>
   <chunk x="32" y="-64" width="16" height="16">
262,262,262,262,262,262,262,262,262,262,262,262,262,262,262,262,
262,262,262,262,262,262,262,262,262,262,262,262,262,262,262,262,
262,262,262,262,262,262,262,262,262,262,262,262,262,262,262,262,
262,262,262,262,262,262,262,262,262,262,262,262,262,262,262,262,
262,262,262,262,262,262,262,262,262,262,262,262,262,262,262,262,
262,262,262,262,262,262,262,262,262,262,262,262,262,262,262,262,
262,262,262,262,262,262,262,262,262,262,262,262,262,262,262,262,
262,262,262,262,262,262,262,262,262,262,262,262,262,262,262,262,
262,262,262,262,262,262,262,262,262,262,262,262,262,262,262,262,
262,262,262,262,262,262,262,262,262,262,262,262,262,262,262,262,
262,262,262,262,262,262,262,262,262,262,262,262,262,262,262,262,
262,262,262,262,262,262,262,262,262,262,262,262,262,262,262,262,
262,262,262,262,262,262,262,262,262,262,262,262,262,262,262,262,
262,262,262,262,262,262,262,262,262,262,262,262,262,262,262,262,
262,262,262,262,262,262,262,262,262,262,262,262,262,262,262,262,
262,262,262,262,262,262,262,262,262,262,262,262,262,262,262,262
</chunk>
   <chunk x="48" y="-64" width="16" height="16">
262,262,262,262,262,262,262,262,262,262,262,262,262,262,262,262,
262,262,262,262,262,262,262,262,262,262,262,262,262,262,262,262,
262,262,262,262,262,262,262,262,262,262,262,262,262,262,262,262,
262,262,262,262,262,262,262,262,262,262,262,262,262,262,262,262,
262,262,262,262,262,262,262,262,262,262,262,262,262,262,262,262,
262,262,262,262,262,262,262,262,262,262,262,262,262,262,262,262,
262,262,262,262,262,262,262,262,262,262,262,262,262,262,262,262,
262,262,262,262,262,262,262,262,262,262,262,262,262,262,262,262,
262,262,262,262,262,262,262,262,262,262,262,262,262,262,262,262,
262,262,262,262,262,262,262,262,262,262,262,262,262,262,262,262,
262,262,262,262,262,262,262,262,262,262,262,262,262,262,262,262,
262,262,262,262,262,262,262,262,262,262,262,262,262,262,262,262,
262,262,262,262,262,262,262,262,262,262,262,262,262,262,262,262,
262,262,262,262,262,262,262,262,262,262,262,262,262,262,262,262,
262,262,262,262,262,262,262,262,262,262,262,262,262,262,262,262,
262,262,262,262,262,262,262,262,262,262,262,262,262,262,262,262
</chunk>
   <chunk x="-80" y="-48" width="16" height="16">
187,187,187,187,187,187,187,187,187,187,187,187,187,187,187,187,
187,187,187,187,187,187,187,187,187,187,187,187,187,187,187,187,
187,187,187,187,187,187,187,187,187,187,187,187,187,187,187,187,
187,187,187,187,146,187,187,187,187,187,187,187,187,187,187,187,
187,187,187,187,187,187,187,187,187,187,187,187,187,187,187,187,
187,187,187,187,187,187,187,187,187,187,187,187,187,187,187,187,
187,187,187,187,187,187,187,187,187,187,187,187,187,187,187,187,
187,187,187,187,187,187,187,187,187,187,187,187,187,187,326,187,
187,187,187,187,187,187,187,187,187,187,187,187,187,187,187,187,
187,187,187,187,187,187,187,187,187,187,187,187,187,187,187,187,
247,247,247,247,247,247,247,247,247,247,247,247,247,247,247,248,
0,0,0,0,0,0,0,0,0,0,0,0,0,0,0,230,
0,0,0,0,0,0,0,0,0,0,0,0,0,0,0,0,
0,0,0,0,0,0,0,0,0,0,0,0,0,0,0,0,
0,0,0,0,0,0,0,0,0,0,0,0,0,0,0,0,
0,0,0,0,0,0,0,0,0,0,0,0,0,0,0,0
</chunk>
   <chunk x="-64" y="-48" width="16" height="16">
187,187,187,187,187,187,187,187,187,187,187,187,187,187,187,187,
187,187,187,187,187,187,187,187,187,187,187,187,187,187,187,187,
187,187,307,187,187,187,187,187,187,187,187,187,187,187,187,187,
187,187,187,187,187,187,187,187,187,187,187,187,187,187,187,187,
187,187,187,187,187,307,187,187,187,187,187,187,187,187,187,187,
187,187,187,187,187,187,187,187,187,187,187,187,187,187,187,187,
187,187,187,187,187,187,187,187,187,187,187,187,187,187,187,187,
187,187,187,187,187,187,187,187,187,187,187,187,187,187,187,187,
187,187,187,187,187,187,187,187,187,187,187,187,187,187,187,187,
187,187,146,187,187,187,187,187,307,328,187,187,187,187,187,187,
187,187,187,187,187,187,187,187,187,187,187,187,187,187,187,187,
247,248,187,187,187,187,187,187,246,247,247,247,247,247,248,187,
0,230,247,248,187,246,247,247,229,0,0,0,0,0,230,248,
0,0,0,230,247,229,0,0,0,0,0,0,0,0,0,230,
0,0,0,0,0,0,0,0,0,0,0,0,0,0,0,0,
0,0,0,0,0,0,0,0,0,0,0,0,0,0,0,0
</chunk>
   <chunk x="-48" y="-48" width="16" height="16">
187,187,187,187,187,328,328,187,187,187,187,187,187,187,187,187,
187,187,187,187,187,187,328,307,187,187,187,187,187,187,187,187,
187,187,187,187,187,187,187,187,187,187,187,187,187,187,187,187,
187,187,187,187,187,187,187,187,187,187,187,187,187,187,187,187,
187,187,187,187,187,187,187,187,187,187,187,187,187,187,187,187,
187,187,187,187,187,187,187,187,187,187,187,187,187,187,187,187,
187,187,187,187,187,187,187,187,187,187,187,306,187,187,187,187,
187,187,187,187,187,187,187,187,187,187,187,187,187,187,187,187,
187,187,187,187,187,187,187,187,187,187,187,187,187,187,187,187,
187,187,187,187,187,187,187,187,187,187,187,187,187,187,187,187,
187,187,187,187,187,187,187,187,187,187,187,187,187,187,187,187,
187,187,187,187,187,187,187,187,187,187,187,187,187,187,187,187,
187,328,187,187,187,187,187,187,187,187,187,187,187,187,187,187,
248,187,187,187,187,187,328,187,187,187,187,187,187,187,187,187,
230,248,187,187,306,187,187,187,187,187,187,187,187,187,187,187,
0,268,187,187,187,187,187,187,187,187,187,187,187,187,187,187
</chunk>
   <chunk x="-32" y="-48" width="16" height="16">
187,187,187,188,213,213,213,213,213,213,213,213,213,213,241,224,
187,187,187,188,213,213,213,213,213,213,213,213,213,213,261,262,
187,187,187,188,213,213,213,213,213,213,213,213,213,213,261,262,
187,187,187,188,213,213,213,213,213,213,213,213,213,213,261,262,
187,187,187,188,213,213,213,213,213,213,213,213,213,213,261,262,
187,187,187,188,133,133,133,133,213,213,213,213,213,213,261,262,
187,187,187,188,213,132,132,133,133,133,213,213,213,213,261,262,
187,187,187,188,213,213,132,132,132,133,213,213,213,213,261,262,
187,187,187,188,213,133,133,133,132,213,213,213,213,213,261,262,
187,187,187,188,132,132,132,132,132,133,142,142,213,213,281,244,
187,187,187,188,213,152,213,213,213,142,142,132,133,213,213,281,
187,187,187,188,213,213,213,142,142,142,213,213,213,213,213,213,
187,187,187,188,213,213,213,142,213,213,213,213,213,213,213,213,
187,187,187,188,213,213,213,213,213,133,133,152,213,213,213,332,
187,187,187,188,152,213,213,213,213,213,213,213,213,213,213,332,
187,187,187,188,213,133,213,213,133,133,213,213,213,213,332,332
</chunk>
   <chunk x="-16" y="-48" width="16" height="16">
262,262,262,262,262,262,262,262,262,262,262,262,262,262,262,262,
262,262,262,262,262,262,262,262,262,262,262,262,262,262,262,262,
262,262,262,262,262,262,262,262,262,262,262,262,262,262,262,262,
262,262,262,262,262,262,262,262,262,262,262,262,262,262,262,262,
262,262,262,262,262,262,262,262,262,262,262,262,262,262,262,262,
262,262,262,262,262,262,262,262,262,262,262,262,262,262,262,262,
262,262,262,262,262,262,262,262,262,262,262,262,262,262,262,262,
262,262,262,262,262,262,262,262,262,262,262,262,262,262,262,262,
262,262,262,262,262,262,262,262,262,262,262,262,262,262,262,262,
262,262,332,332,332,332,332,332,332,332,332,332,332,332,332,332,
244,262,332,332,332,332,332,332,332,332,332,332,332,332,332,332,
281,332,332,332,332,332,332,332,332,332,332,332,332,332,332,332,
332,332,332,332,332,332,332,332,332,332,332,332,332,332,332,332,
332,332,332,332,332,332,332,332,332,332,332,332,332,332,332,332,
332,332,332,332,332,332,332,332,332,332,332,332,332,332,332,332,
332,332,332,332,332,332,332,332,332,332,332,332,332,332,332,332
</chunk>
   <chunk x="0" y="-48" width="16" height="16">
262,262,262,262,262,262,262,262,262,262,262,262,262,262,262,262,
262,262,262,262,262,262,262,262,262,262,262,262,262,262,262,262,
262,262,262,262,262,262,262,262,262,262,262,262,262,262,262,262,
262,262,262,262,262,262,262,262,262,262,262,262,262,262,262,262,
262,262,262,262,262,262,262,262,262,262,262,262,262,262,262,262,
262,262,262,262,262,262,262,262,262,262,262,262,262,262,262,262,
262,262,262,262,262,262,262,262,262,262,262,262,262,262,262,262,
262,262,262,262,262,262,262,332,332,262,262,262,262,262,262,332,
262,262,262,262,332,332,332,332,332,332,332,332,332,332,332,332,
332,332,332,332,332,332,332,332,332,332,332,332,332,332,332,332,
332,332,332,332,332,332,332,332,332,332,332,332,332,332,332,332,
332,332,332,332,332,332,332,332,332,332,332,332,332,332,332,332,
332,332,332,332,332,332,332,332,332,332,332,332,332,332,332,332,
332,332,332,332,332,332,332,332,332,332,332,332,332,332,332,332,
332,332,332,332,332,332,332,332,332,332,332,332,332,332,332,332,
332,332,332,332,332,332,332,332,332,332,332,332,332,332,332,332
</chunk>
   <chunk x="16" y="-48" width="16" height="16">
262,262,262,262,262,262,262,262,262,262,262,262,262,262,262,262,
262,262,262,262,262,262,262,262,262,262,262,262,262,262,262,262,
262,262,262,262,262,262,262,262,262,262,262,262,262,262,262,262,
262,262,262,262,262,262,262,262,262,262,262,262,262,262,262,262,
262,262,262,262,262,262,262,262,262,262,262,262,262,262,262,262,
262,262,262,262,262,262,262,262,262,262,262,262,262,262,262,262,
262,262,262,262,262,332,332,332,332,332,332,262,262,262,262,262,
332,332,332,332,332,332,332,332,332,332,332,262,262,262,262,262,
332,332,332,332,332,332,332,332,332,332,332,262,262,262,262,262,
332,332,332,332,332,332,332,332,332,332,332,213,262,262,262,262,
332,332,332,332,332,332,332,332,332,332,213,213,262,262,262,262,
332,332,332,332,332,332,332,332,332,213,213,213,244,262,262,262,
332,332,332,332,332,332,332,332,213,213,213,213,261,262,262,262,
332,332,332,332,332,332,332,213,213,213,213,213,261,262,262,262,
332,332,332,332,332,213,213,213,213,213,213,213,261,262,262,262,
332,332,332,332,332,213,213,213,213,213,213,241,224,262,262,262
</chunk>
   <chunk x="32" y="-48" width="16" height="16">
262,262,262,262,262,262,262,262,262,262,262,262,262,262,262,262,
262,262,262,262,262,262,262,262,262,262,262,262,262,262,262,262,
262,262,262,262,262,262,262,262,262,262,262,262,262,262,262,262,
262,262,262,262,262,262,262,262,262,262,262,262,262,262,262,262,
262,262,262,262,262,262,262,262,262,262,262,262,262,262,262,262,
262,262,262,262,262,262,262,262,262,262,262,262,262,262,262,262,
262,262,262,262,262,262,262,262,262,262,262,262,262,262,262,262,
262,262,262,262,262,262,262,262,262,262,262,262,262,262,262,262,
262,262,262,262,262,262,262,262,262,262,262,262,262,262,262,262,
262,262,262,262,262,262,262,262,262,262,262,262,262,262,262,262,
262,262,262,262,262,262,262,262,262,262,262,262,262,262,262,262,
262,262,262,262,262,262,262,262,262,262,262,262,262,262,262,262,
262,262,262,262,262,262,262,262,262,262,262,262,262,262,262,262,
262,262,262,262,262,262,262,262,262,262,262,262,262,262,262,262,
262,262,262,262,262,262,262,262,262,262,262,262,262,262,262,262,
262,262,262,262,262,262,262,262,262,262,262,262,262,262,262,262
</chunk>
   <chunk x="48" y="-48" width="16" height="16">
262,262,262,262,262,262,262,262,262,262,262,262,262,262,262,262,
262,262,262,262,262,262,262,262,262,262,262,262,262,262,262,262,
262,262,262,262,262,262,262,262,262,262,262,262,262,262,262,262,
262,262,262,262,262,262,262,262,262,262,262,262,262,262,262,262,
262,262,262,262,262,262,262,262,262,262,262,262,262,262,262,262,
262,262,262,262,262,262,262,262,262,262,262,262,262,262,262,262,
262,262,262,262,262,262,262,262,262,262,262,262,262,262,262,262,
262,262,262,262,262,262,262,262,262,262,262,262,262,262,262,262,
262,262,262,262,262,262,262,262,262,262,262,262,262,262,262,262,
262,262,262,262,262,262,262,262,262,262,262,262,262,262,262,262,
262,262,262,262,262,262,262,262,262,262,262,262,262,262,262,262,
262,262,262,262,262,262,262,262,262,262,262,262,262,262,262,262,
262,262,262,262,262,262,262,262,262,262,262,262,262,262,262,262,
262,262,262,262,262,262,262,262,262,262,262,262,262,262,262,262,
262,262,262,262,262,262,262,262,262,262,262,262,262,262,262,262,
262,262,262,262,262,262,262,262,262,262,262,262,262,262,262,262
</chunk>
   <chunk x="-64" y="-32" width="16" height="16">
0,0,0,0,0,0,0,0,0,0,0,0,0,0,0,0,
0,0,0,0,0,0,0,0,0,0,0,0,0,250,287,287,
0,0,0,0,0,0,0,0,0,0,250,287,287,288,187,187,
0,0,0,0,0,0,0,0,0,250,288,326,187,187,187,187,
0,0,0,0,0,0,0,0,0,268,187,187,187,146,187,187,
0,0,0,0,0,0,0,0,0,230,248,187,187,187,187,187,
0,0,0,0,0,0,0,0,0,0,230,247,248,187,187,187,
0,0,0,0,0,0,0,0,0,0,0,0,230,248,187,187,
0,0,0,0,0,0,0,0,0,0,0,0,0,230,247,247,
0,0,0,0,0,0,0,0,0,0,0,0,0,0,0,0,
0,0,0,0,0,0,0,0,0,0,0,0,0,0,0,0,
0,0,0,0,0,0,0,0,0,0,0,0,0,0,0,0,
0,0,0,0,0,0,0,0,0,0,0,0,0,325,362,362,
0,0,0,0,0,0,0,0,0,0,0,0,325,363,262,262,
0,0,0,0,0,0,0,0,0,0,0,325,344,262,262,262,
0,0,0,0,0,0,0,0,0,0,325,363,262,262,262,262
</chunk>
   <chunk x="-48" y="-32" width="16" height="16">
250,288,187,187,187,187,187,187,187,187,328,187,187,187,187,187,
288,187,187,187,187,187,187,187,187,187,187,187,187,187,187,187,
187,187,187,187,187,187,187,187,187,187,187,187,187,187,187,187,
187,187,187,187,187,187,187,187,187,187,187,187,187,187,187,187,
187,187,187,187,187,187,187,187,187,187,187,187,187,187,187,187,
187,187,187,187,187,187,187,187,187,187,187,187,187,187,187,187,
187,187,328,187,187,187,187,187,187,187,187,187,187,187,187,187,
187,187,187,326,187,187,187,187,327,187,187,187,187,187,187,187,
247,247,247,247,247,247,248,187,147,187,187,187,187,146,187,187,
0,0,0,0,0,0,230,248,187,187,187,187,187,187,187,187,
0,0,0,0,0,0,0,230,248,187,187,326,187,187,326,187,
0,0,0,0,0,0,0,0,230,247,247,247,247,247,247,247,
362,362,362,362,362,324,0,0,0,0,0,0,0,0,0,0,
262,262,262,262,262,361,362,324,0,0,0,0,0,0,0,0,
262,262,262,262,262,262,262,361,324,0,0,0,0,0,0,0,
262,262,262,262,262,262,262,262,361,362,362,362,362,362,332,332
</chunk>
   <chunk x="-32" y="-32" width="16" height="16">
187,187,187,188,213,213,213,213,133,213,213,213,213,213,332,332,
187,187,187,188,213,213,152,133,152,213,142,142,213,213,332,332,
187,187,187,188,213,213,213,213,213,142,142,213,213,213,332,332,
187,187,187,188,213,153,213,213,213,213,166,167,167,167,332,332,
187,187,187,188,213,213,153,213,152,166,149,246,247,247,332,332,
187,187,187,150,168,213,213,213,166,149,246,229,0,332,332,332,
187,187,187,187,150,168,166,167,149,246,229,0,0,332,332,332,
187,146,187,187,187,150,149,246,247,229,0,0,332,332,332,332,
187,187,187,187,187,246,247,229,0,0,0,332,332,332,332,332,
187,187,187,187,246,229,0,0,0,332,332,332,332,332,332,332,
147,246,247,247,229,0,0,0,332,332,332,332,332,332,332,332,
247,229,0,0,0,0,0,332,332,332,332,332,332,332,332,332,
0,0,0,0,0,0,332,332,332,332,332,332,332,332,332,332,
0,0,0,0,332,332,332,332,332,332,332,332,332,332,332,332,
0,332,332,332,332,332,332,332,332,332,332,332,332,332,332,332,
332,332,332,332,332,332,332,332,332,332,332,332,332,332,332,315
</chunk>
   <chunk x="-16" y="-32" width="16" height="16">
332,332,332,332,332,332,332,332,332,332,332,332,332,332,332,332,
332,332,332,332,332,332,332,332,332,332,332,332,332,332,332,332,
332,332,332,332,332,332,332,332,332,332,332,332,332,332,332,332,
332,332,332,332,332,332,332,332,332,332,332,332,332,332,332,332,
332,332,332,332,332,332,332,332,332,332,332,332,332,332,332,332,
332,332,332,332,297,296,297,298,332,332,332,332,332,332,332,332,
332,332,332,296,298,316,317,317,317,317,317,317,317,317,408,213,
332,332,332,298,316,299,0,0,0,0,0,0,0,0,390,407,
332,332,296,316,299,0,0,0,0,0,0,0,0,0,0,309,
332,332,297,336,0,0,0,0,0,0,0,0,0,0,349,445,
332,332,333,446,447,409,0,0,0,0,0,0,349,329,445,182,
332,332,333,213,213,446,447,447,329,350,349,329,445,182,182,182,
332,332,333,213,213,161,162,144,182,310,309,182,182,182,182,182,
332,332,333,213,161,144,182,182,182,310,309,182,182,182,182,182,
315,352,353,161,144,182,182,182,182,310,309,182,182,182,182,182,
353,213,161,144,182,182,182,182,182,310,309,182,182,182,182,182
</chunk>
   <chunk x="0" y="-32" width="16" height="16">
332,332,332,332,332,332,332,332,332,332,332,332,332,332,332,332,
332,332,332,332,332,332,332,332,332,332,332,332,332,332,332,332,
332,332,332,332,332,332,332,332,332,332,332,332,332,332,332,332,
332,332,332,332,332,332,332,332,213,213,332,332,332,332,332,213,
332,332,332,332,213,213,213,213,213,213,213,213,213,213,213,213,
332,332,213,213,213,213,213,213,213,213,213,213,213,213,213,213,
213,213,213,213,213,213,213,213,213,213,213,213,213,213,213,213,
162,162,162,162,162,162,204,213,213,213,213,213,213,213,213,213,
182,182,182,182,182,182,145,162,162,162,204,213,213,213,213,213,
182,182,182,182,182,182,182,182,182,182,145,162,204,213,213,213,
182,182,182,182,182,182,182,182,182,182,182,182,145,204,213,213,
182,182,182,182,182,182,182,182,182,182,182,182,182,145,204,213,
182,182,182,182,182,182,182,182,182,182,182,182,182,182,183,213,
182,182,182,182,182,182,182,182,182,182,182,182,182,182,145,204,
182,182,182,182,182,182,182,182,182,182,182,182,182,182,182,183,
182,182,182,182,182,182,182,182,182,182,182,182,182,182,182,145
</chunk>
   <chunk x="16" y="-32" width="16" height="16">
332,332,332,213,213,213,213,213,213,213,241,224,262,262,262,262,
332,332,332,213,213,213,213,213,213,213,261,262,262,262,262,262,
332,213,213,213,213,213,213,213,213,213,261,262,262,262,262,262,
213,213,213,213,213,213,213,213,213,213,261,262,262,262,262,262,
213,213,213,213,213,213,213,213,213,213,281,244,262,262,262,262,
213,213,213,213,213,213,213,213,213,213,213,261,262,262,262,262,
213,213,213,213,213,213,213,213,213,213,213,261,262,262,262,262,
213,213,213,213,213,213,213,213,213,213,213,261,262,262,262,262,
213,213,213,213,213,213,213,213,213,213,213,261,262,262,262,262,
213,213,213,213,213,213,213,213,213,213,213,261,262,262,262,262,
213,213,213,213,213,213,213,213,213,213,213,281,282,244,262,262,
213,213,213,213,213,213,213,213,213,213,213,213,213,281,244,262,
213,213,213,213,213,213,213,213,213,213,213,213,213,213,281,244,
213,213,213,213,213,213,213,213,213,213,213,213,213,213,213,261,
213,213,213,213,213,213,213,213,213,213,213,213,213,213,213,281,
204,213,213,213,213,213,213,213,213,213,213,213,213,213,213,213
</chunk>
   <chunk x="32" y="-32" width="16" height="16">
262,262,262,262,262,262,262,262,262,262,262,262,262,262,262,262,
262,262,262,262,262,262,262,262,262,262,262,262,262,262,262,262,
262,262,262,262,262,262,262,262,262,262,262,262,262,262,262,262,
262,262,262,262,262,262,262,262,262,262,262,262,262,262,262,262,
262,262,262,262,262,262,262,262,262,262,262,262,262,262,262,262,
262,262,262,262,262,262,262,262,262,262,262,262,262,262,262,262,
262,262,262,262,262,262,262,262,262,262,262,262,262,262,262,262,
262,262,262,262,262,262,262,262,262,262,262,262,262,262,262,262,
262,262,262,262,262,262,262,262,262,262,262,262,262,262,262,262,
262,262,262,262,262,262,262,262,262,262,262,262,262,262,262,262,
262,262,262,262,262,262,262,262,262,262,262,262,262,262,262,262,
262,262,262,262,262,262,262,262,262,262,262,262,262,262,262,262,
262,262,262,262,262,262,262,262,262,262,262,262,262,262,262,262,
262,262,262,262,262,262,262,262,262,262,262,262,262,262,262,262,
244,262,262,262,262,262,262,262,262,262,262,262,262,262,262,262,
281,282,244,262,262,262,262,262,262,262,262,262,262,262,262,262
</chunk>
   <chunk x="48" y="-32" width="16" height="16">
262,262,262,262,262,262,262,262,262,262,262,262,262,262,262,262,
262,262,262,262,262,262,262,262,262,262,262,262,262,262,262,262,
262,262,262,262,262,262,262,262,262,262,262,262,262,262,262,262,
262,262,262,262,262,262,262,262,262,262,262,262,262,262,262,262,
262,262,262,262,262,262,262,262,262,262,262,262,262,262,262,262,
262,262,262,262,262,262,262,262,262,262,262,262,262,262,262,262,
262,262,262,262,262,262,262,262,262,262,262,262,262,262,262,262,
262,262,262,262,262,262,262,262,262,262,262,262,262,262,262,262,
262,262,262,262,262,262,262,262,262,262,262,262,262,262,262,262,
262,262,262,262,262,262,262,262,262,262,262,262,262,262,262,262,
262,262,262,262,262,262,262,262,262,262,262,262,262,262,262,262,
262,262,262,262,262,262,262,262,262,262,262,262,262,262,262,262,
262,262,262,262,262,262,262,262,262,262,262,262,262,262,262,262,
262,262,262,262,262,262,262,262,262,262,262,262,262,262,262,262,
262,262,262,262,262,262,262,262,262,262,262,262,262,262,262,262,
262,262,262,262,262,262,262,262,262,262,262,262,262,262,262,262
</chunk>
   <chunk x="-80" y="-16" width="16" height="16">
0,0,0,0,0,0,0,0,0,0,0,0,0,0,0,0,
0,0,0,0,0,0,0,0,0,0,0,0,0,0,0,0,
0,0,0,0,0,0,0,0,0,0,0,0,0,0,0,0,
0,0,0,0,0,0,0,0,0,0,0,0,0,0,0,0,
357,357,357,357,0,0,0,0,0,0,0,332,332,332,332,0,
332,332,332,332,332,332,332,332,332,332,332,332,332,332,332,332,
332,332,332,332,332,332,332,332,332,332,332,332,332,332,332,332,
332,332,332,332,332,332,332,332,332,332,332,332,332,332,332,332,
332,332,332,332,332,332,332,332,332,332,332,332,332,332,332,332,
332,332,332,332,332,332,332,332,332,332,332,332,332,332,332,332,
332,332,332,332,332,332,332,332,332,332,332,332,332,332,332,332,
332,332,332,332,332,332,332,332,332,332,332,332,332,332,332,332,
332,332,332,332,332,332,332,332,332,332,332,332,332,332,332,332,
332,332,332,332,332,332,332,332,332,332,332,332,332,332,332,332,
332,332,332,332,332,332,332,332,332,332,332,332,332,332,332,332,
332,332,332,332,332,332,332,332,332,332,332,332,332,332,332,332
</chunk>
   <chunk x="-64" y="-16" width="16" height="16">
0,0,0,0,0,0,0,0,0,325,363,262,262,262,262,262,
0,0,0,0,0,0,0,0,325,363,262,262,262,262,262,262,
0,0,0,0,0,0,0,325,363,262,262,262,262,262,262,262,
0,0,0,0,0,0,362,363,262,262,262,262,262,262,262,262,
0,0,0,0,0,0,262,262,262,262,262,262,262,262,262,262,
332,332,332,332,332,332,262,262,262,262,262,262,262,262,262,262,
332,332,332,332,332,332,262,262,262,262,262,262,262,262,262,262,
332,332,332,332,332,332,262,262,262,262,262,262,262,262,262,262,
332,332,332,332,332,332,262,262,262,262,262,262,262,262,262,262,
332,332,332,332,315,314,262,262,262,262,262,262,262,262,262,262,
332,332,332,332,333,261,262,262,262,262,262,262,262,262,262,262,
332,332,332,332,333,281,282,244,262,262,262,262,262,262,262,262,
332,332,332,315,353,213,213,261,262,262,262,262,262,262,262,262,
332,315,352,353,213,213,213,281,282,244,262,262,262,262,262,262,
332,333,213,213,213,213,213,213,213,281,244,262,262,262,262,262,
332,333,213,213,213,213,213,213,213,213,281,282,282,244,245,282
</chunk>
   <chunk x="-48" y="-16" width="16" height="16">
262,262,262,262,262,262,262,262,262,262,262,332,332,332,332,332,
262,262,262,262,262,262,262,262,262,262,262,332,332,332,332,332,
262,262,262,262,262,262,262,262,262,262,262,332,332,332,332,332,
262,262,262,262,262,262,262,262,262,262,332,332,332,332,332,332,
262,262,262,262,262,262,262,262,262,262,332,332,332,332,332,332,
262,262,262,262,262,262,262,262,262,262,332,332,332,332,332,332,
262,262,262,262,262,262,262,262,262,262,332,332,332,332,332,332,
262,262,262,262,262,262,262,262,262,262,332,332,332,332,332,332,
262,262,262,262,262,262,262,262,262,262,332,332,332,332,332,332,
262,262,262,262,262,262,262,262,262,245,352,314,332,332,332,332,
262,262,262,262,262,262,262,262,245,213,213,351,352,314,332,332,
262,262,262,262,262,262,262,245,283,213,213,213,213,351,352,352,
262,262,262,262,245,282,282,283,213,213,213,213,213,213,213,213,
262,262,262,245,283,213,213,213,213,213,213,213,213,213,213,213,
262,262,245,283,213,213,213,213,213,213,213,213,213,213,213,213,
282,282,283,213,213,213,213,213,213,213,213,213,213,213,213,213
</chunk>
   <chunk x="-32" y="-16" width="16" height="16">
332,332,332,332,332,332,332,332,332,332,332,332,332,332,315,353,
332,332,332,332,332,332,332,332,332,332,332,332,332,315,353,213,
332,332,332,332,332,332,332,332,332,332,332,332,315,353,213,213,
332,332,332,332,332,332,332,332,332,332,332,315,353,213,213,161,
332,332,332,332,332,332,332,332,332,332,315,353,213,213,161,144,
332,332,332,332,332,332,332,332,332,315,353,213,213,213,181,182,
332,332,332,332,332,332,332,332,315,353,213,213,213,161,144,182,
332,332,332,332,332,315,352,352,353,213,213,213,213,181,182,182,
332,332,332,332,315,353,213,213,213,213,213,213,213,181,182,182,
332,332,332,315,353,213,213,213,213,213,213,213,213,181,182,182,
332,332,315,353,213,213,213,213,213,213,213,213,213,181,182,182,
352,352,353,213,213,213,213,213,213,213,213,213,213,181,182,182,
213,213,213,213,213,213,213,213,213,213,213,213,213,181,182,182,
213,213,213,213,213,213,213,213,213,213,213,213,213,181,182,182,
213,213,213,213,213,213,213,213,213,213,213,213,213,181,182,182,
213,213,213,213,213,213,213,213,213,213,213,213,213,181,182,182
</chunk>
   <chunk x="-16" y="-16" width="16" height="16">
213,161,144,182,182,182,182,182,182,310,309,182,182,182,182,182,
161,144,182,182,182,182,182,182,182,310,309,182,182,182,182,182,
181,182,182,182,182,182,182,182,182,310,309,182,182,182,182,182,
144,182,182,182,182,182,182,182,182,310,309,182,182,182,182,182,
182,182,182,182,182,182,182,182,182,310,309,182,182,182,182,182,
182,182,182,182,182,182,182,182,182,310,309,182,182,182,182,182,
182,182,182,182,182,182,182,182,182,310,309,182,182,182,182,182,
182,182,182,182,182,182,182,182,182,310,309,182,182,182,182,182,
182,182,182,182,182,182,182,182,182,310,369,330,425,182,182,182,
182,182,182,182,182,182,182,182,182,385,350,0,369,425,182,182,
182,182,182,182,182,182,182,182,182,182,385,350,0,369,330,330,
182,182,182,182,182,182,182,182,182,182,182,385,329,329,329,329,
182,182,182,182,182,182,182,182,182,182,182,182,182,182,182,182,
182,182,182,182,182,182,182,182,182,182,182,182,182,182,182,182,
182,182,182,182,182,182,182,182,182,182,182,182,182,182,182,182,
182,182,182,182,182,182,182,182,182,182,182,182,182,182,182,182
</chunk>
   <chunk x="0" y="-16" width="16" height="16">
182,182,182,182,182,182,182,182,182,182,182,182,182,182,182,182,
182,182,182,182,182,182,182,182,182,182,182,182,182,182,182,182,
182,182,182,182,182,182,182,182,182,182,182,182,182,182,182,182,
182,182,182,182,182,182,182,182,182,182,182,182,182,182,182,182,
182,182,182,182,182,182,182,182,182,182,182,182,182,182,182,182,
182,182,182,182,182,182,182,182,182,182,182,182,182,182,182,182,
182,182,182,182,182,182,182,182,182,182,182,182,182,182,182,182,
182,182,182,182,182,182,182,182,182,182,182,182,182,182,182,182,
182,182,182,182,182,182,182,182,182,182,182,182,182,182,182,182,
182,182,182,182,182,182,182,182,182,182,182,182,182,182,182,182,
330,330,330,330,330,425,182,182,182,182,182,182,182,182,182,182,
329,329,329,329,350,369,330,425,182,182,182,182,182,182,182,182,
182,182,182,182,385,329,350,369,425,182,182,182,182,182,182,182,
182,182,182,182,182,182,385,350,369,425,182,182,182,182,182,182,
182,182,182,182,182,182,182,310,0,309,182,182,182,182,182,182,
182,182,182,182,182,182,182,385,350,369,425,182,182,182,182,182
</chunk>
   <chunk x="16" y="-16" width="16" height="16">
183,213,213,213,213,213,213,213,213,213,213,213,213,213,213,213,
145,204,213,213,213,213,213,213,213,213,213,213,213,213,213,213,
182,183,213,213,213,213,213,213,213,213,213,213,213,213,213,213,
182,145,204,213,213,213,213,213,213,213,213,213,213,213,213,213,
182,182,145,204,213,213,213,213,213,213,213,213,213,213,213,213,
182,182,182,145,204,213,213,213,213,213,213,213,213,213,213,213,
182,182,182,182,145,204,213,213,213,213,213,213,213,213,213,213,
182,182,182,182,182,183,213,213,213,213,213,213,213,213,213,213,
182,182,182,182,182,145,204,213,213,213,213,213,213,213,213,213,
182,182,182,182,182,182,183,213,213,213,213,213,213,213,213,213,
182,182,182,182,182,182,183,213,213,213,213,213,213,213,213,213,
182,182,182,182,182,182,183,213,213,213,213,213,213,213,213,213,
182,182,182,182,182,182,183,213,213,213,213,213,213,213,213,213,
182,182,182,182,182,182,183,213,213,213,213,213,213,213,213,213,
182,182,182,182,182,182,183,213,213,213,213,213,213,213,213,213,
182,182,182,182,182,182,183,213,213,213,213,213,213,213,213,213
</chunk>
   <chunk x="32" y="-16" width="16" height="16">
213,213,281,282,244,262,262,262,262,262,262,262,262,262,262,262,
213,213,213,213,281,282,244,262,262,262,262,262,262,262,262,262,
213,213,213,213,213,213,281,244,262,262,262,262,262,262,262,262,
213,213,213,213,213,213,213,261,262,262,262,262,262,262,262,262,
213,213,213,213,213,213,213,281,244,262,262,262,262,262,262,262,
213,213,213,213,213,213,213,213,261,262,262,262,262,262,262,262,
213,213,213,213,213,213,213,213,261,262,262,262,262,262,262,262,
213,213,213,213,213,213,213,213,261,262,262,262,262,262,262,262,
213,213,213,213,213,213,213,213,261,262,262,262,262,262,262,262,
213,213,213,213,213,213,213,213,261,262,262,262,262,262,262,262,
213,213,213,213,213,213,213,213,261,262,262,262,262,262,262,262,
213,213,213,213,213,213,213,213,261,262,262,262,262,262,262,262,
213,213,213,213,213,213,213,213,261,262,262,262,262,262,262,262,
213,213,213,213,213,213,213,213,261,262,262,262,262,262,262,262,
213,213,213,213,213,213,213,213,281,244,262,262,262,262,262,262,
213,213,213,213,213,213,213,213,213,281,282,244,262,262,262,262
</chunk>
   <chunk x="48" y="-16" width="16" height="16">
262,262,262,262,262,262,262,262,262,262,262,262,262,262,262,262,
262,262,262,262,262,262,262,262,262,262,262,262,262,262,262,262,
262,262,262,262,262,262,262,262,262,262,262,262,262,262,262,262,
262,262,262,262,262,262,262,262,262,262,262,262,262,262,262,262,
262,262,262,262,262,262,262,262,262,262,262,262,262,262,262,262,
262,262,262,262,262,262,262,262,262,262,262,262,262,262,262,262,
262,262,262,262,262,262,262,262,262,262,262,262,262,262,262,262,
262,262,262,262,262,262,262,262,262,262,262,262,262,262,262,262,
262,262,262,262,262,262,262,262,262,262,262,262,262,262,262,262,
262,262,262,262,262,262,262,262,262,262,262,262,262,262,262,262,
262,262,262,262,262,262,262,262,262,262,262,262,262,262,262,262,
262,262,262,262,262,262,262,262,262,262,262,262,262,262,262,262,
262,262,262,262,262,262,262,262,262,262,262,262,262,262,262,262,
262,262,262,262,262,262,262,262,262,262,262,262,262,262,262,262,
262,262,262,262,262,262,262,262,262,262,262,262,262,262,262,262,
262,262,262,262,262,262,262,262,262,262,262,262,262,262,262,262
</chunk>
   <chunk x="-80" y="0" width="16" height="16">
332,332,332,332,332,332,332,332,332,332,332,332,332,332,332,332,
332,332,291,332,332,332,332,332,332,315,352,352,352,352,352,352,
332,291,291,291,332,315,352,352,352,353,213,213,213,213,213,213,
291,291,291,315,352,353,213,213,213,213,213,213,213,213,213,213,
352,352,352,353,213,213,213,213,213,213,213,213,213,213,213,213,
213,213,213,213,213,213,213,213,213,213,213,213,213,213,213,213,
213,213,213,213,213,213,213,213,213,213,213,213,213,213,213,213,
213,213,213,213,213,213,213,213,213,213,213,213,213,213,213,213,
213,213,213,213,213,213,213,213,213,213,213,213,213,213,213,213,
213,213,213,213,213,213,213,213,213,213,213,213,213,213,213,213,
213,213,406,407,407,407,407,407,407,407,407,407,407,407,407,407,
213,406,389,0,0,0,0,0,0,0,0,0,0,0,0,0,
407,389,0,0,0,0,0,0,0,0,0,0,0,0,0,0,
0,0,0,0,0,0,0,0,0,0,0,0,0,0,0,0,
0,0,0,0,0,0,0,0,0,0,0,0,0,0,0,0,
0,0,0,0,0,0,0,0,410,447,447,447,447,447,447,447
</chunk>
   <chunk x="-64" y="0" width="16" height="16">
315,353,213,213,213,213,213,213,213,213,213,213,213,281,283,213,
353,213,213,213,213,213,213,213,213,213,213,213,213,213,213,213,
213,213,213,213,213,213,213,213,213,213,213,213,213,213,213,213,
213,213,213,213,213,213,213,213,213,213,213,213,213,213,213,213,
213,213,213,213,213,213,213,213,213,213,213,213,213,213,213,213,
213,213,213,133,213,213,213,213,213,213,213,213,213,213,213,213,
213,213,213,213,213,213,213,213,213,213,213,213,213,213,213,213,
213,213,213,213,213,213,213,213,213,213,213,213,213,213,213,213,
213,213,213,213,213,213,213,213,213,213,213,133,213,213,213,213,
213,213,213,213,213,213,213,213,213,213,213,213,213,213,213,213,
407,407,407,407,407,407,407,408,213,213,213,213,213,141,141,141,
0,0,0,0,0,0,0,390,407,407,408,213,213,141,141,213,
0,0,0,0,0,0,0,0,0,0,390,407,408,213,213,213,
0,0,0,0,0,0,0,0,0,0,0,0,390,408,213,213,
0,0,0,0,0,0,0,0,0,0,0,0,0,390,407,408,
447,447,447,409,0,0,0,0,0,0,0,0,0,0,0,390
</chunk>
   <chunk x="-48" y="0" width="16" height="16">
213,213,213,213,213,213,213,213,213,213,213,213,213,213,213,213,
213,213,213,213,213,213,213,213,213,213,213,213,213,213,213,213,
213,213,213,213,213,213,213,213,213,213,213,213,213,213,213,213,
213,213,213,213,213,213,213,213,213,213,213,213,213,213,213,213,
213,213,213,213,213,213,213,213,213,213,213,213,213,213,213,213,
213,213,213,142,213,213,213,213,213,213,213,213,213,213,213,213,
213,213,213,213,213,213,213,142,213,213,213,213,213,213,213,213,
213,213,213,213,213,213,213,213,213,213,213,213,142,213,213,213,
213,213,213,213,213,213,213,213,213,213,133,213,213,213,213,213,
213,213,213,213,142,213,213,213,213,213,213,213,213,213,213,142,
213,141,213,213,213,213,213,213,213,213,213,213,213,213,213,213,
213,213,213,213,213,213,213,213,213,213,213,213,213,213,221,213,
213,213,133,213,213,213,213,213,213,213,213,213,213,213,213,213,
213,213,213,213,213,213,213,213,213,213,213,213,213,213,213,213,
213,213,142,213,213,213,213,213,213,213,213,213,213,213,213,213,
408,213,213,213,213,141,213,213,213,213,213,213,213,213,213,213
</chunk>
   <chunk x="-32" y="0" width="16" height="16">
213,213,213,213,213,213,213,213,213,213,213,213,213,181,182,182,
213,213,213,213,213,213,213,213,213,213,213,213,213,201,164,182,
213,213,213,213,213,213,213,213,213,213,213,213,213,213,201,164,
213,213,213,213,213,213,213,213,213,213,213,213,213,213,213,201,
213,213,213,213,213,213,213,213,213,213,213,213,213,213,213,213,
213,213,213,213,213,213,213,213,213,213,213,213,213,213,213,213,
142,213,213,213,213,213,213,213,213,213,213,213,213,213,213,213,
213,213,213,213,213,213,213,213,213,213,213,213,213,213,213,213,
213,213,213,213,213,213,213,213,213,213,213,213,213,213,213,213,
213,213,213,213,213,213,213,213,213,213,213,213,213,213,213,213,
213,221,213,213,213,213,213,213,213,213,213,213,213,213,213,213,
213,213,213,213,213,213,213,213,213,213,213,213,213,213,213,213,
213,213,213,213,213,213,213,213,213,213,213,213,213,213,213,213,
213,213,213,213,213,213,213,213,213,213,213,213,213,213,213,213,
213,213,213,213,213,213,213,213,213,213,213,213,213,213,213,213,
213,213,213,213,213,213,213,213,213,213,213,213,213,213,213,213
</chunk>
   <chunk x="-16" y="0" width="16" height="16">
182,182,182,182,182,182,182,182,182,182,182,182,182,182,182,182,
182,182,182,182,182,182,182,182,182,182,182,182,182,182,182,182,
182,182,182,182,182,182,182,182,182,182,182,182,182,182,182,182,
164,182,182,182,182,182,182,182,182,182,182,182,182,182,182,182,
201,202,164,182,182,182,182,182,182,182,182,182,182,182,182,182,
213,213,201,164,182,182,182,182,182,182,182,182,182,182,182,182,
213,213,213,181,182,182,182,182,182,182,182,182,182,182,182,182,
213,213,213,201,202,164,182,182,182,182,182,182,182,182,182,182,
213,213,213,213,213,201,164,182,182,182,182,182,182,182,182,182,
213,213,213,213,213,213,201,164,182,182,182,182,182,182,182,182,
213,213,213,213,213,213,213,201,164,182,182,182,182,182,182,182,
213,213,213,213,213,213,213,213,201,202,164,182,182,182,182,182,
213,213,213,213,213,213,213,213,213,213,201,202,164,182,182,182,
213,213,213,213,213,213,213,213,213,213,213,213,201,202,202,202,
213,213,213,213,213,213,213,213,213,213,213,213,213,213,213,213,
213,213,213,213,213,213,213,213,213,213,213,213,213,213,213,213
</chunk>
   <chunk x="0" y="0" width="16" height="16">
182,182,182,182,182,182,182,182,310,0,309,182,182,182,182,182,
182,182,182,182,182,182,182,182,310,0,309,182,182,182,182,182,
182,182,182,182,182,182,182,182,310,349,445,182,182,182,182,182,
182,182,182,182,182,182,182,405,370,309,182,182,182,182,182,182,
182,182,182,182,182,182,182,310,0,309,182,182,182,182,182,182,
182,182,182,182,182,182,405,370,349,445,182,182,182,182,182,182,
182,182,182,182,182,182,310,0,309,182,182,182,182,182,182,182,
182,182,182,182,182,182,310,0,309,182,182,182,182,182,182,182,
182,182,182,182,182,182,310,0,309,182,182,182,182,182,182,182,
182,182,182,182,182,182,310,0,369,425,182,182,182,182,182,182,
182,182,182,182,182,182,310,0,0,369,330,425,182,182,182,182,
182,182,182,182,182,182,310,0,0,0,0,369,330,425,182,182,
182,182,182,182,182,405,370,0,0,0,0,0,0,369,330,202,
164,182,182,182,182,310,0,0,0,0,174,0,0,0,0,390,
201,202,202,202,164,310,0,0,0,0,192,194,0,0,0,0,
213,213,213,213,261,279,0,0,0,192,236,235,193,193,194,0
</chunk>
   <chunk x="16" y="0" width="16" height="16">
182,182,182,182,182,182,183,213,213,213,213,213,213,213,213,213,
182,182,182,182,182,182,183,213,213,213,213,213,213,213,213,213,
182,182,182,182,182,182,183,213,213,213,213,213,213,213,213,213,
182,182,182,182,182,165,203,213,213,213,213,213,213,213,213,213,
182,182,182,182,182,183,213,213,213,213,213,213,213,213,213,213,
182,182,182,182,182,183,213,213,213,213,213,213,213,213,213,213,
182,182,182,182,165,203,213,213,213,213,213,213,213,213,213,213,
182,182,182,165,203,213,213,213,213,213,213,213,213,213,213,213,
182,182,182,183,213,213,213,213,213,213,213,213,213,213,213,213,
182,182,165,203,213,213,213,213,213,213,213,213,213,213,213,213,
182,165,184,213,213,213,213,213,213,213,213,213,213,213,213,213,
165,184,213,213,213,213,213,213,213,213,213,213,213,213,213,213,
184,213,213,213,213,213,213,213,213,213,213,213,213,213,213,213,
407,407,407,407,408,213,213,213,213,213,213,213,213,213,213,213,
0,0,0,0,390,408,213,213,213,213,213,213,213,213,213,213,
0,0,0,0,0,390,408,213,213,213,213,213,213,213,213,213
</chunk>
   <chunk x="32" y="0" width="16" height="16">
213,213,213,213,213,213,213,213,213,213,213,261,262,262,262,262,
213,213,213,213,213,213,213,213,213,213,213,261,262,262,262,262,
213,213,213,213,213,213,213,213,213,213,213,261,262,262,262,262,
213,213,213,213,213,213,213,213,213,213,213,281,244,262,262,262,
213,213,213,213,213,213,213,213,213,213,213,213,261,262,262,262,
213,213,213,213,213,213,213,213,213,213,213,213,261,262,262,262,
213,213,213,213,213,213,213,213,213,213,213,213,261,262,262,262,
213,213,213,213,213,213,213,213,213,213,213,213,261,262,262,262,
213,213,213,213,213,213,213,213,213,213,213,213,261,262,262,262,
213,213,213,213,213,213,213,213,213,213,213,213,261,262,262,262,
213,213,213,213,213,213,213,213,213,213,213,213,261,262,262,262,
213,213,213,213,213,213,213,213,213,213,213,213,261,262,262,262,
213,213,213,213,213,213,213,213,213,213,213,213,261,262,262,262,
213,213,213,213,213,213,213,213,213,213,213,241,224,262,262,262,
213,213,213,213,213,213,213,213,213,213,241,224,262,262,262,262,
213,213,213,213,213,213,213,213,213,241,224,262,262,262,262,262
</chunk>
   <chunk x="48" y="0" width="16" height="16">
262,262,262,262,262,262,262,262,262,262,262,262,262,262,262,262,
262,262,262,262,262,262,262,262,262,262,262,262,262,262,262,262,
262,262,262,262,262,262,262,262,262,262,262,262,262,262,262,262,
262,262,262,262,262,262,262,262,262,262,262,262,262,262,262,262,
262,262,262,262,262,262,262,262,262,262,262,262,262,262,262,262,
262,262,262,262,262,262,262,262,262,262,262,262,262,262,262,262,
262,262,262,262,262,262,262,262,262,262,262,262,262,262,262,262,
262,262,262,262,262,262,262,262,262,262,262,262,262,262,262,262,
262,262,262,262,262,262,262,262,262,262,262,262,262,262,262,262,
262,262,262,262,262,262,262,262,262,262,262,262,262,262,262,262,
262,262,262,262,262,262,262,262,262,262,262,262,262,321,322,322,
262,262,262,262,262,262,262,262,262,262,262,262,321,304,0,0,
262,262,262,262,262,262,262,262,262,262,262,321,304,0,0,0,
262,262,262,262,262,262,262,262,262,262,321,304,0,0,0,0,
262,262,262,262,262,262,262,262,262,262,341,0,0,0,0,0,
262,262,262,262,262,262,262,262,262,321,304,0,0,0,0,0
</chunk>
   <chunk x="-80" y="16" width="16" height="16">
0,0,0,0,410,447,447,447,448,213,213,213,213,213,213,213,
0,0,0,410,448,213,213,213,213,213,213,213,213,213,213,213,
0,0,410,448,213,213,213,213,213,213,213,213,133,213,213,213,
0,410,448,213,213,213,213,213,213,213,213,213,213,213,213,213,
410,448,213,213,213,213,213,213,213,213,213,213,213,213,213,213,
448,213,213,213,213,213,213,213,213,213,213,213,213,213,213,213,
213,213,213,213,213,213,213,213,213,213,213,213,213,213,213,213,
213,213,213,213,213,213,213,213,213,213,213,213,213,213,213,213,
213,213,213,213,213,213,213,213,213,213,213,213,213,213,213,213,
213,213,213,213,213,213,213,213,213,213,213,213,213,213,213,213,
213,213,213,213,213,213,213,213,213,213,213,213,213,213,213,213,
213,213,213,213,213,213,213,213,213,213,213,213,213,213,213,213,
213,213,213,213,213,213,213,213,213,213,213,213,213,213,213,213,
213,213,213,213,213,213,213,213,213,213,213,213,213,213,213,213,
213,213,213,213,213,213,213,213,213,213,213,213,213,213,213,213,
213,213,213,213,213,213,213,213,213,213,213,213,213,213,213,213
</chunk>
   <chunk x="-64" y="16" width="16" height="16">
213,213,213,446,409,0,0,0,0,0,0,0,0,0,0,0,
133,213,213,213,446,409,0,0,0,0,0,0,0,0,0,0,
213,213,213,213,213,446,409,0,0,0,0,0,0,0,0,0,
213,213,213,213,213,213,446,409,0,0,0,0,0,0,0,0,
213,213,213,213,213,213,213,446,447,447,409,0,0,0,0,0,
213,213,133,213,213,213,213,213,213,213,446,409,0,0,0,0,
213,213,213,213,213,213,213,213,213,213,213,446,447,409,0,0,
213,213,213,213,213,213,213,213,213,213,213,213,213,446,409,0,
213,213,213,213,213,213,213,213,213,213,133,213,213,213,426,0,
213,213,213,213,213,213,213,213,213,213,213,213,213,213,446,409,
213,213,213,213,213,213,213,213,213,213,213,213,213,213,213,446,
213,213,213,213,213,213,213,213,213,213,213,213,213,213,213,213,
213,213,213,213,213,213,213,213,213,213,213,213,213,213,213,213,
213,213,213,213,213,213,213,213,213,213,213,213,213,213,213,213,
213,213,213,213,213,213,213,213,213,213,213,213,213,213,213,213,
213,213,213,213,213,213,213,213,213,213,213,213,213,213,213,213
</chunk>
   <chunk x="-48" y="16" width="16" height="16">
390,408,213,213,213,213,213,213,213,213,213,213,213,213,213,213,
0,390,408,213,213,142,213,213,213,213,213,213,213,213,213,213,
0,0,390,408,213,213,213,213,213,213,213,213,213,213,213,213,
0,0,0,390,408,213,213,213,213,213,213,213,213,213,213,213,
0,0,0,0,390,408,213,142,213,213,213,213,213,213,213,213,
0,0,0,0,0,390,408,222,221,221,221,387,406,407,407,407,
0,0,0,0,0,0,390,407,408,386,406,407,389,0,0,0,
0,0,0,0,0,0,0,0,390,407,389,0,0,0,0,0,
0,0,0,0,0,0,0,0,0,0,0,0,0,0,0,0,
0,0,0,0,0,0,0,0,0,0,0,0,0,0,325,362,
447,409,0,0,0,0,0,0,0,0,0,0,325,362,363,262,
213,446,447,447,447,447,447,447,447,362,362,362,363,262,262,262,
213,213,213,213,213,213,213,213,213,213,282,282,282,282,282,282,
213,213,213,213,213,213,213,213,213,213,213,213,213,213,213,213,
213,213,213,213,213,213,213,213,213,213,213,213,213,213,213,213,
213,213,213,213,213,213,213,213,213,213,213,213,213,213,213,213
</chunk>
   <chunk x="-32" y="16" width="16" height="16">
213,213,213,213,213,213,213,213,213,133,213,213,213,213,213,213,
213,213,213,213,213,213,213,213,213,213,213,213,213,213,213,213,
213,213,213,213,133,213,213,213,213,133,213,213,213,213,213,213,
213,213,213,213,213,213,213,213,213,213,213,213,213,213,213,213,
213,406,407,407,407,407,407,242,242,242,242,242,242,242,242,243,
407,389,0,0,0,0,0,305,322,322,322,323,302,262,262,225,
0,0,0,0,0,0,0,0,0,0,0,305,322,323,347,262,
0,0,0,0,0,0,0,0,0,0,0,0,0,305,322,322,
325,362,362,362,362,362,362,362,324,0,0,0,0,0,0,0,
363,262,262,262,262,262,262,262,361,362,362,324,0,0,0,0,
262,262,262,262,262,262,262,262,262,262,262,361,362,324,0,0,
262,262,262,262,262,262,262,262,262,262,262,262,262,361,362,324,
282,282,282,282,282,282,282,244,262,262,262,262,262,262,262,361,
213,213,213,213,213,213,213,281,282,282,282,244,262,262,262,262,
213,213,213,213,213,213,213,213,213,213,213,281,282,244,262,262,
213,213,213,213,213,213,213,213,213,213,213,213,213,281,282,282
</chunk>
   <chunk x="-16" y="16" width="16" height="16">
213,213,213,213,213,213,213,213,213,213,213,213,213,213,213,213,
213,213,213,213,213,213,213,213,213,213,213,213,213,213,213,213,
213,213,213,213,213,213,213,213,213,213,213,213,213,213,213,213,
213,213,213,213,213,213,213,213,213,213,213,213,213,213,213,213,
213,213,213,213,213,213,213,213,213,213,213,213,213,213,213,213,
242,242,242,243,213,213,213,213,213,213,213,213,213,213,285,242,
262,367,262,225,242,243,213,213,213,213,213,285,242,242,224,262,
262,262,262,262,262,225,242,242,243,213,285,224,262,262,262,262,
305,323,366,262,262,262,366,348,225,242,224,262,262,348,262,262,
0,305,322,322,322,322,322,322,322,322,322,322,322,322,322,322,
0,0,0,0,0,0,0,0,0,0,0,0,0,0,0,0,
0,0,0,0,0,0,0,0,0,0,0,0,0,0,0,0,
324,0,0,0,0,0,0,0,0,0,0,0,0,0,0,0,
361,362,362,447,193,193,193,193,193,193,193,193,193,193,193,193,
262,262,245,213,213,213,213,213,213,213,213,213,213,213,213,213,
282,282,283,213,213,213,213,213,213,213,213,213,213,213,213,213
</chunk>
   <chunk x="0" y="16" width="16" height="16">
213,213,213,213,261,341,0,0,0,212,213,213,213,213,235,194,
213,213,213,285,224,341,0,0,0,212,213,213,213,213,213,235,
213,213,213,261,303,341,0,0,0,212,213,213,213,213,213,213,
213,213,285,224,262,341,0,0,0,212,213,213,213,213,213,213,
285,242,224,262,321,304,0,0,0,212,213,213,213,213,213,213,
224,262,262,262,341,0,0,0,0,212,213,213,213,213,213,213,
262,262,262,321,304,0,0,0,0,212,213,213,213,213,213,213,
262,368,321,304,0,0,0,0,192,236,213,213,213,213,213,213,
321,322,304,0,0,0,0,0,212,213,213,213,213,213,213,213,
304,0,0,0,0,0,0,192,236,213,213,213,213,213,213,213,
0,0,0,0,0,0,192,236,213,213,213,213,213,213,213,213,
0,0,0,0,0,192,236,213,213,213,213,213,213,213,213,213,
0,0,0,192,193,236,213,213,213,213,213,213,213,213,213,213,
193,193,193,236,213,213,213,213,213,213,213,213,213,213,213,213,
213,213,213,213,213,213,213,213,213,213,213,213,213,213,213,213,
213,213,213,213,213,213,213,213,213,213,213,213,213,213,213,213
</chunk>
   <chunk x="16" y="16" width="16" height="16">
0,0,0,0,0,0,390,407,408,213,213,213,213,213,213,213,
194,0,0,0,0,0,0,0,390,408,213,213,213,213,213,213,
235,193,194,0,0,0,0,0,0,390,408,213,213,213,213,213,
213,213,235,194,0,0,0,0,0,0,390,407,408,213,213,213,
213,213,213,235,193,194,0,0,0,0,0,0,390,407,407,407,
213,213,213,213,213,235,194,0,0,0,0,0,0,0,0,0,
213,213,213,213,213,213,235,193,194,0,0,0,0,0,0,0,
213,213,213,213,213,213,213,213,235,193,193,194,0,0,0,0,
213,213,213,213,213,213,213,213,222,213,213,235,193,193,193,194,
213,213,213,213,213,213,213,213,213,213,213,213,213,213,213,235,
213,213,213,213,213,213,213,213,213,213,213,213,213,213,213,213,
213,213,213,213,213,213,213,213,213,213,213,213,213,213,213,213,
213,213,213,213,213,213,213,213,213,213,213,213,213,213,213,213,
213,213,213,213,213,213,213,213,213,213,213,213,213,213,213,213,
213,213,213,213,213,213,213,213,213,213,213,213,213,213,213,213,
213,213,213,213,213,213,213,213,213,213,213,213,213,213,213,213
</chunk>
   <chunk x="32" y="16" width="16" height="16">
213,213,213,213,213,213,213,213,241,224,262,262,262,262,262,262,
213,213,213,213,213,213,213,241,224,262,262,262,262,262,262,262,
213,213,213,213,213,213,241,224,262,262,262,262,262,262,262,262,
213,213,213,213,213,241,224,262,262,262,262,262,262,262,262,262,
407,407,407,407,407,224,262,262,262,262,262,262,262,262,365,322,
0,0,0,0,0,223,322,322,322,322,322,322,322,322,304,0,
0,0,0,0,0,0,0,0,0,0,0,0,0,0,0,0,
0,0,0,0,0,0,0,0,0,0,0,0,0,0,0,0,
0,0,0,0,0,0,0,0,0,0,0,0,0,0,0,0,
193,194,0,0,0,0,0,0,0,0,0,0,0,0,0,0,
213,235,193,193,193,194,0,0,0,0,0,0,0,0,0,0,
213,213,213,213,213,235,193,193,193,194,0,0,0,0,0,0,
213,213,213,213,213,213,213,213,215,273,194,0,0,0,0,0,
213,213,213,213,213,213,213,213,214,232,234,0,0,0,0,0,
213,213,213,213,213,213,213,213,214,0,0,0,0,0,0,0,
213,213,213,213,213,213,213,213,235,194,0,0,0,0,0,0
</chunk>
   <chunk x="48" y="16" width="16" height="16">
262,262,262,262,262,262,262,262,321,304,0,0,0,0,0,0,
262,262,262,262,262,262,365,322,304,0,0,0,0,0,0,0,
262,262,262,321,322,322,304,0,0,0,0,0,0,0,0,0,
262,262,262,259,0,0,0,0,0,0,0,0,0,0,0,0,
322,322,226,0,0,0,0,0,0,0,0,0,0,0,0,0,
0,0,0,0,0,0,0,0,0,0,0,0,0,0,0,0,
0,0,0,0,0,0,0,0,0,0,0,0,0,0,0,0,
0,0,0,0,0,0,0,0,0,0,0,0,0,0,0,0,
0,0,0,0,0,0,0,0,0,0,0,0,0,0,0,0,
0,0,0,0,0,0,0,0,0,0,0,0,0,0,0,0,
0,0,0,0,0,0,0,0,0,0,0,0,0,0,0,0,
0,0,0,0,0,0,0,0,0,0,0,0,0,0,0,0,
0,0,0,0,0,0,0,0,0,0,0,0,0,0,0,0,
0,0,0,0,0,0,0,0,0,0,0,0,0,0,0,0,
0,0,0,0,0,0,0,0,0,0,0,0,0,0,0,0,
0,0,0,0,0,0,0,0,0,0,0,0,0,0,0,0
</chunk>
   <chunk x="-80" y="32" width="16" height="16">
213,213,213,213,213,213,213,213,213,213,213,213,213,213,213,213,
213,213,213,213,213,213,213,213,213,213,213,213,213,213,213,213,
213,213,213,213,213,213,213,213,213,213,213,213,213,213,213,213,
213,213,213,213,213,213,213,213,213,213,213,213,213,213,213,213,
213,213,213,213,213,213,213,213,213,213,213,213,213,213,213,213,
213,213,213,213,213,213,213,213,213,213,213,213,213,213,213,213,
213,213,213,213,213,213,213,213,213,213,213,213,213,213,213,213,
213,213,213,213,213,213,213,213,213,213,213,213,213,213,213,213,
213,213,213,213,213,213,213,213,213,213,213,213,213,213,213,213,
213,213,213,213,213,213,213,213,213,213,213,213,213,213,213,213,
213,213,213,213,213,213,213,213,213,213,213,213,213,213,213,213,
213,213,213,213,213,213,213,213,213,213,213,213,213,213,213,213,
213,213,213,213,213,213,213,213,213,213,213,213,213,213,213,213,
213,213,213,213,213,213,213,213,213,213,213,213,213,213,213,213,
213,213,213,213,213,213,213,213,213,213,213,213,213,213,213,213,
213,213,213,213,213,213,213,213,213,213,213,213,213,213,213,213
</chunk>
   <chunk x="-64" y="32" width="16" height="16">
213,213,213,213,213,213,213,213,213,213,213,213,213,213,213,213,
213,213,213,213,213,213,213,213,213,213,213,213,213,213,213,213,
213,213,213,213,213,213,213,213,213,213,213,213,213,213,213,213,
213,213,213,213,213,213,213,213,213,213,213,213,213,213,213,213,
213,213,213,213,213,213,213,213,213,213,213,213,213,213,213,213,
213,213,213,213,213,213,213,213,213,213,213,213,213,213,213,213,
213,213,213,213,213,213,213,213,213,213,213,213,213,213,213,213,
213,213,213,213,213,213,213,213,213,213,213,213,213,213,213,213,
213,213,213,213,213,213,213,213,213,213,213,213,213,213,213,213,
213,213,213,213,213,213,213,213,213,213,213,213,213,213,213,213,
213,213,213,213,213,213,213,213,213,213,213,213,213,213,213,213,
213,213,213,213,213,213,213,213,213,213,213,213,213,213,213,213,
213,213,213,213,213,213,213,213,213,213,213,213,213,213,213,213,
213,213,213,213,213,213,213,213,213,213,213,213,213,213,213,213,
213,213,213,213,213,213,213,213,213,213,213,213,213,213,213,213,
213,213,213,213,213,213,213,213,213,213,213,213,213,213,213,213
</chunk>
   <chunk x="-48" y="32" width="16" height="16">
133,213,213,213,213,213,213,213,213,213,213,213,213,213,213,213,
213,213,213,213,213,213,213,213,213,213,213,213,213,213,213,213,
213,213,213,213,213,213,213,213,213,213,213,213,213,133,213,213,
213,213,213,213,213,213,213,213,213,213,213,213,213,213,213,213,
213,213,213,213,213,213,213,213,213,213,213,213,213,213,213,213,
213,213,213,213,133,213,213,213,213,213,213,213,213,213,213,213,
213,213,213,213,213,213,213,213,213,213,213,213,213,213,213,213,
213,213,213,213,213,213,213,213,213,213,213,213,213,213,213,213,
213,213,213,213,213,213,213,213,213,213,213,213,213,213,213,213,
213,213,213,213,213,213,213,213,213,213,213,213,213,213,213,213,
213,213,213,213,213,213,213,213,213,213,213,213,213,213,213,213,
213,213,213,213,213,213,213,213,213,213,213,213,213,213,213,213,
213,213,213,213,213,213,213,213,213,213,213,213,213,213,213,213,
213,213,213,213,213,213,213,213,213,213,213,213,213,213,213,213,
213,213,213,213,213,213,213,213,213,213,213,213,213,213,213,213,
213,213,213,213,213,213,213,213,213,213,213,213,213,213,213,213
</chunk>
   <chunk x="-32" y="32" width="16" height="16">
213,213,213,213,213,213,213,213,213,213,213,213,213,213,213,213,
213,213,213,213,213,213,213,213,213,213,213,213,213,213,213,213,
213,213,213,213,213,213,213,213,213,213,213,213,213,213,213,213,
213,213,213,213,213,213,213,213,213,213,213,213,213,213,213,213,
213,213,213,213,213,213,213,213,213,213,213,213,213,213,213,213,
213,213,213,213,213,213,213,213,213,213,213,213,213,213,213,213,
213,213,213,213,213,213,213,213,213,213,213,213,213,213,213,213,
133,213,213,213,213,213,213,213,213,213,213,213,213,213,213,213,
213,213,213,213,213,213,213,213,213,213,213,213,213,213,213,213,
213,213,213,213,213,213,213,213,213,213,213,213,213,213,213,213,
213,213,213,213,213,213,213,213,213,213,213,213,213,213,213,213,
213,213,213,213,213,213,213,213,213,213,213,213,213,213,213,213,
213,213,213,213,213,213,213,213,213,213,213,213,213,213,213,213,
213,213,213,213,213,213,213,213,213,213,213,213,213,213,213,213,
213,213,213,213,213,213,213,213,213,213,213,213,213,213,213,213,
213,213,213,213,213,213,213,213,213,213,213,213,213,213,213,213
</chunk>
   <chunk x="-16" y="32" width="16" height="16">
213,213,213,213,213,213,213,213,213,213,213,213,213,213,213,213,
213,213,213,213,213,213,213,213,213,213,213,213,213,213,213,213,
213,213,213,213,213,213,213,213,213,213,213,213,213,213,213,213,
213,213,213,213,213,213,213,213,213,213,213,213,213,213,213,213,
213,213,213,213,213,213,213,133,213,213,213,213,213,213,213,213,
213,213,213,213,213,213,213,213,213,213,213,213,213,213,213,213,
213,213,213,213,213,213,213,213,213,213,213,213,213,213,213,213,
213,213,213,213,213,213,213,213,213,213,213,213,213,213,213,213,
213,213,213,213,213,213,213,213,213,213,213,213,213,213,213,213,
213,213,213,213,213,213,213,213,213,213,213,213,213,213,213,213,
213,213,213,213,213,213,213,213,213,213,213,213,213,213,213,213,
213,213,213,213,213,213,213,213,213,213,213,213,213,213,213,213,
213,213,213,213,213,213,213,213,213,213,213,213,213,213,213,213,
213,213,213,213,213,213,213,213,213,213,213,213,213,213,213,213,
213,213,213,213,213,213,213,213,213,213,213,213,213,213,213,213,
213,213,213,213,213,213,213,213,213,213,213,213,213,213,213,213
</chunk>
   <chunk x="0" y="32" width="16" height="16">
213,213,213,213,213,213,213,213,213,213,213,213,213,213,213,213,
213,213,213,213,213,213,213,213,213,213,213,213,213,213,213,213,
213,213,213,213,213,213,213,213,213,213,213,213,213,213,213,213,
213,213,213,213,213,213,213,213,213,213,213,213,213,213,213,213,
213,213,213,213,213,213,213,213,213,213,213,213,213,213,213,213,
213,213,213,213,213,213,213,213,213,213,213,213,213,213,213,213,
213,213,213,213,213,213,213,213,213,213,213,213,213,213,213,213,
213,213,213,213,213,213,213,213,213,213,213,213,213,213,213,213,
213,213,213,213,213,213,213,213,213,213,213,213,213,213,213,213,
213,213,213,213,213,213,213,213,213,213,213,213,213,213,213,213,
213,213,213,213,213,213,213,213,213,213,213,213,213,213,213,213,
213,213,213,213,213,213,213,213,213,213,213,213,213,213,213,213,
213,213,213,213,213,213,213,213,213,213,213,213,213,213,213,213,
213,213,213,213,213,213,213,213,213,213,213,213,213,213,213,213,
213,213,213,213,213,213,213,213,213,213,213,213,213,213,213,213,
213,213,213,213,213,213,213,213,213,213,213,213,213,213,213,213
</chunk>
   <chunk x="16" y="32" width="16" height="16">
213,213,213,213,213,213,213,213,213,213,213,213,213,213,213,213,
213,213,213,213,213,213,213,213,213,213,213,213,213,213,213,213,
213,213,213,213,213,213,213,213,213,213,213,213,213,213,213,213,
213,213,213,213,213,213,213,213,213,213,213,213,213,213,213,213,
213,213,213,213,213,213,213,213,213,213,213,213,213,213,213,213,
213,213,213,213,213,213,213,213,213,213,213,213,213,213,213,213,
213,213,213,213,213,213,213,213,213,213,213,213,213,213,213,213,
213,213,213,213,213,213,213,213,213,213,213,213,213,213,213,213,
213,213,213,213,213,213,213,213,213,213,213,213,213,213,213,213,
213,213,213,213,213,213,213,213,213,213,213,213,213,213,213,213,
213,213,213,213,213,213,213,213,213,213,213,213,213,213,213,213,
213,213,213,213,213,213,213,213,213,213,213,213,213,213,213,213,
213,213,213,213,213,213,213,213,213,213,213,213,213,213,213,213,
213,213,213,213,213,213,213,213,213,213,213,213,213,213,213,213,
213,213,213,213,213,213,213,213,213,213,213,213,213,213,213,213,
213,213,213,213,213,213,213,213,213,213,213,213,213,213,213,213
</chunk>
   <chunk x="32" y="32" width="16" height="16">
213,213,213,213,213,213,213,213,213,235,194,0,0,0,0,0,
213,213,213,213,213,213,213,213,213,213,235,194,0,0,0,0,
213,213,213,213,213,213,213,213,213,213,213,235,194,0,0,0,
213,213,213,213,213,213,213,213,213,213,213,213,235,194,0,0,
213,213,213,213,213,213,213,213,213,213,213,213,213,235,194,0,
213,213,213,213,213,213,213,213,213,213,213,213,213,213,235,194,
213,213,213,213,213,213,213,213,213,213,213,213,213,213,213,235,
213,213,213,213,213,213,213,213,213,213,213,213,213,213,213,213,
213,213,213,213,213,213,213,213,213,213,213,213,213,213,213,213,
213,213,213,213,213,213,213,213,213,213,213,213,213,213,213,213,
213,213,213,213,213,213,213,213,213,213,213,213,213,213,213,213,
213,213,213,213,213,213,213,213,213,213,213,213,213,213,213,213,
213,213,213,213,213,213,213,213,213,213,213,213,213,213,213,213,
213,213,213,213,213,213,213,213,213,213,213,213,213,213,213,213,
213,213,213,213,213,213,213,213,213,213,213,213,213,213,213,213,
213,213,213,213,213,213,213,213,213,213,213,213,213,213,213,213
</chunk>
   <chunk x="48" y="32" width="16" height="16">
0,0,0,0,0,0,0,0,0,0,0,0,0,0,0,0,
0,0,0,0,0,0,0,0,0,0,0,0,0,0,0,0,
0,0,0,0,0,0,0,0,0,0,0,0,0,0,0,0,
0,0,0,0,0,0,0,0,0,0,0,0,0,0,0,0,
0,0,0,0,0,0,0,0,0,0,0,0,0,0,0,0,
0,0,0,0,0,0,0,0,0,0,0,0,0,0,0,0,
194,0,0,0,0,0,0,0,0,0,0,0,0,0,0,0,
235,194,0,0,0,0,0,0,0,0,0,0,0,0,0,0,
213,235,194,0,0,0,0,0,0,0,0,0,0,0,0,0,
213,213,235,194,0,0,0,0,0,0,0,0,0,0,0,0,
213,213,213,235,194,0,0,0,0,0,0,0,0,0,0,0,
213,213,213,213,235,194,0,0,0,0,0,0,0,0,0,0,
213,213,213,213,213,235,194,0,0,0,0,0,0,0,0,0,
213,213,213,213,213,213,235,194,0,0,0,0,0,0,0,0,
213,213,213,213,213,213,213,235,194,0,0,0,0,0,0,0,
213,213,213,213,213,213,213,213,235,194,0,0,0,0,0,0
</chunk>
  </data>
 </layer>
 <layer id="3" name="Calles" width="120" height="100">
  <data encoding="csv">
   <chunk x="-16" y="-32" width="16" height="16">
0,0,0,0,0,0,0,0,0,0,0,0,0,0,0,0,
0,0,0,0,0,0,0,0,0,0,0,0,0,0,0,0,
0,0,0,0,0,0,0,0,0,0,0,0,0,0,0,0,
0,0,0,0,0,0,0,0,0,0,0,0,0,0,0,0,
0,0,0,0,0,0,0,0,0,0,0,0,0,0,0,0,
0,0,0,0,0,0,0,0,0,0,0,0,0,0,0,0,
0,0,0,0,0,0,0,0,0,0,0,0,0,0,0,0,
0,0,0,0,0,0,0,0,0,0,0,0,0,0,0,0,
0,0,0,0,0,0,0,0,0,0,0,0,0,0,0,0,
0,0,0,0,0,0,0,0,0,0,0,0,0,0,0,0,
0,0,0,0,0,0,0,0,0,0,0,0,0,0,0,0,
0,0,0,0,0,0,0,0,0,0,0,0,0,0,0,0,
0,0,0,0,0,0,0,0,0,0,0,0,127,83,87,88,
0,0,0,0,0,0,0,0,0,0,0,0,109,94,95,96,
0,0,0,0,0,0,0,0,0,0,0,0,101,102,0,0,
0,0,0,0,0,0,0,0,0,0,0,0,69,70,0,0
</chunk>
   <chunk x="0" y="-32" width="16" height="16">
0,0,0,0,0,0,0,0,0,0,0,0,0,0,0,0,
0,0,0,0,0,0,0,0,0,0,0,0,0,0,0,0,
0,0,0,0,0,0,0,0,0,0,0,0,0,0,0,0,
0,0,0,0,0,0,0,0,0,0,0,0,0,0,0,0,
0,0,0,0,0,0,0,0,0,0,0,0,0,0,0,0,
0,0,0,0,0,0,0,0,0,0,0,0,0,0,0,0,
0,0,0,0,0,0,0,0,0,0,0,0,0,0,0,0,
0,0,0,0,0,0,0,0,0,0,0,0,0,0,0,0,
0,0,0,0,0,0,0,0,0,0,0,0,0,0,0,0,
0,0,0,0,0,0,127,128,0,0,0,0,0,0,0,0,
0,0,0,0,0,0,109,70,0,0,0,0,0,0,0,0,
0,0,0,0,0,0,109,70,0,0,0,0,0,0,0,0,
88,88,88,88,88,88,85,86,88,88,88,88,83,128,0,0,
96,96,96,96,96,96,93,94,96,96,96,96,93,70,0,0,
0,0,0,0,0,0,101,102,0,0,0,0,69,70,0,0,
0,0,0,0,0,0,109,110,0,0,0,0,69,70,0,0
</chunk>
   <chunk x="-16" y="-16" width="16" height="16">
0,0,0,0,0,0,0,0,0,0,0,0,69,70,0,0,
0,0,0,0,0,0,0,0,0,0,0,0,69,70,0,0,
0,0,0,0,0,0,0,0,0,0,0,0,77,78,0,0,
0,0,127,83,83,83,83,83,71,72,72,73,85,86,83,84,
0,0,129,91,91,91,93,94,79,80,80,81,93,94,91,92,
0,0,0,0,0,0,109,110,0,0,0,0,101,102,0,0,
0,0,0,0,0,0,109,110,0,0,0,0,109,110,0,0,
0,0,0,0,0,0,109,110,0,0,0,0,109,86,83,84,
0,0,0,0,0,0,109,110,0,0,0,0,129,96,91,92,
0,0,0,0,0,0,109,110,0,0,0,0,0,0,0,0,
0,0,0,0,0,0,109,110,0,0,0,0,0,0,0,0,
0,0,0,0,0,0,109,110,0,0,0,0,0,0,0,0,
127,83,83,83,83,83,85,86,83,83,83,83,83,128,0,0,
109,94,91,91,91,91,96,96,91,91,91,91,93,70,68,68,
69,70,68,75,75,75,75,75,75,75,75,68,69,70,75,75,
77,78,68,75,75,75,75,75,75,75,75,68,77,78,68,68
</chunk>
   <chunk x="0" y="-16" width="16" height="16">
127,88,88,88,88,88,85,70,0,0,0,0,69,70,0,0,
69,94,96,96,96,96,96,130,0,0,0,0,69,70,0,0,
77,78,0,0,0,0,0,0,0,0,0,0,77,78,0,0,
85,86,87,88,88,88,88,88,88,88,88,84,85,86,87,88,
93,94,95,96,96,96,96,96,96,96,96,92,93,94,95,96,
69,70,0,0,0,0,0,0,0,0,0,0,101,102,0,0,
69,70,0,0,0,0,0,0,0,0,0,0,109,110,0,0,
85,86,88,88,88,88,88,88,88,88,88,88,85,110,0,0,
93,94,96,96,96,96,96,96,96,96,96,96,93,110,0,0,
89,90,0,0,0,0,0,0,0,0,0,0,109,110,0,0,
97,98,0,0,0,0,0,0,0,0,0,0,109,110,0,0,
97,98,0,0,0,0,0,0,0,0,0,0,109,110,0,0,
105,106,0,0,0,0,0,0,0,0,0,0,109,110,0,0,
69,70,68,75,75,68,0,0,0,0,0,0,109,110,0,0,
69,70,75,75,75,75,0,0,0,0,0,0,109,110,0,0,
77,78,68,75,75,68,0,0,0,0,0,0,109,110,0,0
</chunk>
   <chunk x="16" y="-16" width="16" height="16">
0,0,0,0,0,0,0,0,0,0,0,0,0,0,0,0,
0,0,0,0,0,0,0,0,0,0,0,0,0,0,0,0,
0,0,0,0,0,0,0,0,0,0,0,0,0,0,0,0,
88,88,88,88,88,88,88,88,88,88,88,88,88,88,88,88,
96,96,96,96,96,96,96,96,96,96,96,96,96,96,96,96,
0,0,0,0,0,0,0,0,0,0,0,0,0,0,0,0,
0,0,0,0,0,0,0,0,0,0,0,0,0,0,0,0,
0,0,0,0,0,0,0,0,0,0,0,0,0,0,0,0,
0,0,0,0,0,0,0,0,0,0,0,0,0,0,0,0,
0,0,0,0,0,0,0,0,0,0,0,0,0,0,0,0,
0,0,0,0,0,0,0,0,0,0,0,0,0,0,0,0,
0,0,0,0,0,0,0,0,0,0,0,0,0,0,0,0,
0,0,0,0,0,0,0,0,0,0,0,0,0,0,0,0,
0,0,0,0,0,0,0,0,0,0,0,0,0,0,0,0,
0,0,0,0,0,0,0,0,0,0,0,0,0,0,0,0,
0,0,0,0,0,0,0,0,0,0,0,0,0,0,0,0
</chunk>
   <chunk x="32" y="-16" width="16" height="16">
0,0,0,0,0,0,0,0,0,0,0,0,0,0,0,0,
0,0,0,0,0,0,0,0,0,0,0,0,0,0,0,0,
0,0,0,0,0,0,0,0,0,0,0,0,0,0,0,0,
88,88,88,88,88,88,88,88,88,88,88,88,88,88,88,88,
96,96,96,96,96,96,96,96,96,96,96,96,96,96,96,96,
0,0,0,0,0,0,0,0,0,0,0,0,0,0,0,0,
0,0,0,0,0,0,0,0,0,0,0,0,0,0,0,0,
0,0,0,0,0,0,0,0,0,0,0,0,0,0,0,0,
0,0,0,0,0,0,0,0,0,0,0,0,0,0,0,0,
0,0,0,0,0,0,0,0,0,0,0,0,0,0,0,0,
0,0,0,0,0,0,0,0,0,0,0,0,0,0,0,0,
0,0,0,0,0,0,0,0,0,0,0,0,0,0,0,0,
0,0,0,0,0,0,0,0,0,0,0,0,0,0,0,0,
0,0,0,0,0,0,0,0,0,0,0,0,0,0,0,0,
0,0,0,0,0,0,0,0,0,0,0,0,0,0,0,0,
0,0,0,0,0,0,0,0,0,0,0,0,0,0,0,0
</chunk>
   <chunk x="48" y="-16" width="16" height="16">
0,0,0,0,0,0,0,0,0,0,0,0,0,0,0,0,
0,0,0,0,0,0,0,0,0,0,0,0,0,0,0,0,
0,0,0,0,0,0,0,0,0,0,0,0,0,0,0,0,
88,88,88,88,88,88,88,88,88,88,88,88,88,88,88,88,
96,96,96,96,96,96,96,96,96,96,96,96,96,96,96,96,
0,0,0,0,0,0,0,0,0,0,0,0,0,0,0,0,
0,0,0,0,0,0,0,0,0,0,0,0,0,0,0,0,
0,0,0,0,0,0,0,0,0,0,0,0,0,0,0,0,
0,0,0,0,0,0,0,0,0,0,0,0,0,0,0,0,
0,0,0,0,0,0,0,0,0,0,0,0,0,0,0,0,
0,0,0,0,0,0,0,0,0,0,0,0,0,0,0,0,
0,0,0,0,0,0,0,0,0,0,0,0,0,0,0,0,
0,0,0,0,0,0,0,0,0,0,0,0,0,0,0,0,
0,0,0,0,0,0,0,0,0,0,0,0,0,0,0,0,
0,0,0,0,0,0,0,0,0,0,0,0,0,0,0,0,
0,0,0,0,0,0,0,0,0,0,0,0,0,0,0,0
</chunk>
   <chunk x="-32" y="0" width="16" height="16">
0,0,0,0,0,0,0,0,0,0,0,0,127,83,83,83,
0,0,0,0,0,0,0,0,0,0,0,0,129,91,91,91,
0,0,0,0,0,0,0,0,0,0,0,0,0,0,0,0,
0,0,0,0,0,0,0,0,0,0,0,0,0,0,0,0,
0,0,0,0,0,0,0,0,0,0,0,0,0,0,0,0,
0,0,0,0,0,0,0,0,0,0,0,0,0,0,0,0,
0,0,0,0,0,0,0,0,0,0,0,0,0,0,0,0,
0,0,0,0,0,0,0,0,0,0,0,0,0,0,0,0,
0,0,0,0,0,0,0,0,0,0,0,0,0,0,0,0,
0,0,0,0,0,0,0,0,0,0,0,0,0,0,0,0,
0,0,0,0,0,0,0,0,0,0,0,0,0,0,0,0,
0,0,0,0,0,0,0,0,0,0,0,0,0,0,0,0,
0,0,0,0,0,0,0,0,0,0,0,0,0,0,0,0,
0,0,0,0,0,0,0,0,0,0,0,0,0,0,0,0,
0,0,0,0,0,0,0,0,0,0,0,0,0,0,0,0,
0,0,0,0,0,0,0,0,0,0,0,0,0,0,0,0
</chunk>
   <chunk x="-16" y="0" width="16" height="16">
85,86,83,83,83,83,83,83,83,83,83,83,85,86,83,84,
91,91,91,91,91,91,91,91,91,91,91,91,91,91,91,92,
0,0,0,0,0,0,0,0,0,0,0,0,0,0,0,0,
0,0,0,0,0,0,0,0,0,0,0,0,0,0,0,0,
0,0,0,0,0,0,0,0,0,0,0,0,0,0,0,0,
0,0,0,0,0,0,0,0,0,0,0,127,83,83,83,83,
0,0,0,0,0,0,0,0,0,0,0,109,94,91,91,91,
0,0,0,0,0,0,0,0,0,0,0,109,110,76,76,76,
0,0,0,0,0,0,0,0,0,0,0,109,110,76,76,76,
0,0,0,0,0,0,0,0,0,0,0,109,110,76,76,76,
0,0,0,0,0,0,0,0,0,0,127,85,86,83,83,83,
0,0,0,0,0,0,0,0,0,0,129,96,96,96,96,96,
0,0,0,0,0,0,0,0,0,0,0,0,0,0,0,0,
0,0,0,0,0,0,0,0,0,0,0,0,0,0,0,0,
0,0,0,0,0,0,0,0,0,0,0,0,0,0,0,0,
0,0,0,0,0,0,0,0,0,0,0,0,0,0,0,0
</chunk>
   <chunk x="0" y="0" width="16" height="16">
85,86,88,88,88,88,88,71,72,72,72,73,85,86,0,0,
93,94,96,96,93,94,96,79,80,80,80,81,93,94,0,0,
69,70,0,0,101,102,0,0,0,0,0,0,109,110,0,0,
69,70,0,0,109,110,0,0,0,0,0,0,109,110,0,0,
69,70,0,0,109,110,0,0,0,0,0,0,109,110,0,0,
85,86,83,83,85,110,0,0,0,0,0,0,109,110,0,0,
93,94,96,96,93,110,0,0,0,0,0,0,109,110,0,0,
69,70,76,76,109,110,0,0,0,0,0,0,109,110,0,0,
69,70,76,76,109,110,0,0,0,0,0,0,0,0,0,0,
109,70,76,76,109,110,0,0,0,0,0,0,0,0,0,0,
85,86,83,83,85,70,0,0,0,0,0,0,0,0,0,0,
96,96,96,96,96,130,0,0,0,0,0,0,0,0,0,0,
0,0,0,0,0,0,0,0,0,0,0,0,0,0,0,0,
0,0,0,0,0,0,0,0,0,0,0,0,0,0,0,0,
0,0,0,0,0,0,0,0,0,0,0,0,0,0,0,0,
0,0,0,0,0,0,0,0,0,0,0,0,0,0,0,0
</chunk>
  </data>
 </layer>
 <layer id="2" name="cosas" width="120" height="100">
  <data encoding="csv">
   <chunk x="0" y="-16" width="16" height="16">
0,0,0,0,0,0,0,0,0,0,0,0,0,0,0,0,
0,0,0,0,0,0,0,0,0,0,0,0,0,0,0,0,
0,0,0,0,0,0,0,0,0,0,0,0,0,0,0,0,
0,0,0,0,0,0,0,0,0,0,0,0,0,0,0,0,
0,0,0,0,0,0,0,0,0,0,0,0,0,0,0,0,
0,65,0,0,0,0,0,0,0,0,0,0,0,0,0,0,
0,66,0,0,0,0,0,0,0,0,0,0,0,0,0,0,
0,0,0,0,0,0,0,0,0,0,0,0,0,0,0,0,
0,0,0,0,0,0,0,0,0,0,0,0,0,0,0,0,
0,0,0,0,0,0,0,0,0,0,0,0,0,0,0,0,
0,0,0,0,0,0,0,0,0,0,0,0,0,0,0,0,
0,0,0,0,0,0,0,0,0,0,0,0,0,0,0,0,
0,0,0,0,0,0,0,0,0,0,0,0,0,0,0,0,
0,0,0,0,0,0,0,0,0,0,0,0,0,0,0,0,
0,0,0,0,0,0,0,0,0,0,0,0,0,0,0,0,
0,0,0,0,0,0,0,0,0,0,0,0,0,0,0,0
</chunk>
  </data>
 </layer>
</map>
